pavlakrotka/MASTERARBEIT/simulations_10_2022/results/results_ii_eq_pow.csv
num_arms,n_arm,d1,d2,d3,d4,d5,d6,d7,d8,d9,d10,period_blocks,unit_size,mu0,sigma,theta1,theta2,theta3,theta4,theta5,theta6,theta7,theta8,theta9,theta10,lambda0,lambda1,lambda2,lambda3,lambda4,lambda5,lambda6,lambda7,lambda8,lambda9,lambda10,trend,alpha,ci,timetrend,hypothesis,study_arm,model,reject_h0,failed,nsim
10,250,0,0,0,0,0,0,0,0,0,0,2,25,0,1,0.25,0.25,0.25,0.25,0.25,0.25,0.25,0.25,0.25,0.25,-0.5,-0.5,-0.5,-0.5,-0.5,-0.5,-0.5,-0.5,-0.5,-0.5,-0.5,linear,0.025,FALSE,EQ,H1,2,fixmodel,0.7945,0,10000
10,250,0,0,0,0,0,0,0,0,0,0,2,25,0,1,0.25,0.25,0.25,0.25,0.25,0.25,0.25,0.25,0.25,0.25,-0.5,-0.5,-0.5,-0.5,-0.5,-0.5,-0.5,-0.5,-0.5,-0.5,-0.5,linear,0.025,FALSE,EQ,H1,2,fixmodel_cal,0.795,0,10000
10,250,0,0,0,0,0,0,0,0,0,0,2,25,0,1,0.25,0.25,0.25,0.25,0.25,0.25,0.25,0.25,0.25,0.25,-0.5,-0.5,-0.5,-0.5,-0.5,-0.5,-0.5,-0.5,-0.5,-0.5,-0.5,linear,0.025,FALSE,EQ,H1,2,mixmodel,0.7945,0,10000
10,250,0,0,0,0,0,0,0,0,0,0,2,25,0,1,0.25,0.25,0.25,0.25,0.25,0.25,0.25,0.25,0.25,0.25,-0.5,-0.5,-0.5,-0.5,-0.5,-0.5,-0.5,-0.5,-0.5,-0.5,-0.5,linear,0.025,FALSE,EQ,H1,2,mixmodel_AR1,0.7945,0,10000
10,250,0,0,0,0,0,0,0,0,0,0,2,25,0,1,0.25,0.25,0.25,0.25,0.25,0.25,0.25,0.25,0.25,0.25,-0.5,-0.5,-0.5,-0.5,-0.5,-0.5,-0.5,-0.5,-0.5,-0.5,-0.5,linear,0.025,FALSE,EQ,H1,2,mixmodel_AR1_cal,0.8022,0,10000
10,250,0,0,0,0,0,0,0,0,0,0,2,25,0,1,0.25,0.25,0.25,0.25,0.25,0.25,0.25,0.25,0.25,0.25,-0.5,-0.5,-0.5,-0.5,-0.5,-0.5,-0.5,-0.5,-0.5,-0.5,-0.5,linear,0.025,FALSE,EQ,H1,2,mixmodel_cal,0.7996,0,10000
10,250,0,0,0,0,0,0,0,0,0,0,2,25,0,1,0.25,0.25,0.25,0.25,0.25,0.25,0.25,0.25,0.25,0.25,-0.5,-0.5,-0.5,-0.5,-0.5,-0.5,-0.5,-0.5,-0.5,-0.5,-0.5,linear,0.025,FALSE,EQ,H1,2,poolmodel,0.7926,0,10000
10,250,0,0,0,0,0,0,0,0,0,0,2,25,0,1,0.25,0.25,0.25,0.25,0.25,0.25,0.25,0.25,0.25,0.25,-0.5,-0.5,-0.5,-0.5,-0.5,-0.5,-0.5,-0.5,-0.5,-0.5,-0.5,linear,0.025,FALSE,EQ,H1,2,sepmodel,0.7926,0,10000
10,250,0,0,0,0,0,0,0,0,0,0,2,25,0,1,0.25,0.25,0.25,0.25,0.25,0.25,0.25,0.25,0.25,0.25,-0.5,-0.5,-0.5,-0.5,-0.5,-0.5,-0.5,-0.5,-0.5,-0.5,-0.5,linear,0.025,FALSE,EQ,H1,3,fixmodel,0.7907,0,10000
10,250,0,0,0,0,0,0,0,0,0,0,2,25,0,1,0.25,0.25,0.25,0.25,0.25,0.25,0.25,0.25,0.25,0.25,-0.5,-0.5,-0.5,-0.5,-0.5,-0.5,-0.5,-0.5,-0.5,-0.5,-0.5,linear,0.025,FALSE,EQ,H1,3,fixmodel_cal,0.793,0,10000
10,250,0,0,0,0,0,0,0,0,0,0,2,25,0,1,0.25,0.25,0.25,0.25,0.25,0.25,0.25,0.25,0.25,0.25,-0.5,-0.5,-0.5,-0.5,-0.5,-0.5,-0.5,-0.5,-0.5,-0.5,-0.5,linear,0.025,FALSE,EQ,H1,3,mixmodel,0.7907,0,10000
10,250,0,0,0,0,0,0,0,0,0,0,2,25,0,1,0.25,0.25,0.25,0.25,0.25,0.25,0.25,0.25,0.25,0.25,-0.5,-0.5,-0.5,-0.5,-0.5,-0.5,-0.5,-0.5,-0.5,-0.5,-0.5,linear,0.025,FALSE,EQ,H1,3,mixmodel_AR1,0.7907,0,10000
10,250,0,0,0,0,0,0,0,0,0,0,2,25,0,1,0.25,0.25,0.25,0.25,0.25,0.25,0.25,0.25,0.25,0.25,-0.5,-0.5,-0.5,-0.5,-0.5,-0.5,-0.5,-0.5,-0.5,-0.5,-0.5,linear,0.025,FALSE,EQ,H1,3,mixmodel_AR1_cal,0.7984,0,10000
10,250,0,0,0,0,0,0,0,0,0,0,2,25,0,1,0.25,0.25,0.25,0.25,0.25,0.25,0.25,0.25,0.25,0.25,-0.5,-0.5,-0.5,-0.5,-0.5,-0.5,-0.5,-0.5,-0.5,-0.5,-0.5,linear,0.025,FALSE,EQ,H1,3,mixmodel_cal,0.7951,0,10000
10,250,0,0,0,0,0,0,0,0,0,0,2,25,0,1,0.25,0.25,0.25,0.25,0.25,0.25,0.25,0.25,0.25,0.25,-0.5,-0.5,-0.5,-0.5,-0.5,-0.5,-0.5,-0.5,-0.5,-0.5,-0.5,linear,0.025,FALSE,EQ,H1,3,poolmodel,0.7893,0,10000
10,250,0,0,0,0,0,0,0,0,0,0,2,25,0,1,0.25,0.25,0.25,0.25,0.25,0.25,0.25,0.25,0.25,0.25,-0.5,-0.5,-0.5,-0.5,-0.5,-0.5,-0.5,-0.5,-0.5,-0.5,-0.5,linear,0.025,FALSE,EQ,H1,3,sepmodel,0.7893,0,10000
10,250,0,0,0,0,0,0,0,0,0,0,2,25,0,1,0.25,0.25,0.25,0.25,0.25,0.25,0.25,0.25,0.25,0.25,-0.5,-0.5,-0.5,-0.5,-0.5,-0.5,-0.5,-0.5,-0.5,-0.5,-0.5,linear,0.025,FALSE,EQ,H1,4,fixmodel,0.7939,0,10000
10,250,0,0,0,0,0,0,0,0,0,0,2,25,0,1,0.25,0.25,0.25,0.25,0.25,0.25,0.25,0.25,0.25,0.25,-0.5,-0.5,-0.5,-0.5,-0.5,-0.5,-0.5,-0.5,-0.5,-0.5,-0.5,linear,0.025,FALSE,EQ,H1,4,fixmodel_cal,0.7941,0,10000
10,250,0,0,0,0,0,0,0,0,0,0,2,25,0,1,0.25,0.25,0.25,0.25,0.25,0.25,0.25,0.25,0.25,0.25,-0.5,-0.5,-0.5,-0.5,-0.5,-0.5,-0.5,-0.5,-0.5,-0.5,-0.5,linear,0.025,FALSE,EQ,H1,4,mixmodel,0.7939,0,10000
10,250,0,0,0,0,0,0,0,0,0,0,2,25,0,1,0.25,0.25,0.25,0.25,0.25,0.25,0.25,0.25,0.25,0.25,-0.5,-0.5,-0.5,-0.5,-0.5,-0.5,-0.5,-0.5,-0.5,-0.5,-0.5,linear,0.025,FALSE,EQ,H1,4,mixmodel_AR1,0.7939,0,10000
10,250,0,0,0,0,0,0,0,0,0,0,2,25,0,1,0.25,0.25,0.25,0.25,0.25,0.25,0.25,0.25,0.25,0.25,-0.5,-0.5,-0.5,-0.5,-0.5,-0.5,-0.5,-0.5,-0.5,-0.5,-0.5,linear,0.025,FALSE,EQ,H1,4,mixmodel_AR1_cal,0.8011,0,10000
10,250,0,0,0,0,0,0,0,0,0,0,2,25,0,1,0.25,0.25,0.25,0.25,0.25,0.25,0.25,0.25,0.25,0.25,-0.5,-0.5,-0.5,-0.5,-0.5,-0.5,-0.5,-0.5,-0.5,-0.5,-0.5,linear,0.025,FALSE,EQ,H1,4,mixmodel_cal,0.7978,0,10000
10,250,0,0,0,0,0,0,0,0,0,0,2,25,0,1,0.25,0.25,0.25,0.25,0.25,0.25,0.25,0.25,0.25,0.25,-0.5,-0.5,-0.5,-0.5,-0.5,-0.5,-0.5,-0.5,-0.5,-0.5,-0.5,linear,0.025,FALSE,EQ,H1,4,poolmodel,0.7923,0,10000
10,250,0,0,0,0,0,0,0,0,0,0,2,25,0,1,0.25,0.25,0.25,0.25,0.25,0.25,0.25,0.25,0.25,0.25,-0.5,-0.5,-0.5,-0.5,-0.5,-0.5,-0.5,-0.5,-0.5,-0.5,-0.5,linear,0.025,FALSE,EQ,H1,4,sepmodel,0.7923,0,10000
10,250,0,0,0,0,0,0,0,0,0,0,2,25,0,1,0.25,0.25,0.25,0.25,0.25,0.25,0.25,0.25,0.25,0.25,-0.5,-0.5,-0.5,-0.5,-0.5,-0.5,-0.5,-0.5,-0.5,-0.5,-0.5,linear,0.025,FALSE,EQ,H1,5,fixmodel,0.7938,0,10000
10,250,0,0,0,0,0,0,0,0,0,0,2,25,0,1,0.25,0.25,0.25,0.25,0.25,0.25,0.25,0.25,0.25,0.25,-0.5,-0.5,-0.5,-0.5,-0.5,-0.5,-0.5,-0.5,-0.5,-0.5,-0.5,linear,0.025,FALSE,EQ,H1,5,fixmodel_cal,0.794,0,10000
10,250,0,0,0,0,0,0,0,0,0,0,2,25,0,1,0.25,0.25,0.25,0.25,0.25,0.25,0.25,0.25,0.25,0.25,-0.5,-0.5,-0.5,-0.5,-0.5,-0.5,-0.5,-0.5,-0.5,-0.5,-0.5,linear,0.025,FALSE,EQ,H1,5,mixmodel,0.7938,0,10000
10,250,0,0,0,0,0,0,0,0,0,0,2,25,0,1,0.25,0.25,0.25,0.25,0.25,0.25,0.25,0.25,0.25,0.25,-0.5,-0.5,-0.5,-0.5,-0.5,-0.5,-0.5,-0.5,-0.5,-0.5,-0.5,linear,0.025,FALSE,EQ,H1,5,mixmodel_AR1,0.7938,0,10000
10,250,0,0,0,0,0,0,0,0,0,0,2,25,0,1,0.25,0.25,0.25,0.25,0.25,0.25,0.25,0.25,0.25,0.25,-0.5,-0.5,-0.5,-0.5,-0.5,-0.5,-0.5,-0.5,-0.5,-0.5,-0.5,linear,0.025,FALSE,EQ,H1,5,mixmodel_AR1_cal,0.8012,0,10000
10,250,0,0,0,0,0,0,0,0,0,0,2,25,0,1,0.25,0.25,0.25,0.25,0.25,0.25,0.25,0.25,0.25,0.25,-0.5,-0.5,-0.5,-0.5,-0.5,-0.5,-0.5,-0.5,-0.5,-0.5,-0.5,linear,0.025,FALSE,EQ,H1,5,mixmodel_cal,0.7973,0,10000
10,250,0,0,0,0,0,0,0,0,0,0,2,25,0,1,0.25,0.25,0.25,0.25,0.25,0.25,0.25,0.25,0.25,0.25,-0.5,-0.5,-0.5,-0.5,-0.5,-0.5,-0.5,-0.5,-0.5,-0.5,-0.5,linear,0.025,FALSE,EQ,H1,5,poolmodel,0.792,0,10000
10,250,0,0,0,0,0,0,0,0,0,0,2,25,0,1,0.25,0.25,0.25,0.25,0.25,0.25,0.25,0.25,0.25,0.25,-0.5,-0.5,-0.5,-0.5,-0.5,-0.5,-0.5,-0.5,-0.5,-0.5,-0.5,linear,0.025,FALSE,EQ,H1,5,sepmodel,0.792,0,10000
10,250,0,0,0,0,0,0,0,0,0,0,2,25,0,1,0.25,0.25,0.25,0.25,0.25,0.25,0.25,0.25,0.25,0.25,-0.5,-0.5,-0.5,-0.5,-0.5,-0.5,-0.5,-0.5,-0.5,-0.5,-0.5,linear,0.025,FALSE,EQ,H1,6,fixmodel,0.7939,0,10000
10,250,0,0,0,0,0,0,0,0,0,0,2,25,0,1,0.25,0.25,0.25,0.25,0.25,0.25,0.25,0.25,0.25,0.25,-0.5,-0.5,-0.5,-0.5,-0.5,-0.5,-0.5,-0.5,-0.5,-0.5,-0.5,linear,0.025,FALSE,EQ,H1,6,fixmodel_cal,0.7956,0,10000
10,250,0,0,0,0,0,0,0,0,0,0,2,25,0,1,0.25,0.25,0.25,0.25,0.25,0.25,0.25,0.25,0.25,0.25,-0.5,-0.5,-0.5,-0.5,-0.5,-0.5,-0.5,-0.5,-0.5,-0.5,-0.5,linear,0.025,FALSE,EQ,H1,6,mixmodel,0.7939,0,10000
10,250,0,0,0,0,0,0,0,0,0,0,2,25,0,1,0.25,0.25,0.25,0.25,0.25,0.25,0.25,0.25,0.25,0.25,-0.5,-0.5,-0.5,-0.5,-0.5,-0.5,-0.5,-0.5,-0.5,-0.5,-0.5,linear,0.025,FALSE,EQ,H1,6,mixmodel_AR1,0.7939,0,10000
10,250,0,0,0,0,0,0,0,0,0,0,2,25,0,1,0.25,0.25,0.25,0.25,0.25,0.25,0.25,0.25,0.25,0.25,-0.5,-0.5,-0.5,-0.5,-0.5,-0.5,-0.5,-0.5,-0.5,-0.5,-0.5,linear,0.025,FALSE,EQ,H1,6,mixmodel_AR1_cal,0.802,0,10000
10,250,0,0,0,0,0,0,0,0,0,0,2,25,0,1,0.25,0.25,0.25,0.25,0.25,0.25,0.25,0.25,0.25,0.25,-0.5,-0.5,-0.5,-0.5,-0.5,-0.5,-0.5,-0.5,-0.5,-0.5,-0.5,linear,0.025,FALSE,EQ,H1,6,mixmodel_cal,0.7985,0,10000
10,250,0,0,0,0,0,0,0,0,0,0,2,25,0,1,0.25,0.25,0.25,0.25,0.25,0.25,0.25,0.25,0.25,0.25,-0.5,-0.5,-0.5,-0.5,-0.5,-0.5,-0.5,-0.5,-0.5,-0.5,-0.5,linear,0.025,FALSE,EQ,H1,6,poolmodel,0.7932,0,10000
10,250,0,0,0,0,0,0,0,0,0,0,2,25,0,1,0.25,0.25,0.25,0.25,0.25,0.25,0.25,0.25,0.25,0.25,-0.5,-0.5,-0.5,-0.5,-0.5,-0.5,-0.5,-0.5,-0.5,-0.5,-0.5,linear,0.025,FALSE,EQ,H1,6,sepmodel,0.7932,0,10000
10,250,0,0,0,0,0,0,0,0,0,0,2,25,0,1,0.25,0.25,0.25,0.25,0.25,0.25,0.25,0.25,0.25,0.25,-0.5,-0.5,-0.5,-0.5,-0.5,-0.5,-0.5,-0.5,-0.5,-0.5,-0.5,linear,0.025,FALSE,EQ,H1,7,fixmodel,0.7909,0,10000
10,250,0,0,0,0,0,0,0,0,0,0,2,25,0,1,0.25,0.25,0.25,0.25,0.25,0.25,0.25,0.25,0.25,0.25,-0.5,-0.5,-0.5,-0.5,-0.5,-0.5,-0.5,-0.5,-0.5,-0.5,-0.5,linear,0.025,FALSE,EQ,H1,7,fixmodel_cal,0.7934,0,10000
10,250,0,0,0,0,0,0,0,0,0,0,2,25,0,1,0.25,0.25,0.25,0.25,0.25,0.25,0.25,0.25,0.25,0.25,-0.5,-0.5,-0.5,-0.5,-0.5,-0.5,-0.5,-0.5,-0.5,-0.5,-0.5,linear,0.025,FALSE,EQ,H1,7,mixmodel,0.7909,0,10000
10,250,0,0,0,0,0,0,0,0,0,0,2,25,0,1,0.25,0.25,0.25,0.25,0.25,0.25,0.25,0.25,0.25,0.25,-0.5,-0.5,-0.5,-0.5,-0.5,-0.5,-0.5,-0.5,-0.5,-0.5,-0.5,linear,0.025,FALSE,EQ,H1,7,mixmodel_AR1,0.7909,0,10000
10,250,0,0,0,0,0,0,0,0,0,0,2,25,0,1,0.25,0.25,0.25,0.25,0.25,0.25,0.25,0.25,0.25,0.25,-0.5,-0.5,-0.5,-0.5,-0.5,-0.5,-0.5,-0.5,-0.5,-0.5,-0.5,linear,0.025,FALSE,EQ,H1,7,mixmodel_AR1_cal,0.7987,0,10000
10,250,0,0,0,0,0,0,0,0,0,0,2,25,0,1,0.25,0.25,0.25,0.25,0.25,0.25,0.25,0.25,0.25,0.25,-0.5,-0.5,-0.5,-0.5,-0.5,-0.5,-0.5,-0.5,-0.5,-0.5,-0.5,linear,0.025,FALSE,EQ,H1,7,mixmodel_cal,0.7955,0,10000
10,250,0,0,0,0,0,0,0,0,0,0,2,25,0,1,0.25,0.25,0.25,0.25,0.25,0.25,0.25,0.25,0.25,0.25,-0.5,-0.5,-0.5,-0.5,-0.5,-0.5,-0.5,-0.5,-0.5,-0.5,-0.5,linear,0.025,FALSE,EQ,H1,7,poolmodel,0.7897,0,10000
10,250,0,0,0,0,0,0,0,0,0,0,2,25,0,1,0.25,0.25,0.25,0.25,0.25,0.25,0.25,0.25,0.25,0.25,-0.5,-0.5,-0.5,-0.5,-0.5,-0.5,-0.5,-0.5,-0.5,-0.5,-0.5,linear,0.025,FALSE,EQ,H1,7,sepmodel,0.7897,0,10000
10,250,0,0,0,0,0,0,0,0,0,0,2,25,0,1,0.25,0.25,0.25,0.25,0.25,0.25,0.25,0.25,0.25,0.25,-0.5,-0.5,-0.5,-0.5,-0.5,-0.5,-0.5,-0.5,-0.5,-0.5,-0.5,linear,0.025,FALSE,EQ,H1,8,fixmodel,0.7905,0,10000
10,250,0,0,0,0,0,0,0,0,0,0,2,25,0,1,0.25,0.25,0.25,0.25,0.25,0.25,0.25,0.25,0.25,0.25,-0.5,-0.5,-0.5,-0.5,-0.5,-0.5,-0.5,-0.5,-0.5,-0.5,-0.5,linear,0.025,FALSE,EQ,H1,8,fixmodel_cal,0.7927,0,10000
10,250,0,0,0,0,0,0,0,0,0,0,2,25,0,1,0.25,0.25,0.25,0.25,0.25,0.25,0.25,0.25,0.25,0.25,-0.5,-0.5,-0.5,-0.5,-0.5,-0.5,-0.5,-0.5,-0.5,-0.5,-0.5,linear,0.025,FALSE,EQ,H1,8,mixmodel,0.7905,0,10000
10,250,0,0,0,0,0,0,0,0,0,0,2,25,0,1,0.25,0.25,0.25,0.25,0.25,0.25,0.25,0.25,0.25,0.25,-0.5,-0.5,-0.5,-0.5,-0.5,-0.5,-0.5,-0.5,-0.5,-0.5,-0.5,linear,0.025,FALSE,EQ,H1,8,mixmodel_AR1,0.7905,0,10000
10,250,0,0,0,0,0,0,0,0,0,0,2,25,0,1,0.25,0.25,0.25,0.25,0.25,0.25,0.25,0.25,0.25,0.25,-0.5,-0.5,-0.5,-0.5,-0.5,-0.5,-0.5,-0.5,-0.5,-0.5,-0.5,linear,0.025,FALSE,EQ,H1,8,mixmodel_AR1_cal,0.7977,0,10000
10,250,0,0,0,0,0,0,0,0,0,0,2,25,0,1,0.25,0.25,0.25,0.25,0.25,0.25,0.25,0.25,0.25,0.25,-0.5,-0.5,-0.5,-0.5,-0.5,-0.5,-0.5,-0.5,-0.5,-0.5,-0.5,linear,0.025,FALSE,EQ,H1,8,mixmodel_cal,0.7947,0,10000
10,250,0,0,0,0,0,0,0,0,0,0,2,25,0,1,0.25,0.25,0.25,0.25,0.25,0.25,0.25,0.25,0.25,0.25,-0.5,-0.5,-0.5,-0.5,-0.5,-0.5,-0.5,-0.5,-0.5,-0.5,-0.5,linear,0.025,FALSE,EQ,H1,8,poolmodel,0.7878,0,10000
10,250,0,0,0,0,0,0,0,0,0,0,2,25,0,1,0.25,0.25,0.25,0.25,0.25,0.25,0.25,0.25,0.25,0.25,-0.5,-0.5,-0.5,-0.5,-0.5,-0.5,-0.5,-0.5,-0.5,-0.5,-0.5,linear,0.025,FALSE,EQ,H1,8,sepmodel,0.7878,0,10000
10,250,0,0,0,0,0,0,0,0,0,0,2,25,0,1,0.25,0.25,0.25,0.25,0.25,0.25,0.25,0.25,0.25,0.25,-0.5,-0.5,-0.5,-0.5,-0.5,-0.5,-0.5,-0.5,-0.5,-0.5,-0.5,linear,0.025,FALSE,EQ,H1,9,fixmodel,0.7931,0,10000
10,250,0,0,0,0,0,0,0,0,0,0,2,25,0,1,0.25,0.25,0.25,0.25,0.25,0.25,0.25,0.25,0.25,0.25,-0.5,-0.5,-0.5,-0.5,-0.5,-0.5,-0.5,-0.5,-0.5,-0.5,-0.5,linear,0.025,FALSE,EQ,H1,9,fixmodel_cal,0.7947,0,10000
10,250,0,0,0,0,0,0,0,0,0,0,2,25,0,1,0.25,0.25,0.25,0.25,0.25,0.25,0.25,0.25,0.25,0.25,-0.5,-0.5,-0.5,-0.5,-0.5,-0.5,-0.5,-0.5,-0.5,-0.5,-0.5,linear,0.025,FALSE,EQ,H1,9,mixmodel,0.7931,0,10000
10,250,0,0,0,0,0,0,0,0,0,0,2,25,0,1,0.25,0.25,0.25,0.25,0.25,0.25,0.25,0.25,0.25,0.25,-0.5,-0.5,-0.5,-0.5,-0.5,-0.5,-0.5,-0.5,-0.5,-0.5,-0.5,linear,0.025,FALSE,EQ,H1,9,mixmodel_AR1,0.7931,0,10000
10,250,0,0,0,0,0,0,0,0,0,0,2,25,0,1,0.25,0.25,0.25,0.25,0.25,0.25,0.25,0.25,0.25,0.25,-0.5,-0.5,-0.5,-0.5,-0.5,-0.5,-0.5,-0.5,-0.5,-0.5,-0.5,linear,0.025,FALSE,EQ,H1,9,mixmodel_AR1_cal,0.8003,0,10000
10,250,0,0,0,0,0,0,0,0,0,0,2,25,0,1,0.25,0.25,0.25,0.25,0.25,0.25,0.25,0.25,0.25,0.25,-0.5,-0.5,-0.5,-0.5,-0.5,-0.5,-0.5,-0.5,-0.5,-0.5,-0.5,linear,0.025,FALSE,EQ,H1,9,mixmodel_cal,0.7967,0,10000
10,250,0,0,0,0,0,0,0,0,0,0,2,25,0,1,0.25,0.25,0.25,0.25,0.25,0.25,0.25,0.25,0.25,0.25,-0.5,-0.5,-0.5,-0.5,-0.5,-0.5,-0.5,-0.5,-0.5,-0.5,-0.5,linear,0.025,FALSE,EQ,H1,9,poolmodel,0.7927,0,10000
10,250,0,0,0,0,0,0,0,0,0,0,2,25,0,1,0.25,0.25,0.25,0.25,0.25,0.25,0.25,0.25,0.25,0.25,-0.5,-0.5,-0.5,-0.5,-0.5,-0.5,-0.5,-0.5,-0.5,-0.5,-0.5,linear,0.025,FALSE,EQ,H1,9,sepmodel,0.7927,0,10000
10,250,0,0,0,0,0,0,0,0,0,0,2,25,0,1,0.25,0.25,0.25,0.25,0.25,0.25,0.25,0.25,0.25,0.25,-0.5,-0.5,-0.5,-0.5,-0.5,-0.5,-0.5,-0.5,-0.5,-0.5,-0.5,linear,0.025,FALSE,EQ,H1,10,fixmodel,0.7933,0,10000
10,250,0,0,0,0,0,0,0,0,0,0,2,25,0,1,0.25,0.25,0.25,0.25,0.25,0.25,0.25,0.25,0.25,0.25,-0.5,-0.5,-0.5,-0.5,-0.5,-0.5,-0.5,-0.5,-0.5,-0.5,-0.5,linear,0.025,FALSE,EQ,H1,10,fixmodel_cal,0.7957,0,10000
10,250,0,0,0,0,0,0,0,0,0,0,2,25,0,1,0.25,0.25,0.25,0.25,0.25,0.25,0.25,0.25,0.25,0.25,-0.5,-0.5,-0.5,-0.5,-0.5,-0.5,-0.5,-0.5,-0.5,-0.5,-0.5,linear,0.025,FALSE,EQ,H1,10,mixmodel,0.7933,0,10000
10,250,0,0,0,0,0,0,0,0,0,0,2,25,0,1,0.25,0.25,0.25,0.25,0.25,0.25,0.25,0.25,0.25,0.25,-0.5,-0.5,-0.5,-0.5,-0.5,-0.5,-0.5,-0.5,-0.5,-0.5,-0.5,linear,0.025,FALSE,EQ,H1,10,mixmodel_AR1,0.7933,0,10000
10,250,0,0,0,0,0,0,0,0,0,0,2,25,0,1,0.25,0.25,0.25,0.25,0.25,0.25,0.25,0.25,0.25,0.25,-0.5,-0.5,-0.5,-0.5,-0.5,-0.5,-0.5,-0.5,-0.5,-0.5,-0.5,linear,0.025,FALSE,EQ,H1,10,mixmodel_AR1_cal,0.7985,0,10000
10,250,0,0,0,0,0,0,0,0,0,0,2,25,0,1,0.25,0.25,0.25,0.25,0.25,0.25,0.25,0.25,0.25,0.25,-0.5,-0.5,-0.5,-0.5,-0.5,-0.5,-0.5,-0.5,-0.5,-0.5,-0.5,linear,0.025,FALSE,EQ,H1,10,mixmodel_cal,0.7973,0,10000
10,250,0,0,0,0,0,0,0,0,0,0,2,25,0,1,0.25,0.25,0.25,0.25,0.25,0.25,0.25,0.25,0.25,0.25,-0.5,-0.5,-0.5,-0.5,-0.5,-0.5,-0.5,-0.5,-0.5,-0.5,-0.5,linear,0.025,FALSE,EQ,H1,10,poolmodel,0.7934,0,10000
10,250,0,0,0,0,0,0,0,0,0,0,2,25,0,1,0.25,0.25,0.25,0.25,0.25,0.25,0.25,0.25,0.25,0.25,-0.5,-0.5,-0.5,-0.5,-0.5,-0.5,-0.5,-0.5,-0.5,-0.5,-0.5,linear,0.025,FALSE,EQ,H1,10,sepmodel,0.7934,0,10000
10,250,0,100,200,300,400,500,600,700,800,900,2,25,0,1,0.25,0.25,0.25,0.25,0.25,0.25,0.25,0.25,0.25,0.25,-0.5,-0.5,-0.5,-0.5,-0.5,-0.5,-0.5,-0.5,-0.5,-0.5,-0.5,linear,0.025,FALSE,EQ,H1,2,fixmodel,0.817,0,10000
10,250,0,100,200,300,400,500,600,700,800,900,2,25,0,1,0.25,0.25,0.25,0.25,0.25,0.25,0.25,0.25,0.25,0.25,-0.5,-0.5,-0.5,-0.5,-0.5,-0.5,-0.5,-0.5,-0.5,-0.5,-0.5,linear,0.025,FALSE,EQ,H1,2,fixmodel_cal,0.8153,0,10000
10,250,0,100,200,300,400,500,600,700,800,900,2,25,0,1,0.25,0.25,0.25,0.25,0.25,0.25,0.25,0.25,0.25,0.25,-0.5,-0.5,-0.5,-0.5,-0.5,-0.5,-0.5,-0.5,-0.5,-0.5,-0.5,linear,0.025,FALSE,EQ,H1,2,mixmodel,0.7927,0,10000
10,250,0,100,200,300,400,500,600,700,800,900,2,25,0,1,0.25,0.25,0.25,0.25,0.25,0.25,0.25,0.25,0.25,0.25,-0.5,-0.5,-0.5,-0.5,-0.5,-0.5,-0.5,-0.5,-0.5,-0.5,-0.5,linear,0.025,FALSE,EQ,H1,2,mixmodel_AR1,0.7979,0,10000
10,250,0,100,200,300,400,500,600,700,800,900,2,25,0,1,0.25,0.25,0.25,0.25,0.25,0.25,0.25,0.25,0.25,0.25,-0.5,-0.5,-0.5,-0.5,-0.5,-0.5,-0.5,-0.5,-0.5,-0.5,-0.5,linear,0.025,FALSE,EQ,H1,2,mixmodel_AR1_cal,0.7986,0,10000
10,250,0,100,200,300,400,500,600,700,800,900,2,25,0,1,0.25,0.25,0.25,0.25,0.25,0.25,0.25,0.25,0.25,0.25,-0.5,-0.5,-0.5,-0.5,-0.5,-0.5,-0.5,-0.5,-0.5,-0.5,-0.5,linear,0.025,FALSE,EQ,H1,2,mixmodel_cal,0.7653,0,10000
10,250,0,100,200,300,400,500,600,700,800,900,2,25,0,1,0.25,0.25,0.25,0.25,0.25,0.25,0.25,0.25,0.25,0.25,-0.5,-0.5,-0.5,-0.5,-0.5,-0.5,-0.5,-0.5,-0.5,-0.5,-0.5,linear,0.025,FALSE,EQ,H1,2,poolmodel,0.7534,0,10000
10,250,0,100,200,300,400,500,600,700,800,900,2,25,0,1,0.25,0.25,0.25,0.25,0.25,0.25,0.25,0.25,0.25,0.25,-0.5,-0.5,-0.5,-0.5,-0.5,-0.5,-0.5,-0.5,-0.5,-0.5,-0.5,linear,0.025,FALSE,EQ,H1,2,sepmodel,0.7974,0,10000
10,250,0,100,200,300,400,500,600,700,800,900,2,25,0,1,0.25,0.25,0.25,0.25,0.25,0.25,0.25,0.25,0.25,0.25,-0.5,-0.5,-0.5,-0.5,-0.5,-0.5,-0.5,-0.5,-0.5,-0.5,-0.5,linear,0.025,FALSE,EQ,H1,3,fixmodel,0.8277,0,10000
10,250,0,100,200,300,400,500,600,700,800,900,2,25,0,1,0.25,0.25,0.25,0.25,0.25,0.25,0.25,0.25,0.25,0.25,-0.5,-0.5,-0.5,-0.5,-0.5,-0.5,-0.5,-0.5,-0.5,-0.5,-0.5,linear,0.025,FALSE,EQ,H1,3,fixmodel_cal,0.824,0,10000
10,250,0,100,200,300,400,500,600,700,800,900,2,25,0,1,0.25,0.25,0.25,0.25,0.25,0.25,0.25,0.25,0.25,0.25,-0.5,-0.5,-0.5,-0.5,-0.5,-0.5,-0.5,-0.5,-0.5,-0.5,-0.5,linear,0.025,FALSE,EQ,H1,3,mixmodel,0.7768,0,10000
10,250,0,100,200,300,400,500,600,700,800,900,2,25,0,1,0.25,0.25,0.25,0.25,0.25,0.25,0.25,0.25,0.25,0.25,-0.5,-0.5,-0.5,-0.5,-0.5,-0.5,-0.5,-0.5,-0.5,-0.5,-0.5,linear,0.025,FALSE,EQ,H1,3,mixmodel_AR1,0.8012,0,10000
10,250,0,100,200,300,400,500,600,700,800,900,2,25,0,1,0.25,0.25,0.25,0.25,0.25,0.25,0.25,0.25,0.25,0.25,-0.5,-0.5,-0.5,-0.5,-0.5,-0.5,-0.5,-0.5,-0.5,-0.5,-0.5,linear,0.025,FALSE,EQ,H1,3,mixmodel_AR1_cal,0.7961,0,10000
10,250,0,100,200,300,400,500,600,700,800,900,2,25,0,1,0.25,0.25,0.25,0.25,0.25,0.25,0.25,0.25,0.25,0.25,-0.5,-0.5,-0.5,-0.5,-0.5,-0.5,-0.5,-0.5,-0.5,-0.5,-0.5,linear,0.025,FALSE,EQ,H1,3,mixmodel_cal,0.7057,0,10000
10,250,0,100,200,300,400,500,600,700,800,900,2,25,0,1,0.25,0.25,0.25,0.25,0.25,0.25,0.25,0.25,0.25,0.25,-0.5,-0.5,-0.5,-0.5,-0.5,-0.5,-0.5,-0.5,-0.5,-0.5,-0.5,linear,0.025,FALSE,EQ,H1,3,poolmodel,0.6796,0,10000
10,250,0,100,200,300,400,500,600,700,800,900,2,25,0,1,0.25,0.25,0.25,0.25,0.25,0.25,0.25,0.25,0.25,0.25,-0.5,-0.5,-0.5,-0.5,-0.5,-0.5,-0.5,-0.5,-0.5,-0.5,-0.5,linear,0.025,FALSE,EQ,H1,3,sepmodel,0.7949,0,10000
10,250,0,100,200,300,400,500,600,700,800,900,2,25,0,1,0.25,0.25,0.25,0.25,0.25,0.25,0.25,0.25,0.25,0.25,-0.5,-0.5,-0.5,-0.5,-0.5,-0.5,-0.5,-0.5,-0.5,-0.5,-0.5,linear,0.025,FALSE,EQ,H1,4,fixmodel,0.8368,0,10000
10,250,0,100,200,300,400,500,600,700,800,900,2,25,0,1,0.25,0.25,0.25,0.25,0.25,0.25,0.25,0.25,0.25,0.25,-0.5,-0.5,-0.5,-0.5,-0.5,-0.5,-0.5,-0.5,-0.5,-0.5,-0.5,linear,0.025,FALSE,EQ,H1,4,fixmodel_cal,0.8329,0,10000
10,250,0,100,200,300,400,500,600,700,800,900,2,25,0,1,0.25,0.25,0.25,0.25,0.25,0.25,0.25,0.25,0.25,0.25,-0.5,-0.5,-0.5,-0.5,-0.5,-0.5,-0.5,-0.5,-0.5,-0.5,-0.5,linear,0.025,FALSE,EQ,H1,4,mixmodel,0.7657,0,10000
10,250,0,100,200,300,400,500,600,700,800,900,2,25,0,1,0.25,0.25,0.25,0.25,0.25,0.25,0.25,0.25,0.25,0.25,-0.5,-0.5,-0.5,-0.5,-0.5,-0.5,-0.5,-0.5,-0.5,-0.5,-0.5,linear,0.025,FALSE,EQ,H1,4,mixmodel_AR1,0.8035,0,10000
10,250,0,100,200,300,400,500,600,700,800,900,2,25,0,1,0.25,0.25,0.25,0.25,0.25,0.25,0.25,0.25,0.25,0.25,-0.5,-0.5,-0.5,-0.5,-0.5,-0.5,-0.5,-0.5,-0.5,-0.5,-0.5,linear,0.025,FALSE,EQ,H1,4,mixmodel_AR1_cal,0.799,0,10000
10,250,0,100,200,300,400,500,600,700,800,900,2,25,0,1,0.25,0.25,0.25,0.25,0.25,0.25,0.25,0.25,0.25,0.25,-0.5,-0.5,-0.5,-0.5,-0.5,-0.5,-0.5,-0.5,-0.5,-0.5,-0.5,linear,0.025,FALSE,EQ,H1,4,mixmodel_cal,0.6541,0,10000
10,250,0,100,200,300,400,500,600,700,800,900,2,25,0,1,0.25,0.25,0.25,0.25,0.25,0.25,0.25,0.25,0.25,0.25,-0.5,-0.5,-0.5,-0.5,-0.5,-0.5,-0.5,-0.5,-0.5,-0.5,-0.5,linear,0.025,FALSE,EQ,H1,4,poolmodel,0.6159,0,10000
10,250,0,100,200,300,400,500,600,700,800,900,2,25,0,1,0.25,0.25,0.25,0.25,0.25,0.25,0.25,0.25,0.25,0.25,-0.5,-0.5,-0.5,-0.5,-0.5,-0.5,-0.5,-0.5,-0.5,-0.5,-0.5,linear,0.025,FALSE,EQ,H1,4,sepmodel,0.7979,0,10000
10,250,0,100,200,300,400,500,600,700,800,900,2,25,0,1,0.25,0.25,0.25,0.25,0.25,0.25,0.25,0.25,0.25,0.25,-0.5,-0.5,-0.5,-0.5,-0.5,-0.5,-0.5,-0.5,-0.5,-0.5,-0.5,linear,0.025,FALSE,EQ,H1,5,fixmodel,0.8318,0,10000
10,250,0,100,200,300,400,500,600,700,800,900,2,25,0,1,0.25,0.25,0.25,0.25,0.25,0.25,0.25,0.25,0.25,0.25,-0.5,-0.5,-0.5,-0.5,-0.5,-0.5,-0.5,-0.5,-0.5,-0.5,-0.5,linear,0.025,FALSE,EQ,H1,5,fixmodel_cal,0.832,0,10000
10,250,0,100,200,300,400,500,600,700,800,900,2,25,0,1,0.25,0.25,0.25,0.25,0.25,0.25,0.25,0.25,0.25,0.25,-0.5,-0.5,-0.5,-0.5,-0.5,-0.5,-0.5,-0.5,-0.5,-0.5,-0.5,linear,0.025,FALSE,EQ,H1,5,mixmodel,0.7386,0,10000
10,250,0,100,200,300,400,500,600,700,800,900,2,25,0,1,0.25,0.25,0.25,0.25,0.25,0.25,0.25,0.25,0.25,0.25,-0.5,-0.5,-0.5,-0.5,-0.5,-0.5,-0.5,-0.5,-0.5,-0.5,-0.5,linear,0.025,FALSE,EQ,H1,5,mixmodel_AR1,0.7985,0,10000
10,250,0,100,200,300,400,500,600,700,800,900,2,25,0,1,0.25,0.25,0.25,0.25,0.25,0.25,0.25,0.25,0.25,0.25,-0.5,-0.5,-0.5,-0.5,-0.5,-0.5,-0.5,-0.5,-0.5,-0.5,-0.5,linear,0.025,FALSE,EQ,H1,5,mixmodel_AR1_cal,0.7912,0,10000
10,250,0,100,200,300,400,500,600,700,800,900,2,25,0,1,0.25,0.25,0.25,0.25,0.25,0.25,0.25,0.25,0.25,0.25,-0.5,-0.5,-0.5,-0.5,-0.5,-0.5,-0.5,-0.5,-0.5,-0.5,-0.5,linear,0.025,FALSE,EQ,H1,5,mixmodel_cal,0.5894,0,10000
10,250,0,100,200,300,400,500,600,700,800,900,2,25,0,1,0.25,0.25,0.25,0.25,0.25,0.25,0.25,0.25,0.25,0.25,-0.5,-0.5,-0.5,-0.5,-0.5,-0.5,-0.5,-0.5,-0.5,-0.5,-0.5,linear,0.025,FALSE,EQ,H1,5,poolmodel,0.5355,0,10000
10,250,0,100,200,300,400,500,600,700,800,900,2,25,0,1,0.25,0.25,0.25,0.25,0.25,0.25,0.25,0.25,0.25,0.25,-0.5,-0.5,-0.5,-0.5,-0.5,-0.5,-0.5,-0.5,-0.5,-0.5,-0.5,linear,0.025,FALSE,EQ,H1,5,sepmodel,0.7873,0,10000
10,250,0,100,200,300,400,500,600,700,800,900,2,25,0,1,0.25,0.25,0.25,0.25,0.25,0.25,0.25,0.25,0.25,0.25,-0.5,-0.5,-0.5,-0.5,-0.5,-0.5,-0.5,-0.5,-0.5,-0.5,-0.5,linear,0.025,FALSE,EQ,H1,6,fixmodel,0.8451,0,10000
10,250,0,100,200,300,400,500,600,700,800,900,2,25,0,1,0.25,0.25,0.25,0.25,0.25,0.25,0.25,0.25,0.25,0.25,-0.5,-0.5,-0.5,-0.5,-0.5,-0.5,-0.5,-0.5,-0.5,-0.5,-0.5,linear,0.025,FALSE,EQ,H1,6,fixmodel_cal,0.8433,0,10000
10,250,0,100,200,300,400,500,600,700,800,900,2,25,0,1,0.25,0.25,0.25,0.25,0.25,0.25,0.25,0.25,0.25,0.25,-0.5,-0.5,-0.5,-0.5,-0.5,-0.5,-0.5,-0.5,-0.5,-0.5,-0.5,linear,0.025,FALSE,EQ,H1,6,mixmodel,0.7365,0,10000
10,250,0,100,200,300,400,500,600,700,800,900,2,25,0,1,0.25,0.25,0.25,0.25,0.25,0.25,0.25,0.25,0.25,0.25,-0.5,-0.5,-0.5,-0.5,-0.5,-0.5,-0.5,-0.5,-0.5,-0.5,-0.5,linear,0.025,FALSE,EQ,H1,6,mixmodel_AR1,0.8107,0,10000
10,250,0,100,200,300,400,500,600,700,800,900,2,25,0,1,0.25,0.25,0.25,0.25,0.25,0.25,0.25,0.25,0.25,0.25,-0.5,-0.5,-0.5,-0.5,-0.5,-0.5,-0.5,-0.5,-0.5,-0.5,-0.5,linear,0.025,FALSE,EQ,H1,6,mixmodel_AR1_cal,0.8069,0,10000
10,250,0,100,200,300,400,500,600,700,800,900,2,25,0,1,0.25,0.25,0.25,0.25,0.25,0.25,0.25,0.25,0.25,0.25,-0.5,-0.5,-0.5,-0.5,-0.5,-0.5,-0.5,-0.5,-0.5,-0.5,-0.5,linear,0.025,FALSE,EQ,H1,6,mixmodel_cal,0.5502,0,10000
10,250,0,100,200,300,400,500,600,700,800,900,2,25,0,1,0.25,0.25,0.25,0.25,0.25,0.25,0.25,0.25,0.25,0.25,-0.5,-0.5,-0.5,-0.5,-0.5,-0.5,-0.5,-0.5,-0.5,-0.5,-0.5,linear,0.025,FALSE,EQ,H1,6,poolmodel,0.4813,0,10000
10,250,0,100,200,300,400,500,600,700,800,900,2,25,0,1,0.25,0.25,0.25,0.25,0.25,0.25,0.25,0.25,0.25,0.25,-0.5,-0.5,-0.5,-0.5,-0.5,-0.5,-0.5,-0.5,-0.5,-0.5,-0.5,linear,0.025,FALSE,EQ,H1,6,sepmodel,0.7948,0,10000
10,250,0,100,200,300,400,500,600,700,800,900,2,25,0,1,0.25,0.25,0.25,0.25,0.25,0.25,0.25,0.25,0.25,0.25,-0.5,-0.5,-0.5,-0.5,-0.5,-0.5,-0.5,-0.5,-0.5,-0.5,-0.5,linear,0.025,FALSE,EQ,H1,7,fixmodel,0.8499,0,10000
10,250,0,100,200,300,400,500,600,700,800,900,2,25,0,1,0.25,0.25,0.25,0.25,0.25,0.25,0.25,0.25,0.25,0.25,-0.5,-0.5,-0.5,-0.5,-0.5,-0.5,-0.5,-0.5,-0.5,-0.5,-0.5,linear,0.025,FALSE,EQ,H1,7,fixmodel_cal,0.8491,0,10000
10,250,0,100,200,300,400,500,600,700,800,900,2,25,0,1,0.25,0.25,0.25,0.25,0.25,0.25,0.25,0.25,0.25,0.25,-0.5,-0.5,-0.5,-0.5,-0.5,-0.5,-0.5,-0.5,-0.5,-0.5,-0.5,linear,0.025,FALSE,EQ,H1,7,mixmodel,0.7209,0,10000
10,250,0,100,200,300,400,500,600,700,800,900,2,25,0,1,0.25,0.25,0.25,0.25,0.25,0.25,0.25,0.25,0.25,0.25,-0.5,-0.5,-0.5,-0.5,-0.5,-0.5,-0.5,-0.5,-0.5,-0.5,-0.5,linear,0.025,FALSE,EQ,H1,7,mixmodel_AR1,0.8122,0,10000
10,250,0,100,200,300,400,500,600,700,800,900,2,25,0,1,0.25,0.25,0.25,0.25,0.25,0.25,0.25,0.25,0.25,0.25,-0.5,-0.5,-0.5,-0.5,-0.5,-0.5,-0.5,-0.5,-0.5,-0.5,-0.5,linear,0.025,FALSE,EQ,H1,7,mixmodel_AR1_cal,0.8083,0,10000
10,250,0,100,200,300,400,500,600,700,800,900,2,25,0,1,0.25,0.25,0.25,0.25,0.25,0.25,0.25,0.25,0.25,0.25,-0.5,-0.5,-0.5,-0.5,-0.5,-0.5,-0.5,-0.5,-0.5,-0.5,-0.5,linear,0.025,FALSE,EQ,H1,7,mixmodel_cal,0.5234,0,10000
10,250,0,100,200,300,400,500,600,700,800,900,2,25,0,1,0.25,0.25,0.25,0.25,0.25,0.25,0.25,0.25,0.25,0.25,-0.5,-0.5,-0.5,-0.5,-0.5,-0.5,-0.5,-0.5,-0.5,-0.5,-0.5,linear,0.025,FALSE,EQ,H1,7,poolmodel,0.432,0,10000
10,250,0,100,200,300,400,500,600,700,800,900,2,25,0,1,0.25,0.25,0.25,0.25,0.25,0.25,0.25,0.25,0.25,0.25,-0.5,-0.5,-0.5,-0.5,-0.5,-0.5,-0.5,-0.5,-0.5,-0.5,-0.5,linear,0.025,FALSE,EQ,H1,7,sepmodel,0.7987,0,10000
10,250,0,100,200,300,400,500,600,700,800,900,2,25,0,1,0.25,0.25,0.25,0.25,0.25,0.25,0.25,0.25,0.25,0.25,-0.5,-0.5,-0.5,-0.5,-0.5,-0.5,-0.5,-0.5,-0.5,-0.5,-0.5,linear,0.025,FALSE,EQ,H1,8,fixmodel,0.8544,0,10000
10,250,0,100,200,300,400,500,600,700,800,900,2,25,0,1,0.25,0.25,0.25,0.25,0.25,0.25,0.25,0.25,0.25,0.25,-0.5,-0.5,-0.5,-0.5,-0.5,-0.5,-0.5,-0.5,-0.5,-0.5,-0.5,linear,0.025,FALSE,EQ,H1,8,fixmodel_cal,0.8524,0,10000
10,250,0,100,200,300,400,500,600,700,800,900,2,25,0,1,0.25,0.25,0.25,0.25,0.25,0.25,0.25,0.25,0.25,0.25,-0.5,-0.5,-0.5,-0.5,-0.5,-0.5,-0.5,-0.5,-0.5,-0.5,-0.5,linear,0.025,FALSE,EQ,H1,8,mixmodel,0.7006,0,10000
10,250,0,100,200,300,400,500,600,700,800,900,2,25,0,1,0.25,0.25,0.25,0.25,0.25,0.25,0.25,0.25,0.25,0.25,-0.5,-0.5,-0.5,-0.5,-0.5,-0.5,-0.5,-0.5,-0.5,-0.5,-0.5,linear,0.025,FALSE,EQ,H1,8,mixmodel_AR1,0.8122,0,10000
10,250,0,100,200,300,400,500,600,700,800,900,2,25,0,1,0.25,0.25,0.25,0.25,0.25,0.25,0.25,0.25,0.25,0.25,-0.5,-0.5,-0.5,-0.5,-0.5,-0.5,-0.5,-0.5,-0.5,-0.5,-0.5,linear,0.025,FALSE,EQ,H1,8,mixmodel_AR1_cal,0.8068,0,10000
10,250,0,100,200,300,400,500,600,700,800,900,2,25,0,1,0.25,0.25,0.25,0.25,0.25,0.25,0.25,0.25,0.25,0.25,-0.5,-0.5,-0.5,-0.5,-0.5,-0.5,-0.5,-0.5,-0.5,-0.5,-0.5,linear,0.025,FALSE,EQ,H1,8,mixmodel_cal,0.4822,0,10000
10,250,0,100,200,300,400,500,600,700,800,900,2,25,0,1,0.25,0.25,0.25,0.25,0.25,0.25,0.25,0.25,0.25,0.25,-0.5,-0.5,-0.5,-0.5,-0.5,-0.5,-0.5,-0.5,-0.5,-0.5,-0.5,linear,0.025,FALSE,EQ,H1,8,poolmodel,0.3864,0,10000
10,250,0,100,200,300,400,500,600,700,800,900,2,25,0,1,0.25,0.25,0.25,0.25,0.25,0.25,0.25,0.25,0.25,0.25,-0.5,-0.5,-0.5,-0.5,-0.5,-0.5,-0.5,-0.5,-0.5,-0.5,-0.5,linear,0.025,FALSE,EQ,H1,8,sepmodel,0.7945,0,10000
10,250,0,100,200,300,400,500,600,700,800,900,2,25,0,1,0.25,0.25,0.25,0.25,0.25,0.25,0.25,0.25,0.25,0.25,-0.5,-0.5,-0.5,-0.5,-0.5,-0.5,-0.5,-0.5,-0.5,-0.5,-0.5,linear,0.025,FALSE,EQ,H1,9,fixmodel,0.8578,0,10000
10,250,0,100,200,300,400,500,600,700,800,900,2,25,0,1,0.25,0.25,0.25,0.25,0.25,0.25,0.25,0.25,0.25,0.25,-0.5,-0.5,-0.5,-0.5,-0.5,-0.5,-0.5,-0.5,-0.5,-0.5,-0.5,linear,0.025,FALSE,EQ,H1,9,fixmodel_cal,0.8522,0,10000
10,250,0,100,200,300,400,500,600,700,800,900,2,25,0,1,0.25,0.25,0.25,0.25,0.25,0.25,0.25,0.25,0.25,0.25,-0.5,-0.5,-0.5,-0.5,-0.5,-0.5,-0.5,-0.5,-0.5,-0.5,-0.5,linear,0.025,FALSE,EQ,H1,9,mixmodel,0.6844,0,10000
10,250,0,100,200,300,400,500,600,700,800,900,2,25,0,1,0.25,0.25,0.25,0.25,0.25,0.25,0.25,0.25,0.25,0.25,-0.5,-0.5,-0.5,-0.5,-0.5,-0.5,-0.5,-0.5,-0.5,-0.5,-0.5,linear,0.025,FALSE,EQ,H1,9,mixmodel_AR1,0.8106,0,10000
10,250,0,100,200,300,400,500,600,700,800,900,2,25,0,1,0.25,0.25,0.25,0.25,0.25,0.25,0.25,0.25,0.25,0.25,-0.5,-0.5,-0.5,-0.5,-0.5,-0.5,-0.5,-0.5,-0.5,-0.5,-0.5,linear,0.025,FALSE,EQ,H1,9,mixmodel_AR1_cal,0.8039,0,10000
10,250,0,100,200,300,400,500,600,700,800,900,2,25,0,1,0.25,0.25,0.25,0.25,0.25,0.25,0.25,0.25,0.25,0.25,-0.5,-0.5,-0.5,-0.5,-0.5,-0.5,-0.5,-0.5,-0.5,-0.5,-0.5,linear,0.025,FALSE,EQ,H1,9,mixmodel_cal,0.4401,0,10000
10,250,0,100,200,300,400,500,600,700,800,900,2,25,0,1,0.25,0.25,0.25,0.25,0.25,0.25,0.25,0.25,0.25,0.25,-0.5,-0.5,-0.5,-0.5,-0.5,-0.5,-0.5,-0.5,-0.5,-0.5,-0.5,linear,0.025,FALSE,EQ,H1,9,poolmodel,0.3406,0,10000
10,250,0,100,200,300,400,500,600,700,800,900,2,25,0,1,0.25,0.25,0.25,0.25,0.25,0.25,0.25,0.25,0.25,0.25,-0.5,-0.5,-0.5,-0.5,-0.5,-0.5,-0.5,-0.5,-0.5,-0.5,-0.5,linear,0.025,FALSE,EQ,H1,9,sepmodel,0.7959,0,10000
10,250,0,100,200,300,400,500,600,700,800,900,2,25,0,1,0.25,0.25,0.25,0.25,0.25,0.25,0.25,0.25,0.25,0.25,-0.5,-0.5,-0.5,-0.5,-0.5,-0.5,-0.5,-0.5,-0.5,-0.5,-0.5,linear,0.025,FALSE,EQ,H1,10,fixmodel,0.8599,0,10000
10,250,0,100,200,300,400,500,600,700,800,900,2,25,0,1,0.25,0.25,0.25,0.25,0.25,0.25,0.25,0.25,0.25,0.25,-0.5,-0.5,-0.5,-0.5,-0.5,-0.5,-0.5,-0.5,-0.5,-0.5,-0.5,linear,0.025,FALSE,EQ,H1,10,fixmodel_cal,0.8564,0,10000
10,250,0,100,200,300,400,500,600,700,800,900,2,25,0,1,0.25,0.25,0.25,0.25,0.25,0.25,0.25,0.25,0.25,0.25,-0.5,-0.5,-0.5,-0.5,-0.5,-0.5,-0.5,-0.5,-0.5,-0.5,-0.5,linear,0.025,FALSE,EQ,H1,10,mixmodel,0.6808,0,10000
10,250,0,100,200,300,400,500,600,700,800,900,2,25,0,1,0.25,0.25,0.25,0.25,0.25,0.25,0.25,0.25,0.25,0.25,-0.5,-0.5,-0.5,-0.5,-0.5,-0.5,-0.5,-0.5,-0.5,-0.5,-0.5,linear,0.025,FALSE,EQ,H1,10,mixmodel_AR1,0.8123,0,10000
10,250,0,100,200,300,400,500,600,700,800,900,2,25,0,1,0.25,0.25,0.25,0.25,0.25,0.25,0.25,0.25,0.25,0.25,-0.5,-0.5,-0.5,-0.5,-0.5,-0.5,-0.5,-0.5,-0.5,-0.5,-0.5,linear,0.025,FALSE,EQ,H1,10,mixmodel_AR1_cal,0.8097,0,10000
10,250,0,100,200,300,400,500,600,700,800,900,2,25,0,1,0.25,0.25,0.25,0.25,0.25,0.25,0.25,0.25,0.25,0.25,-0.5,-0.5,-0.5,-0.5,-0.5,-0.5,-0.5,-0.5,-0.5,-0.5,-0.5,linear,0.025,FALSE,EQ,H1,10,mixmodel_cal,0.4185,0,10000
10,250,0,100,200,300,400,500,600,700,800,900,2,25,0,1,0.25,0.25,0.25,0.25,0.25,0.25,0.25,0.25,0.25,0.25,-0.5,-0.5,-0.5,-0.5,-0.5,-0.5,-0.5,-0.5,-0.5,-0.5,-0.5,linear,0.025,FALSE,EQ,H1,10,poolmodel,0.3115,0,10000
10,250,0,100,200,300,400,500,600,700,800,900,2,25,0,1,0.25,0.25,0.25,0.25,0.25,0.25,0.25,0.25,0.25,0.25,-0.5,-0.5,-0.5,-0.5,-0.5,-0.5,-0.5,-0.5,-0.5,-0.5,-0.5,linear,0.025,FALSE,EQ,H1,10,sepmodel,0.8002,0,10000
10,250,0,200,400,600,800,1000,1200,1400,1600,1800,2,25,0,1,0.25,0.25,0.25,0.25,0.25,0.25,0.25,0.25,0.25,0.25,-0.5,-0.5,-0.5,-0.5,-0.5,-0.5,-0.5,-0.5,-0.5,-0.5,-0.5,linear,0.025,FALSE,EQ,H1,2,fixmodel,0.8193,0,10000
10,250,0,200,400,600,800,1000,1200,1400,1600,1800,2,25,0,1,0.25,0.25,0.25,0.25,0.25,0.25,0.25,0.25,0.25,0.25,-0.5,-0.5,-0.5,-0.5,-0.5,-0.5,-0.5,-0.5,-0.5,-0.5,-0.5,linear,0.025,FALSE,EQ,H1,2,fixmodel_cal,0.8188,0,10000
10,250,0,200,400,600,800,1000,1200,1400,1600,1800,2,25,0,1,0.25,0.25,0.25,0.25,0.25,0.25,0.25,0.25,0.25,0.25,-0.5,-0.5,-0.5,-0.5,-0.5,-0.5,-0.5,-0.5,-0.5,-0.5,-0.5,linear,0.025,FALSE,EQ,H1,2,mixmodel,0.7858,0,10000
10,250,0,200,400,600,800,1000,1200,1400,1600,1800,2,25,0,1,0.25,0.25,0.25,0.25,0.25,0.25,0.25,0.25,0.25,0.25,-0.5,-0.5,-0.5,-0.5,-0.5,-0.5,-0.5,-0.5,-0.5,-0.5,-0.5,linear,0.025,FALSE,EQ,H1,2,mixmodel_AR1,0.788,0,10000
10,250,0,200,400,600,800,1000,1200,1400,1600,1800,2,25,0,1,0.25,0.25,0.25,0.25,0.25,0.25,0.25,0.25,0.25,0.25,-0.5,-0.5,-0.5,-0.5,-0.5,-0.5,-0.5,-0.5,-0.5,-0.5,-0.5,linear,0.025,FALSE,EQ,H1,2,mixmodel_AR1_cal,0.7875,0,10000
10,250,0,200,400,600,800,1000,1200,1400,1600,1800,2,25,0,1,0.25,0.25,0.25,0.25,0.25,0.25,0.25,0.25,0.25,0.25,-0.5,-0.5,-0.5,-0.5,-0.5,-0.5,-0.5,-0.5,-0.5,-0.5,-0.5,linear,0.025,FALSE,EQ,H1,2,mixmodel_cal,0.7752,0,10000
10,250,0,200,400,600,800,1000,1200,1400,1600,1800,2,25,0,1,0.25,0.25,0.25,0.25,0.25,0.25,0.25,0.25,0.25,0.25,-0.5,-0.5,-0.5,-0.5,-0.5,-0.5,-0.5,-0.5,-0.5,-0.5,-0.5,linear,0.025,FALSE,EQ,H1,2,poolmodel,0.7681,0,10000
10,250,0,200,400,600,800,1000,1200,1400,1600,1800,2,25,0,1,0.25,0.25,0.25,0.25,0.25,0.25,0.25,0.25,0.25,0.25,-0.5,-0.5,-0.5,-0.5,-0.5,-0.5,-0.5,-0.5,-0.5,-0.5,-0.5,linear,0.025,FALSE,EQ,H1,2,sepmodel,0.7953,0,10000
10,250,0,200,400,600,800,1000,1200,1400,1600,1800,2,25,0,1,0.25,0.25,0.25,0.25,0.25,0.25,0.25,0.25,0.25,0.25,-0.5,-0.5,-0.5,-0.5,-0.5,-0.5,-0.5,-0.5,-0.5,-0.5,-0.5,linear,0.025,FALSE,EQ,H1,3,fixmodel,0.8346,0,10000
10,250,0,200,400,600,800,1000,1200,1400,1600,1800,2,25,0,1,0.25,0.25,0.25,0.25,0.25,0.25,0.25,0.25,0.25,0.25,-0.5,-0.5,-0.5,-0.5,-0.5,-0.5,-0.5,-0.5,-0.5,-0.5,-0.5,linear,0.025,FALSE,EQ,H1,3,fixmodel_cal,0.8341,0,10000
10,250,0,200,400,600,800,1000,1200,1400,1600,1800,2,25,0,1,0.25,0.25,0.25,0.25,0.25,0.25,0.25,0.25,0.25,0.25,-0.5,-0.5,-0.5,-0.5,-0.5,-0.5,-0.5,-0.5,-0.5,-0.5,-0.5,linear,0.025,FALSE,EQ,H1,3,mixmodel,0.7322,0,10000
10,250,0,200,400,600,800,1000,1200,1400,1600,1800,2,25,0,1,0.25,0.25,0.25,0.25,0.25,0.25,0.25,0.25,0.25,0.25,-0.5,-0.5,-0.5,-0.5,-0.5,-0.5,-0.5,-0.5,-0.5,-0.5,-0.5,linear,0.025,FALSE,EQ,H1,3,mixmodel_AR1,0.7451,0,10000
10,250,0,200,400,600,800,1000,1200,1400,1600,1800,2,25,0,1,0.25,0.25,0.25,0.25,0.25,0.25,0.25,0.25,0.25,0.25,-0.5,-0.5,-0.5,-0.5,-0.5,-0.5,-0.5,-0.5,-0.5,-0.5,-0.5,linear,0.025,FALSE,EQ,H1,3,mixmodel_AR1_cal,0.7407,0,10000
10,250,0,200,400,600,800,1000,1200,1400,1600,1800,2,25,0,1,0.25,0.25,0.25,0.25,0.25,0.25,0.25,0.25,0.25,0.25,-0.5,-0.5,-0.5,-0.5,-0.5,-0.5,-0.5,-0.5,-0.5,-0.5,-0.5,linear,0.025,FALSE,EQ,H1,3,mixmodel_cal,0.7012,0,10000
10,250,0,200,400,600,800,1000,1200,1400,1600,1800,2,25,0,1,0.25,0.25,0.25,0.25,0.25,0.25,0.25,0.25,0.25,0.25,-0.5,-0.5,-0.5,-0.5,-0.5,-0.5,-0.5,-0.5,-0.5,-0.5,-0.5,linear,0.025,FALSE,EQ,H1,3,poolmodel,0.6874,0,10000
10,250,0,200,400,600,800,1000,1200,1400,1600,1800,2,25,0,1,0.25,0.25,0.25,0.25,0.25,0.25,0.25,0.25,0.25,0.25,-0.5,-0.5,-0.5,-0.5,-0.5,-0.5,-0.5,-0.5,-0.5,-0.5,-0.5,linear,0.025,FALSE,EQ,H1,3,sepmodel,0.7954,0,10000
10,250,0,200,400,600,800,1000,1200,1400,1600,1800,2,25,0,1,0.25,0.25,0.25,0.25,0.25,0.25,0.25,0.25,0.25,0.25,-0.5,-0.5,-0.5,-0.5,-0.5,-0.5,-0.5,-0.5,-0.5,-0.5,-0.5,linear,0.025,FALSE,EQ,H1,4,fixmodel,0.8363,0,10000
10,250,0,200,400,600,800,1000,1200,1400,1600,1800,2,25,0,1,0.25,0.25,0.25,0.25,0.25,0.25,0.25,0.25,0.25,0.25,-0.5,-0.5,-0.5,-0.5,-0.5,-0.5,-0.5,-0.5,-0.5,-0.5,-0.5,linear,0.025,FALSE,EQ,H1,4,fixmodel_cal,0.8354,0,10000
10,250,0,200,400,600,800,1000,1200,1400,1600,1800,2,25,0,1,0.25,0.25,0.25,0.25,0.25,0.25,0.25,0.25,0.25,0.25,-0.5,-0.5,-0.5,-0.5,-0.5,-0.5,-0.5,-0.5,-0.5,-0.5,-0.5,linear,0.025,FALSE,EQ,H1,4,mixmodel,0.6918,0,10000
10,250,0,200,400,600,800,1000,1200,1400,1600,1800,2,25,0,1,0.25,0.25,0.25,0.25,0.25,0.25,0.25,0.25,0.25,0.25,-0.5,-0.5,-0.5,-0.5,-0.5,-0.5,-0.5,-0.5,-0.5,-0.5,-0.5,linear,0.025,FALSE,EQ,H1,4,mixmodel_AR1,0.7226,0,10000
10,250,0,200,400,600,800,1000,1200,1400,1600,1800,2,25,0,1,0.25,0.25,0.25,0.25,0.25,0.25,0.25,0.25,0.25,0.25,-0.5,-0.5,-0.5,-0.5,-0.5,-0.5,-0.5,-0.5,-0.5,-0.5,-0.5,linear,0.025,FALSE,EQ,H1,4,mixmodel_AR1_cal,0.7077,0,10000
10,250,0,200,400,600,800,1000,1200,1400,1600,1800,2,25,0,1,0.25,0.25,0.25,0.25,0.25,0.25,0.25,0.25,0.25,0.25,-0.5,-0.5,-0.5,-0.5,-0.5,-0.5,-0.5,-0.5,-0.5,-0.5,-0.5,linear,0.025,FALSE,EQ,H1,4,mixmodel_cal,0.6087,0,10000
10,250,0,200,400,600,800,1000,1200,1400,1600,1800,2,25,0,1,0.25,0.25,0.25,0.25,0.25,0.25,0.25,0.25,0.25,0.25,-0.5,-0.5,-0.5,-0.5,-0.5,-0.5,-0.5,-0.5,-0.5,-0.5,-0.5,linear,0.025,FALSE,EQ,H1,4,poolmodel,0.5866,0,10000
10,250,0,200,400,600,800,1000,1200,1400,1600,1800,2,25,0,1,0.25,0.25,0.25,0.25,0.25,0.25,0.25,0.25,0.25,0.25,-0.5,-0.5,-0.5,-0.5,-0.5,-0.5,-0.5,-0.5,-0.5,-0.5,-0.5,linear,0.025,FALSE,EQ,H1,4,sepmodel,0.7962,0,10000
10,250,0,200,400,600,800,1000,1200,1400,1600,1800,2,25,0,1,0.25,0.25,0.25,0.25,0.25,0.25,0.25,0.25,0.25,0.25,-0.5,-0.5,-0.5,-0.5,-0.5,-0.5,-0.5,-0.5,-0.5,-0.5,-0.5,linear,0.025,FALSE,EQ,H1,5,fixmodel,0.8448,0,10000
10,250,0,200,400,600,800,1000,1200,1400,1600,1800,2,25,0,1,0.25,0.25,0.25,0.25,0.25,0.25,0.25,0.25,0.25,0.25,-0.5,-0.5,-0.5,-0.5,-0.5,-0.5,-0.5,-0.5,-0.5,-0.5,-0.5,linear,0.025,FALSE,EQ,H1,5,fixmodel_cal,0.841,0,10000
10,250,0,200,400,600,800,1000,1200,1400,1600,1800,2,25,0,1,0.25,0.25,0.25,0.25,0.25,0.25,0.25,0.25,0.25,0.25,-0.5,-0.5,-0.5,-0.5,-0.5,-0.5,-0.5,-0.5,-0.5,-0.5,-0.5,linear,0.025,FALSE,EQ,H1,5,mixmodel,0.6415,0,10000
10,250,0,200,400,600,800,1000,1200,1400,1600,1800,2,25,0,1,0.25,0.25,0.25,0.25,0.25,0.25,0.25,0.25,0.25,0.25,-0.5,-0.5,-0.5,-0.5,-0.5,-0.5,-0.5,-0.5,-0.5,-0.5,-0.5,linear,0.025,FALSE,EQ,H1,5,mixmodel_AR1,0.7253,0,10000
10,250,0,200,400,600,800,1000,1200,1400,1600,1800,2,25,0,1,0.25,0.25,0.25,0.25,0.25,0.25,0.25,0.25,0.25,0.25,-0.5,-0.5,-0.5,-0.5,-0.5,-0.5,-0.5,-0.5,-0.5,-0.5,-0.5,linear,0.025,FALSE,EQ,H1,5,mixmodel_AR1_cal,0.6955,0,10000
10,250,0,200,400,600,800,1000,1200,1400,1600,1800,2,25,0,1,0.25,0.25,0.25,0.25,0.25,0.25,0.25,0.25,0.25,0.25,-0.5,-0.5,-0.5,-0.5,-0.5,-0.5,-0.5,-0.5,-0.5,-0.5,-0.5,linear,0.025,FALSE,EQ,H1,5,mixmodel_cal,0.4997,0,10000
10,250,0,200,400,600,800,1000,1200,1400,1600,1800,2,25,0,1,0.25,0.25,0.25,0.25,0.25,0.25,0.25,0.25,0.25,0.25,-0.5,-0.5,-0.5,-0.5,-0.5,-0.5,-0.5,-0.5,-0.5,-0.5,-0.5,linear,0.025,FALSE,EQ,H1,5,poolmodel,0.4713,0,10000
10,250,0,200,400,600,800,1000,1200,1400,1600,1800,2,25,0,1,0.25,0.25,0.25,0.25,0.25,0.25,0.25,0.25,0.25,0.25,-0.5,-0.5,-0.5,-0.5,-0.5,-0.5,-0.5,-0.5,-0.5,-0.5,-0.5,linear,0.025,FALSE,EQ,H1,5,sepmodel,0.7951,0,10000
10,250,0,200,400,600,800,1000,1200,1400,1600,1800,2,25,0,1,0.25,0.25,0.25,0.25,0.25,0.25,0.25,0.25,0.25,0.25,-0.5,-0.5,-0.5,-0.5,-0.5,-0.5,-0.5,-0.5,-0.5,-0.5,-0.5,linear,0.025,FALSE,EQ,H1,6,fixmodel,0.8517,0,10000
10,250,0,200,400,600,800,1000,1200,1400,1600,1800,2,25,0,1,0.25,0.25,0.25,0.25,0.25,0.25,0.25,0.25,0.25,0.25,-0.5,-0.5,-0.5,-0.5,-0.5,-0.5,-0.5,-0.5,-0.5,-0.5,-0.5,linear,0.025,FALSE,EQ,H1,6,fixmodel_cal,0.8511,0,10000
10,250,0,200,400,600,800,1000,1200,1400,1600,1800,2,25,0,1,0.25,0.25,0.25,0.25,0.25,0.25,0.25,0.25,0.25,0.25,-0.5,-0.5,-0.5,-0.5,-0.5,-0.5,-0.5,-0.5,-0.5,-0.5,-0.5,linear,0.025,FALSE,EQ,H1,6,mixmodel,0.6121,0,10000
10,250,0,200,400,600,800,1000,1200,1400,1600,1800,2,25,0,1,0.25,0.25,0.25,0.25,0.25,0.25,0.25,0.25,0.25,0.25,-0.5,-0.5,-0.5,-0.5,-0.5,-0.5,-0.5,-0.5,-0.5,-0.5,-0.5,linear,0.025,FALSE,EQ,H1,6,mixmodel_AR1,0.7375,0,10000
10,250,0,200,400,600,800,1000,1200,1400,1600,1800,2,25,0,1,0.25,0.25,0.25,0.25,0.25,0.25,0.25,0.25,0.25,0.25,-0.5,-0.5,-0.5,-0.5,-0.5,-0.5,-0.5,-0.5,-0.5,-0.5,-0.5,linear,0.025,FALSE,EQ,H1,6,mixmodel_AR1_cal,0.6993,0,10000
10,250,0,200,400,600,800,1000,1200,1400,1600,1800,2,25,0,1,0.25,0.25,0.25,0.25,0.25,0.25,0.25,0.25,0.25,0.25,-0.5,-0.5,-0.5,-0.5,-0.5,-0.5,-0.5,-0.5,-0.5,-0.5,-0.5,linear,0.025,FALSE,EQ,H1,6,mixmodel_cal,0.384,0,10000
10,250,0,200,400,600,800,1000,1200,1400,1600,1800,2,25,0,1,0.25,0.25,0.25,0.25,0.25,0.25,0.25,0.25,0.25,0.25,-0.5,-0.5,-0.5,-0.5,-0.5,-0.5,-0.5,-0.5,-0.5,-0.5,-0.5,linear,0.025,FALSE,EQ,H1,6,poolmodel,0.3544,0,10000
10,250,0,200,400,600,800,1000,1200,1400,1600,1800,2,25,0,1,0.25,0.25,0.25,0.25,0.25,0.25,0.25,0.25,0.25,0.25,-0.5,-0.5,-0.5,-0.5,-0.5,-0.5,-0.5,-0.5,-0.5,-0.5,-0.5,linear,0.025,FALSE,EQ,H1,6,sepmodel,0.797,0,10000
10,250,0,200,400,600,800,1000,1200,1400,1600,1800,2,25,0,1,0.25,0.25,0.25,0.25,0.25,0.25,0.25,0.25,0.25,0.25,-0.5,-0.5,-0.5,-0.5,-0.5,-0.5,-0.5,-0.5,-0.5,-0.5,-0.5,linear,0.025,FALSE,EQ,H1,7,fixmodel,0.8597,0,10000
10,250,0,200,400,600,800,1000,1200,1400,1600,1800,2,25,0,1,0.25,0.25,0.25,0.25,0.25,0.25,0.25,0.25,0.25,0.25,-0.5,-0.5,-0.5,-0.5,-0.5,-0.5,-0.5,-0.5,-0.5,-0.5,-0.5,linear,0.025,FALSE,EQ,H1,7,fixmodel_cal,0.8569,0,10000
10,250,0,200,400,600,800,1000,1200,1400,1600,1800,2,25,0,1,0.25,0.25,0.25,0.25,0.25,0.25,0.25,0.25,0.25,0.25,-0.5,-0.5,-0.5,-0.5,-0.5,-0.5,-0.5,-0.5,-0.5,-0.5,-0.5,linear,0.025,FALSE,EQ,H1,7,mixmodel,0.5878,0,10000
10,250,0,200,400,600,800,1000,1200,1400,1600,1800,2,25,0,1,0.25,0.25,0.25,0.25,0.25,0.25,0.25,0.25,0.25,0.25,-0.5,-0.5,-0.5,-0.5,-0.5,-0.5,-0.5,-0.5,-0.5,-0.5,-0.5,linear,0.025,FALSE,EQ,H1,7,mixmodel_AR1,0.7595,0,10000
10,250,0,200,400,600,800,1000,1200,1400,1600,1800,2,25,0,1,0.25,0.25,0.25,0.25,0.25,0.25,0.25,0.25,0.25,0.25,-0.5,-0.5,-0.5,-0.5,-0.5,-0.5,-0.5,-0.5,-0.5,-0.5,-0.5,linear,0.025,FALSE,EQ,H1,7,mixmodel_AR1_cal,0.7222,0,10000
10,250,0,200,400,600,800,1000,1200,1400,1600,1800,2,25,0,1,0.25,0.25,0.25,0.25,0.25,0.25,0.25,0.25,0.25,0.25,-0.5,-0.5,-0.5,-0.5,-0.5,-0.5,-0.5,-0.5,-0.5,-0.5,-0.5,linear,0.025,FALSE,EQ,H1,7,mixmodel_cal,0.3202,0,10000
10,250,0,200,400,600,800,1000,1200,1400,1600,1800,2,25,0,1,0.25,0.25,0.25,0.25,0.25,0.25,0.25,0.25,0.25,0.25,-0.5,-0.5,-0.5,-0.5,-0.5,-0.5,-0.5,-0.5,-0.5,-0.5,-0.5,linear,0.025,FALSE,EQ,H1,7,poolmodel,0.2725,0,10000
10,250,0,200,400,600,800,1000,1200,1400,1600,1800,2,25,0,1,0.25,0.25,0.25,0.25,0.25,0.25,0.25,0.25,0.25,0.25,-0.5,-0.5,-0.5,-0.5,-0.5,-0.5,-0.5,-0.5,-0.5,-0.5,-0.5,linear,0.025,FALSE,EQ,H1,7,sepmodel,0.8019,0,10000
10,250,0,200,400,600,800,1000,1200,1400,1600,1800,2,25,0,1,0.25,0.25,0.25,0.25,0.25,0.25,0.25,0.25,0.25,0.25,-0.5,-0.5,-0.5,-0.5,-0.5,-0.5,-0.5,-0.5,-0.5,-0.5,-0.5,linear,0.025,FALSE,EQ,H1,8,fixmodel,0.8618,0,10000
10,250,0,200,400,600,800,1000,1200,1400,1600,1800,2,25,0,1,0.25,0.25,0.25,0.25,0.25,0.25,0.25,0.25,0.25,0.25,-0.5,-0.5,-0.5,-0.5,-0.5,-0.5,-0.5,-0.5,-0.5,-0.5,-0.5,linear,0.025,FALSE,EQ,H1,8,fixmodel_cal,0.8607,0,10000
10,250,0,200,400,600,800,1000,1200,1400,1600,1800,2,25,0,1,0.25,0.25,0.25,0.25,0.25,0.25,0.25,0.25,0.25,0.25,-0.5,-0.5,-0.5,-0.5,-0.5,-0.5,-0.5,-0.5,-0.5,-0.5,-0.5,linear,0.025,FALSE,EQ,H1,8,mixmodel,0.5395,0,10000
10,250,0,200,400,600,800,1000,1200,1400,1600,1800,2,25,0,1,0.25,0.25,0.25,0.25,0.25,0.25,0.25,0.25,0.25,0.25,-0.5,-0.5,-0.5,-0.5,-0.5,-0.5,-0.5,-0.5,-0.5,-0.5,-0.5,linear,0.025,FALSE,EQ,H1,8,mixmodel_AR1,0.7621,0,10000
10,250,0,200,400,600,800,1000,1200,1400,1600,1800,2,25,0,1,0.25,0.25,0.25,0.25,0.25,0.25,0.25,0.25,0.25,0.25,-0.5,-0.5,-0.5,-0.5,-0.5,-0.5,-0.5,-0.5,-0.5,-0.5,-0.5,linear,0.025,FALSE,EQ,H1,8,mixmodel_AR1_cal,0.7348,0,10000
10,250,0,200,400,600,800,1000,1200,1400,1600,1800,2,25,0,1,0.25,0.25,0.25,0.25,0.25,0.25,0.25,0.25,0.25,0.25,-0.5,-0.5,-0.5,-0.5,-0.5,-0.5,-0.5,-0.5,-0.5,-0.5,-0.5,linear,0.025,FALSE,EQ,H1,8,mixmodel_cal,0.2482,0,10000
10,250,0,200,400,600,800,1000,1200,1400,1600,1800,2,25,0,1,0.25,0.25,0.25,0.25,0.25,0.25,0.25,0.25,0.25,0.25,-0.5,-0.5,-0.5,-0.5,-0.5,-0.5,-0.5,-0.5,-0.5,-0.5,-0.5,linear,0.025,FALSE,EQ,H1,8,poolmodel,0.1968,0,10000
10,250,0,200,400,600,800,1000,1200,1400,1600,1800,2,25,0,1,0.25,0.25,0.25,0.25,0.25,0.25,0.25,0.25,0.25,0.25,-0.5,-0.5,-0.5,-0.5,-0.5,-0.5,-0.5,-0.5,-0.5,-0.5,-0.5,linear,0.025,FALSE,EQ,H1,8,sepmodel,0.8012,0,10000
10,250,0,200,400,600,800,1000,1200,1400,1600,1800,2,25,0,1,0.25,0.25,0.25,0.25,0.25,0.25,0.25,0.25,0.25,0.25,-0.5,-0.5,-0.5,-0.5,-0.5,-0.5,-0.5,-0.5,-0.5,-0.5,-0.5,linear,0.025,FALSE,EQ,H1,9,fixmodel,0.8597,0,10000
10,250,0,200,400,600,800,1000,1200,1400,1600,1800,2,25,0,1,0.25,0.25,0.25,0.25,0.25,0.25,0.25,0.25,0.25,0.25,-0.5,-0.5,-0.5,-0.5,-0.5,-0.5,-0.5,-0.5,-0.5,-0.5,-0.5,linear,0.025,FALSE,EQ,H1,9,fixmodel_cal,0.8577,0,10000
10,250,0,200,400,600,800,1000,1200,1400,1600,1800,2,25,0,1,0.25,0.25,0.25,0.25,0.25,0.25,0.25,0.25,0.25,0.25,-0.5,-0.5,-0.5,-0.5,-0.5,-0.5,-0.5,-0.5,-0.5,-0.5,-0.5,linear,0.025,FALSE,EQ,H1,9,mixmodel,0.5193,0,10000
10,250,0,200,400,600,800,1000,1200,1400,1600,1800,2,25,0,1,0.25,0.25,0.25,0.25,0.25,0.25,0.25,0.25,0.25,0.25,-0.5,-0.5,-0.5,-0.5,-0.5,-0.5,-0.5,-0.5,-0.5,-0.5,-0.5,linear,0.025,FALSE,EQ,H1,9,mixmodel_AR1,0.761,0,10000
10,250,0,200,400,600,800,1000,1200,1400,1600,1800,2,25,0,1,0.25,0.25,0.25,0.25,0.25,0.25,0.25,0.25,0.25,0.25,-0.5,-0.5,-0.5,-0.5,-0.5,-0.5,-0.5,-0.5,-0.5,-0.5,-0.5,linear,0.025,FALSE,EQ,H1,9,mixmodel_AR1_cal,0.7403,0,10000
10,250,0,200,400,600,800,1000,1200,1400,1600,1800,2,25,0,1,0.25,0.25,0.25,0.25,0.25,0.25,0.25,0.25,0.25,0.25,-0.5,-0.5,-0.5,-0.5,-0.5,-0.5,-0.5,-0.5,-0.5,-0.5,-0.5,linear,0.025,FALSE,EQ,H1,9,mixmodel_cal,0.1959,0,10000
10,250,0,200,400,600,800,1000,1200,1400,1600,1800,2,25,0,1,0.25,0.25,0.25,0.25,0.25,0.25,0.25,0.25,0.25,0.25,-0.5,-0.5,-0.5,-0.5,-0.5,-0.5,-0.5,-0.5,-0.5,-0.5,-0.5,linear,0.025,FALSE,EQ,H1,9,poolmodel,0.1483,0,10000
10,250,0,200,400,600,800,1000,1200,1400,1600,1800,2,25,0,1,0.25,0.25,0.25,0.25,0.25,0.25,0.25,0.25,0.25,0.25,-0.5,-0.5,-0.5,-0.5,-0.5,-0.5,-0.5,-0.5,-0.5,-0.5,-0.5,linear,0.025,FALSE,EQ,H1,9,sepmodel,0.8025,0,10000
10,250,0,200,400,600,800,1000,1200,1400,1600,1800,2,25,0,1,0.25,0.25,0.25,0.25,0.25,0.25,0.25,0.25,0.25,0.25,-0.5,-0.5,-0.5,-0.5,-0.5,-0.5,-0.5,-0.5,-0.5,-0.5,-0.5,linear,0.025,FALSE,EQ,H1,10,fixmodel,0.8651,0,10000
10,250,0,200,400,600,800,1000,1200,1400,1600,1800,2,25,0,1,0.25,0.25,0.25,0.25,0.25,0.25,0.25,0.25,0.25,0.25,-0.5,-0.5,-0.5,-0.5,-0.5,-0.5,-0.5,-0.5,-0.5,-0.5,-0.5,linear,0.025,FALSE,EQ,H1,10,fixmodel_cal,0.8642,0,10000
10,250,0,200,400,600,800,1000,1200,1400,1600,1800,2,25,0,1,0.25,0.25,0.25,0.25,0.25,0.25,0.25,0.25,0.25,0.25,-0.5,-0.5,-0.5,-0.5,-0.5,-0.5,-0.5,-0.5,-0.5,-0.5,-0.5,linear,0.025,FALSE,EQ,H1,10,mixmodel,0.4985,0,10000
10,250,0,200,400,600,800,1000,1200,1400,1600,1800,2,25,0,1,0.25,0.25,0.25,0.25,0.25,0.25,0.25,0.25,0.25,0.25,-0.5,-0.5,-0.5,-0.5,-0.5,-0.5,-0.5,-0.5,-0.5,-0.5,-0.5,linear,0.025,FALSE,EQ,H1,10,mixmodel_AR1,0.766,0,10000
10,250,0,200,400,600,800,1000,1200,1400,1600,1800,2,25,0,1,0.25,0.25,0.25,0.25,0.25,0.25,0.25,0.25,0.25,0.25,-0.5,-0.5,-0.5,-0.5,-0.5,-0.5,-0.5,-0.5,-0.5,-0.5,-0.5,linear,0.025,FALSE,EQ,H1,10,mixmodel_AR1_cal,0.742,0,10000
10,250,0,200,400,600,800,1000,1200,1400,1600,1800,2,25,0,1,0.25,0.25,0.25,0.25,0.25,0.25,0.25,0.25,0.25,0.25,-0.5,-0.5,-0.5,-0.5,-0.5,-0.5,-0.5,-0.5,-0.5,-0.5,-0.5,linear,0.025,FALSE,EQ,H1,10,mixmodel_cal,0.1583,0,10000
10,250,0,200,400,600,800,1000,1200,1400,1600,1800,2,25,0,1,0.25,0.25,0.25,0.25,0.25,0.25,0.25,0.25,0.25,0.25,-0.5,-0.5,-0.5,-0.5,-0.5,-0.5,-0.5,-0.5,-0.5,-0.5,-0.5,linear,0.025,FALSE,EQ,H1,10,poolmodel,0.1187,0,10000
10,250,0,200,400,600,800,1000,1200,1400,1600,1800,2,25,0,1,0.25,0.25,0.25,0.25,0.25,0.25,0.25,0.25,0.25,0.25,-0.5,-0.5,-0.5,-0.5,-0.5,-0.5,-0.5,-0.5,-0.5,-0.5,-0.5,linear,0.025,FALSE,EQ,H1,10,sepmodel,0.8049,0,10000
10,250,0,300,600,900,1200,1500,1800,2100,2400,2700,2,25,0,1,0.25,0.25,0.25,0.25,0.25,0.25,0.25,0.25,0.25,0.25,-0.5,-0.5,-0.5,-0.5,-0.5,-0.5,-0.5,-0.5,-0.5,-0.5,-0.5,linear,0.025,FALSE,EQ,H1,2,fixmodel,0.8308,0,10000
10,250,0,300,600,900,1200,1500,1800,2100,2400,2700,2,25,0,1,0.25,0.25,0.25,0.25,0.25,0.25,0.25,0.25,0.25,0.25,-0.5,-0.5,-0.5,-0.5,-0.5,-0.5,-0.5,-0.5,-0.5,-0.5,-0.5,linear,0.025,FALSE,EQ,H1,2,fixmodel_cal,0.8308,0,10000
10,250,0,300,600,900,1200,1500,1800,2100,2400,2700,2,25,0,1,0.25,0.25,0.25,0.25,0.25,0.25,0.25,0.25,0.25,0.25,-0.5,-0.5,-0.5,-0.5,-0.5,-0.5,-0.5,-0.5,-0.5,-0.5,-0.5,linear,0.025,FALSE,EQ,H1,2,mixmodel,0.8083,0,10000
10,250,0,300,600,900,1200,1500,1800,2100,2400,2700,2,25,0,1,0.25,0.25,0.25,0.25,0.25,0.25,0.25,0.25,0.25,0.25,-0.5,-0.5,-0.5,-0.5,-0.5,-0.5,-0.5,-0.5,-0.5,-0.5,-0.5,linear,0.025,FALSE,EQ,H1,2,mixmodel_AR1,0.8047,0,10000
10,250,0,300,600,900,1200,1500,1800,2100,2400,2700,2,25,0,1,0.25,0.25,0.25,0.25,0.25,0.25,0.25,0.25,0.25,0.25,-0.5,-0.5,-0.5,-0.5,-0.5,-0.5,-0.5,-0.5,-0.5,-0.5,-0.5,linear,0.025,FALSE,EQ,H1,2,mixmodel_AR1_cal,0.7996,0,10000
10,250,0,300,600,900,1200,1500,1800,2100,2400,2700,2,25,0,1,0.25,0.25,0.25,0.25,0.25,0.25,0.25,0.25,0.25,0.25,-0.5,-0.5,-0.5,-0.5,-0.5,-0.5,-0.5,-0.5,-0.5,-0.5,-0.5,linear,0.025,FALSE,EQ,H1,2,mixmodel_cal,0.793,0,10000
10,250,0,300,600,900,1200,1500,1800,2100,2400,2700,2,25,0,1,0.25,0.25,0.25,0.25,0.25,0.25,0.25,0.25,0.25,0.25,-0.5,-0.5,-0.5,-0.5,-0.5,-0.5,-0.5,-0.5,-0.5,-0.5,-0.5,linear,0.025,FALSE,EQ,H1,2,poolmodel,0.7885,0,10000
10,250,0,300,600,900,1200,1500,1800,2100,2400,2700,2,25,0,1,0.25,0.25,0.25,0.25,0.25,0.25,0.25,0.25,0.25,0.25,-0.5,-0.5,-0.5,-0.5,-0.5,-0.5,-0.5,-0.5,-0.5,-0.5,-0.5,linear,0.025,FALSE,EQ,H1,2,sepmodel,0.802,0,10000
10,250,0,300,600,900,1200,1500,1800,2100,2400,2700,2,25,0,1,0.25,0.25,0.25,0.25,0.25,0.25,0.25,0.25,0.25,0.25,-0.5,-0.5,-0.5,-0.5,-0.5,-0.5,-0.5,-0.5,-0.5,-0.5,-0.5,linear,0.025,FALSE,EQ,H1,3,fixmodel,0.8286,0,10000
10,250,0,300,600,900,1200,1500,1800,2100,2400,2700,2,25,0,1,0.25,0.25,0.25,0.25,0.25,0.25,0.25,0.25,0.25,0.25,-0.5,-0.5,-0.5,-0.5,-0.5,-0.5,-0.5,-0.5,-0.5,-0.5,-0.5,linear,0.025,FALSE,EQ,H1,3,fixmodel_cal,0.8304,0,10000
10,250,0,300,600,900,1200,1500,1800,2100,2400,2700,2,25,0,1,0.25,0.25,0.25,0.25,0.25,0.25,0.25,0.25,0.25,0.25,-0.5,-0.5,-0.5,-0.5,-0.5,-0.5,-0.5,-0.5,-0.5,-0.5,-0.5,linear,0.025,FALSE,EQ,H1,3,mixmodel,0.7649,0,10000
10,250,0,300,600,900,1200,1500,1800,2100,2400,2700,2,25,0,1,0.25,0.25,0.25,0.25,0.25,0.25,0.25,0.25,0.25,0.25,-0.5,-0.5,-0.5,-0.5,-0.5,-0.5,-0.5,-0.5,-0.5,-0.5,-0.5,linear,0.025,FALSE,EQ,H1,3,mixmodel_AR1,0.7546,0,10000
10,250,0,300,600,900,1200,1500,1800,2100,2400,2700,2,25,0,1,0.25,0.25,0.25,0.25,0.25,0.25,0.25,0.25,0.25,0.25,-0.5,-0.5,-0.5,-0.5,-0.5,-0.5,-0.5,-0.5,-0.5,-0.5,-0.5,linear,0.025,FALSE,EQ,H1,3,mixmodel_AR1_cal,0.756,0,10000
10,250,0,300,600,900,1200,1500,1800,2100,2400,2700,2,25,0,1,0.25,0.25,0.25,0.25,0.25,0.25,0.25,0.25,0.25,0.25,-0.5,-0.5,-0.5,-0.5,-0.5,-0.5,-0.5,-0.5,-0.5,-0.5,-0.5,linear,0.025,FALSE,EQ,H1,3,mixmodel_cal,0.7369,0,10000
10,250,0,300,600,900,1200,1500,1800,2100,2400,2700,2,25,0,1,0.25,0.25,0.25,0.25,0.25,0.25,0.25,0.25,0.25,0.25,-0.5,-0.5,-0.5,-0.5,-0.5,-0.5,-0.5,-0.5,-0.5,-0.5,-0.5,linear,0.025,FALSE,EQ,H1,3,poolmodel,0.725,0,10000
10,250,0,300,600,900,1200,1500,1800,2100,2400,2700,2,25,0,1,0.25,0.25,0.25,0.25,0.25,0.25,0.25,0.25,0.25,0.25,-0.5,-0.5,-0.5,-0.5,-0.5,-0.5,-0.5,-0.5,-0.5,-0.5,-0.5,linear,0.025,FALSE,EQ,H1,3,sepmodel,0.7954,0,10000
10,250,0,300,600,900,1200,1500,1800,2100,2400,2700,2,25,0,1,0.25,0.25,0.25,0.25,0.25,0.25,0.25,0.25,0.25,0.25,-0.5,-0.5,-0.5,-0.5,-0.5,-0.5,-0.5,-0.5,-0.5,-0.5,-0.5,linear,0.025,FALSE,EQ,H1,4,fixmodel,0.8349,0,10000
10,250,0,300,600,900,1200,1500,1800,2100,2400,2700,2,25,0,1,0.25,0.25,0.25,0.25,0.25,0.25,0.25,0.25,0.25,0.25,-0.5,-0.5,-0.5,-0.5,-0.5,-0.5,-0.5,-0.5,-0.5,-0.5,-0.5,linear,0.025,FALSE,EQ,H1,4,fixmodel_cal,0.8334,0,10000
10,250,0,300,600,900,1200,1500,1800,2100,2400,2700,2,25,0,1,0.25,0.25,0.25,0.25,0.25,0.25,0.25,0.25,0.25,0.25,-0.5,-0.5,-0.5,-0.5,-0.5,-0.5,-0.5,-0.5,-0.5,-0.5,-0.5,linear,0.025,FALSE,EQ,H1,4,mixmodel,0.6963,0,10000
10,250,0,300,600,900,1200,1500,1800,2100,2400,2700,2,25,0,1,0.25,0.25,0.25,0.25,0.25,0.25,0.25,0.25,0.25,0.25,-0.5,-0.5,-0.5,-0.5,-0.5,-0.5,-0.5,-0.5,-0.5,-0.5,-0.5,linear,0.025,FALSE,EQ,H1,4,mixmodel_AR1,0.6993,0,10000
10,250,0,300,600,900,1200,1500,1800,2100,2400,2700,2,25,0,1,0.25,0.25,0.25,0.25,0.25,0.25,0.25,0.25,0.25,0.25,-0.5,-0.5,-0.5,-0.5,-0.5,-0.5,-0.5,-0.5,-0.5,-0.5,-0.5,linear,0.025,FALSE,EQ,H1,4,mixmodel_AR1_cal,0.6827,0,10000
10,250,0,300,600,900,1200,1500,1800,2100,2400,2700,2,25,0,1,0.25,0.25,0.25,0.25,0.25,0.25,0.25,0.25,0.25,0.25,-0.5,-0.5,-0.5,-0.5,-0.5,-0.5,-0.5,-0.5,-0.5,-0.5,-0.5,linear,0.025,FALSE,EQ,H1,4,mixmodel_cal,0.6364,0,10000
10,250,0,300,600,900,1200,1500,1800,2100,2400,2700,2,25,0,1,0.25,0.25,0.25,0.25,0.25,0.25,0.25,0.25,0.25,0.25,-0.5,-0.5,-0.5,-0.5,-0.5,-0.5,-0.5,-0.5,-0.5,-0.5,-0.5,linear,0.025,FALSE,EQ,H1,4,poolmodel,0.6209,0,10000
10,250,0,300,600,900,1200,1500,1800,2100,2400,2700,2,25,0,1,0.25,0.25,0.25,0.25,0.25,0.25,0.25,0.25,0.25,0.25,-0.5,-0.5,-0.5,-0.5,-0.5,-0.5,-0.5,-0.5,-0.5,-0.5,-0.5,linear,0.025,FALSE,EQ,H1,4,sepmodel,0.7926,0,10000
10,250,0,300,600,900,1200,1500,1800,2100,2400,2700,2,25,0,1,0.25,0.25,0.25,0.25,0.25,0.25,0.25,0.25,0.25,0.25,-0.5,-0.5,-0.5,-0.5,-0.5,-0.5,-0.5,-0.5,-0.5,-0.5,-0.5,linear,0.025,FALSE,EQ,H1,5,fixmodel,0.8399,0,10000
10,250,0,300,600,900,1200,1500,1800,2100,2400,2700,2,25,0,1,0.25,0.25,0.25,0.25,0.25,0.25,0.25,0.25,0.25,0.25,-0.5,-0.5,-0.5,-0.5,-0.5,-0.5,-0.5,-0.5,-0.5,-0.5,-0.5,linear,0.025,FALSE,EQ,H1,5,fixmodel_cal,0.8394,0,10000
10,250,0,300,600,900,1200,1500,1800,2100,2400,2700,2,25,0,1,0.25,0.25,0.25,0.25,0.25,0.25,0.25,0.25,0.25,0.25,-0.5,-0.5,-0.5,-0.5,-0.5,-0.5,-0.5,-0.5,-0.5,-0.5,-0.5,linear,0.025,FALSE,EQ,H1,5,mixmodel,0.6249,0,10000
10,250,0,300,600,900,1200,1500,1800,2100,2400,2700,2,25,0,1,0.25,0.25,0.25,0.25,0.25,0.25,0.25,0.25,0.25,0.25,-0.5,-0.5,-0.5,-0.5,-0.5,-0.5,-0.5,-0.5,-0.5,-0.5,-0.5,linear,0.025,FALSE,EQ,H1,5,mixmodel_AR1,0.6504,0,10000
10,250,0,300,600,900,1200,1500,1800,2100,2400,2700,2,25,0,1,0.25,0.25,0.25,0.25,0.25,0.25,0.25,0.25,0.25,0.25,-0.5,-0.5,-0.5,-0.5,-0.5,-0.5,-0.5,-0.5,-0.5,-0.5,-0.5,linear,0.025,FALSE,EQ,H1,5,mixmodel_AR1_cal,0.6242,0,10000
10,250,0,300,600,900,1200,1500,1800,2100,2400,2700,2,25,0,1,0.25,0.25,0.25,0.25,0.25,0.25,0.25,0.25,0.25,0.25,-0.5,-0.5,-0.5,-0.5,-0.5,-0.5,-0.5,-0.5,-0.5,-0.5,-0.5,linear,0.025,FALSE,EQ,H1,5,mixmodel_cal,0.5257,0,10000
10,250,0,300,600,900,1200,1500,1800,2100,2400,2700,2,25,0,1,0.25,0.25,0.25,0.25,0.25,0.25,0.25,0.25,0.25,0.25,-0.5,-0.5,-0.5,-0.5,-0.5,-0.5,-0.5,-0.5,-0.5,-0.5,-0.5,linear,0.025,FALSE,EQ,H1,5,poolmodel,0.5031,0,10000
10,250,0,300,600,900,1200,1500,1800,2100,2400,2700,2,25,0,1,0.25,0.25,0.25,0.25,0.25,0.25,0.25,0.25,0.25,0.25,-0.5,-0.5,-0.5,-0.5,-0.5,-0.5,-0.5,-0.5,-0.5,-0.5,-0.5,linear,0.025,FALSE,EQ,H1,5,sepmodel,0.8029,0,10000
10,250,0,300,600,900,1200,1500,1800,2100,2400,2700,2,25,0,1,0.25,0.25,0.25,0.25,0.25,0.25,0.25,0.25,0.25,0.25,-0.5,-0.5,-0.5,-0.5,-0.5,-0.5,-0.5,-0.5,-0.5,-0.5,-0.5,linear,0.025,FALSE,EQ,H1,6,fixmodel,0.8475,0,10000
10,250,0,300,600,900,1200,1500,1800,2100,2400,2700,2,25,0,1,0.25,0.25,0.25,0.25,0.25,0.25,0.25,0.25,0.25,0.25,-0.5,-0.5,-0.5,-0.5,-0.5,-0.5,-0.5,-0.5,-0.5,-0.5,-0.5,linear,0.025,FALSE,EQ,H1,6,fixmodel_cal,0.8459,0,10000
10,250,0,300,600,900,1200,1500,1800,2100,2400,2700,2,25,0,1,0.25,0.25,0.25,0.25,0.25,0.25,0.25,0.25,0.25,0.25,-0.5,-0.5,-0.5,-0.5,-0.5,-0.5,-0.5,-0.5,-0.5,-0.5,-0.5,linear,0.025,FALSE,EQ,H1,6,mixmodel,0.5475,0,10000
10,250,0,300,600,900,1200,1500,1800,2100,2400,2700,2,25,0,1,0.25,0.25,0.25,0.25,0.25,0.25,0.25,0.25,0.25,0.25,-0.5,-0.5,-0.5,-0.5,-0.5,-0.5,-0.5,-0.5,-0.5,-0.5,-0.5,linear,0.025,FALSE,EQ,H1,6,mixmodel_AR1,0.6299,0,10000
10,250,0,300,600,900,1200,1500,1800,2100,2400,2700,2,25,0,1,0.25,0.25,0.25,0.25,0.25,0.25,0.25,0.25,0.25,0.25,-0.5,-0.5,-0.5,-0.5,-0.5,-0.5,-0.5,-0.5,-0.5,-0.5,-0.5,linear,0.025,FALSE,EQ,H1,6,mixmodel_AR1_cal,0.5727,0,10000
10,250,0,300,600,900,1200,1500,1800,2100,2400,2700,2,25,0,1,0.25,0.25,0.25,0.25,0.25,0.25,0.25,0.25,0.25,0.25,-0.5,-0.5,-0.5,-0.5,-0.5,-0.5,-0.5,-0.5,-0.5,-0.5,-0.5,linear,0.025,FALSE,EQ,H1,6,mixmodel_cal,0.3949,0,10000
10,250,0,300,600,900,1200,1500,1800,2100,2400,2700,2,25,0,1,0.25,0.25,0.25,0.25,0.25,0.25,0.25,0.25,0.25,0.25,-0.5,-0.5,-0.5,-0.5,-0.5,-0.5,-0.5,-0.5,-0.5,-0.5,-0.5,linear,0.025,FALSE,EQ,H1,6,poolmodel,0.3757,0,10000
10,250,0,300,600,900,1200,1500,1800,2100,2400,2700,2,25,0,1,0.25,0.25,0.25,0.25,0.25,0.25,0.25,0.25,0.25,0.25,-0.5,-0.5,-0.5,-0.5,-0.5,-0.5,-0.5,-0.5,-0.5,-0.5,-0.5,linear,0.025,FALSE,EQ,H1,6,sepmodel,0.8029,0,10000
10,250,0,300,600,900,1200,1500,1800,2100,2400,2700,2,25,0,1,0.25,0.25,0.25,0.25,0.25,0.25,0.25,0.25,0.25,0.25,-0.5,-0.5,-0.5,-0.5,-0.5,-0.5,-0.5,-0.5,-0.5,-0.5,-0.5,linear,0.025,FALSE,EQ,H1,7,fixmodel,0.8353,0,10000
10,250,0,300,600,900,1200,1500,1800,2100,2400,2700,2,25,0,1,0.25,0.25,0.25,0.25,0.25,0.25,0.25,0.25,0.25,0.25,-0.5,-0.5,-0.5,-0.5,-0.5,-0.5,-0.5,-0.5,-0.5,-0.5,-0.5,linear,0.025,FALSE,EQ,H1,7,fixmodel_cal,0.836,0,10000
10,250,0,300,600,900,1200,1500,1800,2100,2400,2700,2,25,0,1,0.25,0.25,0.25,0.25,0.25,0.25,0.25,0.25,0.25,0.25,-0.5,-0.5,-0.5,-0.5,-0.5,-0.5,-0.5,-0.5,-0.5,-0.5,-0.5,linear,0.025,FALSE,EQ,H1,7,mixmodel,0.4675,0,10000
10,250,0,300,600,900,1200,1500,1800,2100,2400,2700,2,25,0,1,0.25,0.25,0.25,0.25,0.25,0.25,0.25,0.25,0.25,0.25,-0.5,-0.5,-0.5,-0.5,-0.5,-0.5,-0.5,-0.5,-0.5,-0.5,-0.5,linear,0.025,FALSE,EQ,H1,7,mixmodel_AR1,0.6367,0,10000
10,250,0,300,600,900,1200,1500,1800,2100,2400,2700,2,25,0,1,0.25,0.25,0.25,0.25,0.25,0.25,0.25,0.25,0.25,0.25,-0.5,-0.5,-0.5,-0.5,-0.5,-0.5,-0.5,-0.5,-0.5,-0.5,-0.5,linear,0.025,FALSE,EQ,H1,7,mixmodel_AR1_cal,0.558,0,10000
10,250,0,300,600,900,1200,1500,1800,2100,2400,2700,2,25,0,1,0.25,0.25,0.25,0.25,0.25,0.25,0.25,0.25,0.25,0.25,-0.5,-0.5,-0.5,-0.5,-0.5,-0.5,-0.5,-0.5,-0.5,-0.5,-0.5,linear,0.025,FALSE,EQ,H1,7,mixmodel_cal,0.275,0,10000
10,250,0,300,600,900,1200,1500,1800,2100,2400,2700,2,25,0,1,0.25,0.25,0.25,0.25,0.25,0.25,0.25,0.25,0.25,0.25,-0.5,-0.5,-0.5,-0.5,-0.5,-0.5,-0.5,-0.5,-0.5,-0.5,-0.5,linear,0.025,FALSE,EQ,H1,7,poolmodel,0.2515,0,10000
10,250,0,300,600,900,1200,1500,1800,2100,2400,2700,2,25,0,1,0.25,0.25,0.25,0.25,0.25,0.25,0.25,0.25,0.25,0.25,-0.5,-0.5,-0.5,-0.5,-0.5,-0.5,-0.5,-0.5,-0.5,-0.5,-0.5,linear,0.025,FALSE,EQ,H1,7,sepmodel,0.7914,0,10000
10,250,0,300,600,900,1200,1500,1800,2100,2400,2700,2,25,0,1,0.25,0.25,0.25,0.25,0.25,0.25,0.25,0.25,0.25,0.25,-0.5,-0.5,-0.5,-0.5,-0.5,-0.5,-0.5,-0.5,-0.5,-0.5,-0.5,linear,0.025,FALSE,EQ,H1,8,fixmodel,0.8396,0,10000
10,250,0,300,600,900,1200,1500,1800,2100,2400,2700,2,25,0,1,0.25,0.25,0.25,0.25,0.25,0.25,0.25,0.25,0.25,0.25,-0.5,-0.5,-0.5,-0.5,-0.5,-0.5,-0.5,-0.5,-0.5,-0.5,-0.5,linear,0.025,FALSE,EQ,H1,8,fixmodel_cal,0.8416,0,10000
10,250,0,300,600,900,1200,1500,1800,2100,2400,2700,2,25,0,1,0.25,0.25,0.25,0.25,0.25,0.25,0.25,0.25,0.25,0.25,-0.5,-0.5,-0.5,-0.5,-0.5,-0.5,-0.5,-0.5,-0.5,-0.5,-0.5,linear,0.025,FALSE,EQ,H1,8,mixmodel,0.4558,0,10000
10,250,0,300,600,900,1200,1500,1800,2100,2400,2700,2,25,0,1,0.25,0.25,0.25,0.25,0.25,0.25,0.25,0.25,0.25,0.25,-0.5,-0.5,-0.5,-0.5,-0.5,-0.5,-0.5,-0.5,-0.5,-0.5,-0.5,linear,0.025,FALSE,EQ,H1,8,mixmodel_AR1,0.6745,0,10000
10,250,0,300,600,900,1200,1500,1800,2100,2400,2700,2,25,0,1,0.25,0.25,0.25,0.25,0.25,0.25,0.25,0.25,0.25,0.25,-0.5,-0.5,-0.5,-0.5,-0.5,-0.5,-0.5,-0.5,-0.5,-0.5,-0.5,linear,0.025,FALSE,EQ,H1,8,mixmodel_AR1_cal,0.5881,0,10000
10,250,0,300,600,900,1200,1500,1800,2100,2400,2700,2,25,0,1,0.25,0.25,0.25,0.25,0.25,0.25,0.25,0.25,0.25,0.25,-0.5,-0.5,-0.5,-0.5,-0.5,-0.5,-0.5,-0.5,-0.5,-0.5,-0.5,linear,0.025,FALSE,EQ,H1,8,mixmodel_cal,0.1877,0,10000
10,250,0,300,600,900,1200,1500,1800,2100,2400,2700,2,25,0,1,0.25,0.25,0.25,0.25,0.25,0.25,0.25,0.25,0.25,0.25,-0.5,-0.5,-0.5,-0.5,-0.5,-0.5,-0.5,-0.5,-0.5,-0.5,-0.5,linear,0.025,FALSE,EQ,H1,8,poolmodel,0.1628,0,10000
10,250,0,300,600,900,1200,1500,1800,2100,2400,2700,2,25,0,1,0.25,0.25,0.25,0.25,0.25,0.25,0.25,0.25,0.25,0.25,-0.5,-0.5,-0.5,-0.5,-0.5,-0.5,-0.5,-0.5,-0.5,-0.5,-0.5,linear,0.025,FALSE,EQ,H1,8,sepmodel,0.7918,0,10000
10,250,0,300,600,900,1200,1500,1800,2100,2400,2700,2,25,0,1,0.25,0.25,0.25,0.25,0.25,0.25,0.25,0.25,0.25,0.25,-0.5,-0.5,-0.5,-0.5,-0.5,-0.5,-0.5,-0.5,-0.5,-0.5,-0.5,linear,0.025,FALSE,EQ,H1,9,fixmodel,0.8449,0,10000
10,250,0,300,600,900,1200,1500,1800,2100,2400,2700,2,25,0,1,0.25,0.25,0.25,0.25,0.25,0.25,0.25,0.25,0.25,0.25,-0.5,-0.5,-0.5,-0.5,-0.5,-0.5,-0.5,-0.5,-0.5,-0.5,-0.5,linear,0.025,FALSE,EQ,H1,9,fixmodel_cal,0.8443,0,10000
10,250,0,300,600,900,1200,1500,1800,2100,2400,2700,2,25,0,1,0.25,0.25,0.25,0.25,0.25,0.25,0.25,0.25,0.25,0.25,-0.5,-0.5,-0.5,-0.5,-0.5,-0.5,-0.5,-0.5,-0.5,-0.5,-0.5,linear,0.025,FALSE,EQ,H1,9,mixmodel,0.4553,0,10000
10,250,0,300,600,900,1200,1500,1800,2100,2400,2700,2,25,0,1,0.25,0.25,0.25,0.25,0.25,0.25,0.25,0.25,0.25,0.25,-0.5,-0.5,-0.5,-0.5,-0.5,-0.5,-0.5,-0.5,-0.5,-0.5,-0.5,linear,0.025,FALSE,EQ,H1,9,mixmodel_AR1,0.7061,0,10000
10,250,0,300,600,900,1200,1500,1800,2100,2400,2700,2,25,0,1,0.25,0.25,0.25,0.25,0.25,0.25,0.25,0.25,0.25,0.25,-0.5,-0.5,-0.5,-0.5,-0.5,-0.5,-0.5,-0.5,-0.5,-0.5,-0.5,linear,0.025,FALSE,EQ,H1,9,mixmodel_AR1_cal,0.6424,0,10000
10,250,0,300,600,900,1200,1500,1800,2100,2400,2700,2,25,0,1,0.25,0.25,0.25,0.25,0.25,0.25,0.25,0.25,0.25,0.25,-0.5,-0.5,-0.5,-0.5,-0.5,-0.5,-0.5,-0.5,-0.5,-0.5,-0.5,linear,0.025,FALSE,EQ,H1,9,mixmodel_cal,0.1254,0,10000
10,250,0,300,600,900,1200,1500,1800,2100,2400,2700,2,25,0,1,0.25,0.25,0.25,0.25,0.25,0.25,0.25,0.25,0.25,0.25,-0.5,-0.5,-0.5,-0.5,-0.5,-0.5,-0.5,-0.5,-0.5,-0.5,-0.5,linear,0.025,FALSE,EQ,H1,9,poolmodel,0.0978,0,10000
10,250,0,300,600,900,1200,1500,1800,2100,2400,2700,2,25,0,1,0.25,0.25,0.25,0.25,0.25,0.25,0.25,0.25,0.25,0.25,-0.5,-0.5,-0.5,-0.5,-0.5,-0.5,-0.5,-0.5,-0.5,-0.5,-0.5,linear,0.025,FALSE,EQ,H1,9,sepmodel,0.7946,0,10000
10,250,0,300,600,900,1200,1500,1800,2100,2400,2700,2,25,0,1,0.25,0.25,0.25,0.25,0.25,0.25,0.25,0.25,0.25,0.25,-0.5,-0.5,-0.5,-0.5,-0.5,-0.5,-0.5,-0.5,-0.5,-0.5,-0.5,linear,0.025,FALSE,EQ,H1,10,fixmodel,0.8461,0,10000
10,250,0,300,600,900,1200,1500,1800,2100,2400,2700,2,25,0,1,0.25,0.25,0.25,0.25,0.25,0.25,0.25,0.25,0.25,0.25,-0.5,-0.5,-0.5,-0.5,-0.5,-0.5,-0.5,-0.5,-0.5,-0.5,-0.5,linear,0.025,FALSE,EQ,H1,10,fixmodel_cal,0.8457,0,10000
10,250,0,300,600,900,1200,1500,1800,2100,2400,2700,2,25,0,1,0.25,0.25,0.25,0.25,0.25,0.25,0.25,0.25,0.25,0.25,-0.5,-0.5,-0.5,-0.5,-0.5,-0.5,-0.5,-0.5,-0.5,-0.5,-0.5,linear,0.025,FALSE,EQ,H1,10,mixmodel,0.4668,0,10000
10,250,0,300,600,900,1200,1500,1800,2100,2400,2700,2,25,0,1,0.25,0.25,0.25,0.25,0.25,0.25,0.25,0.25,0.25,0.25,-0.5,-0.5,-0.5,-0.5,-0.5,-0.5,-0.5,-0.5,-0.5,-0.5,-0.5,linear,0.025,FALSE,EQ,H1,10,mixmodel_AR1,0.7289,0,10000
10,250,0,300,600,900,1200,1500,1800,2100,2400,2700,2,25,0,1,0.25,0.25,0.25,0.25,0.25,0.25,0.25,0.25,0.25,0.25,-0.5,-0.5,-0.5,-0.5,-0.5,-0.5,-0.5,-0.5,-0.5,-0.5,-0.5,linear,0.025,FALSE,EQ,H1,10,mixmodel_AR1_cal,0.6705,0,10000
10,250,0,300,600,900,1200,1500,1800,2100,2400,2700,2,25,0,1,0.25,0.25,0.25,0.25,0.25,0.25,0.25,0.25,0.25,0.25,-0.5,-0.5,-0.5,-0.5,-0.5,-0.5,-0.5,-0.5,-0.5,-0.5,-0.5,linear,0.025,FALSE,EQ,H1,10,mixmodel_cal,0.0875,0,10000
10,250,0,300,600,900,1200,1500,1800,2100,2400,2700,2,25,0,1,0.25,0.25,0.25,0.25,0.25,0.25,0.25,0.25,0.25,0.25,-0.5,-0.5,-0.5,-0.5,-0.5,-0.5,-0.5,-0.5,-0.5,-0.5,-0.5,linear,0.025,FALSE,EQ,H1,10,poolmodel,0.0648,0,10000
10,250,0,300,600,900,1200,1500,1800,2100,2400,2700,2,25,0,1,0.25,0.25,0.25,0.25,0.25,0.25,0.25,0.25,0.25,0.25,-0.5,-0.5,-0.5,-0.5,-0.5,-0.5,-0.5,-0.5,-0.5,-0.5,-0.5,linear,0.025,FALSE,EQ,H1,10,sepmodel,0.7971,0,10000
10,250,0,400,800,1200,1600,2000,2400,2800,3200,3600,2,25,0,1,0.25,0.25,0.25,0.25,0.25,0.25,0.25,0.25,0.25,0.25,-0.5,-0.5,-0.5,-0.5,-0.5,-0.5,-0.5,-0.5,-0.5,-0.5,-0.5,linear,0.025,FALSE,EQ,H1,2,fixmodel,0.8154,0,10000
10,250,0,400,800,1200,1600,2000,2400,2800,3200,3600,2,25,0,1,0.25,0.25,0.25,0.25,0.25,0.25,0.25,0.25,0.25,0.25,-0.5,-0.5,-0.5,-0.5,-0.5,-0.5,-0.5,-0.5,-0.5,-0.5,-0.5,linear,0.025,FALSE,EQ,H1,2,fixmodel_cal,0.8142,0,10000
10,250,0,400,800,1200,1600,2000,2400,2800,3200,3600,2,25,0,1,0.25,0.25,0.25,0.25,0.25,0.25,0.25,0.25,0.25,0.25,-0.5,-0.5,-0.5,-0.5,-0.5,-0.5,-0.5,-0.5,-0.5,-0.5,-0.5,linear,0.025,FALSE,EQ,H1,2,mixmodel,0.819,0,10000
10,250,0,400,800,1200,1600,2000,2400,2800,3200,3600,2,25,0,1,0.25,0.25,0.25,0.25,0.25,0.25,0.25,0.25,0.25,0.25,-0.5,-0.5,-0.5,-0.5,-0.5,-0.5,-0.5,-0.5,-0.5,-0.5,-0.5,linear,0.025,FALSE,EQ,H1,2,mixmodel_AR1,0.8174,0,10000
10,250,0,400,800,1200,1600,2000,2400,2800,3200,3600,2,25,0,1,0.25,0.25,0.25,0.25,0.25,0.25,0.25,0.25,0.25,0.25,-0.5,-0.5,-0.5,-0.5,-0.5,-0.5,-0.5,-0.5,-0.5,-0.5,-0.5,linear,0.025,FALSE,EQ,H1,2,mixmodel_AR1_cal,0.8146,0,10000
10,250,0,400,800,1200,1600,2000,2400,2800,3200,3600,2,25,0,1,0.25,0.25,0.25,0.25,0.25,0.25,0.25,0.25,0.25,0.25,-0.5,-0.5,-0.5,-0.5,-0.5,-0.5,-0.5,-0.5,-0.5,-0.5,-0.5,linear,0.025,FALSE,EQ,H1,2,mixmodel_cal,0.8078,0,10000
10,250,0,400,800,1200,1600,2000,2400,2800,3200,3600,2,25,0,1,0.25,0.25,0.25,0.25,0.25,0.25,0.25,0.25,0.25,0.25,-0.5,-0.5,-0.5,-0.5,-0.5,-0.5,-0.5,-0.5,-0.5,-0.5,-0.5,linear,0.025,FALSE,EQ,H1,2,poolmodel,0.8045,0,10000
10,250,0,400,800,1200,1600,2000,2400,2800,3200,3600,2,25,0,1,0.25,0.25,0.25,0.25,0.25,0.25,0.25,0.25,0.25,0.25,-0.5,-0.5,-0.5,-0.5,-0.5,-0.5,-0.5,-0.5,-0.5,-0.5,-0.5,linear,0.025,FALSE,EQ,H1,2,sepmodel,0.796,0,10000
10,250,0,400,800,1200,1600,2000,2400,2800,3200,3600,2,25,0,1,0.25,0.25,0.25,0.25,0.25,0.25,0.25,0.25,0.25,0.25,-0.5,-0.5,-0.5,-0.5,-0.5,-0.5,-0.5,-0.5,-0.5,-0.5,-0.5,linear,0.025,FALSE,EQ,H1,3,fixmodel,0.8188,0,10000
10,250,0,400,800,1200,1600,2000,2400,2800,3200,3600,2,25,0,1,0.25,0.25,0.25,0.25,0.25,0.25,0.25,0.25,0.25,0.25,-0.5,-0.5,-0.5,-0.5,-0.5,-0.5,-0.5,-0.5,-0.5,-0.5,-0.5,linear,0.025,FALSE,EQ,H1,3,fixmodel_cal,0.821,0,10000
10,250,0,400,800,1200,1600,2000,2400,2800,3200,3600,2,25,0,1,0.25,0.25,0.25,0.25,0.25,0.25,0.25,0.25,0.25,0.25,-0.5,-0.5,-0.5,-0.5,-0.5,-0.5,-0.5,-0.5,-0.5,-0.5,-0.5,linear,0.025,FALSE,EQ,H1,3,mixmodel,0.7801,0,10000
10,250,0,400,800,1200,1600,2000,2400,2800,3200,3600,2,25,0,1,0.25,0.25,0.25,0.25,0.25,0.25,0.25,0.25,0.25,0.25,-0.5,-0.5,-0.5,-0.5,-0.5,-0.5,-0.5,-0.5,-0.5,-0.5,-0.5,linear,0.025,FALSE,EQ,H1,3,mixmodel_AR1,0.7799,0,10000
10,250,0,400,800,1200,1600,2000,2400,2800,3200,3600,2,25,0,1,0.25,0.25,0.25,0.25,0.25,0.25,0.25,0.25,0.25,0.25,-0.5,-0.5,-0.5,-0.5,-0.5,-0.5,-0.5,-0.5,-0.5,-0.5,-0.5,linear,0.025,FALSE,EQ,H1,3,mixmodel_AR1_cal,0.7755,0,10000
10,250,0,400,800,1200,1600,2000,2400,2800,3200,3600,2,25,0,1,0.25,0.25,0.25,0.25,0.25,0.25,0.25,0.25,0.25,0.25,-0.5,-0.5,-0.5,-0.5,-0.5,-0.5,-0.5,-0.5,-0.5,-0.5,-0.5,linear,0.025,FALSE,EQ,H1,3,mixmodel_cal,0.7598,0,10000
10,250,0,400,800,1200,1600,2000,2400,2800,3200,3600,2,25,0,1,0.25,0.25,0.25,0.25,0.25,0.25,0.25,0.25,0.25,0.25,-0.5,-0.5,-0.5,-0.5,-0.5,-0.5,-0.5,-0.5,-0.5,-0.5,-0.5,linear,0.025,FALSE,EQ,H1,3,poolmodel,0.7503,0,10000
10,250,0,400,800,1200,1600,2000,2400,2800,3200,3600,2,25,0,1,0.25,0.25,0.25,0.25,0.25,0.25,0.25,0.25,0.25,0.25,-0.5,-0.5,-0.5,-0.5,-0.5,-0.5,-0.5,-0.5,-0.5,-0.5,-0.5,linear,0.025,FALSE,EQ,H1,3,sepmodel,0.7915,0,10000
10,250,0,400,800,1200,1600,2000,2400,2800,3200,3600,2,25,0,1,0.25,0.25,0.25,0.25,0.25,0.25,0.25,0.25,0.25,0.25,-0.5,-0.5,-0.5,-0.5,-0.5,-0.5,-0.5,-0.5,-0.5,-0.5,-0.5,linear,0.025,FALSE,EQ,H1,4,fixmodel,0.8194,0,10000
10,250,0,400,800,1200,1600,2000,2400,2800,3200,3600,2,25,0,1,0.25,0.25,0.25,0.25,0.25,0.25,0.25,0.25,0.25,0.25,-0.5,-0.5,-0.5,-0.5,-0.5,-0.5,-0.5,-0.5,-0.5,-0.5,-0.5,linear,0.025,FALSE,EQ,H1,4,fixmodel_cal,0.8235,0,10000
10,250,0,400,800,1200,1600,2000,2400,2800,3200,3600,2,25,0,1,0.25,0.25,0.25,0.25,0.25,0.25,0.25,0.25,0.25,0.25,-0.5,-0.5,-0.5,-0.5,-0.5,-0.5,-0.5,-0.5,-0.5,-0.5,-0.5,linear,0.025,FALSE,EQ,H1,4,mixmodel,0.7176,0,10000
10,250,0,400,800,1200,1600,2000,2400,2800,3200,3600,2,25,0,1,0.25,0.25,0.25,0.25,0.25,0.25,0.25,0.25,0.25,0.25,-0.5,-0.5,-0.5,-0.5,-0.5,-0.5,-0.5,-0.5,-0.5,-0.5,-0.5,linear,0.025,FALSE,EQ,H1,4,mixmodel_AR1,0.7174,0,10000
10,250,0,400,800,1200,1600,2000,2400,2800,3200,3600,2,25,0,1,0.25,0.25,0.25,0.25,0.25,0.25,0.25,0.25,0.25,0.25,-0.5,-0.5,-0.5,-0.5,-0.5,-0.5,-0.5,-0.5,-0.5,-0.5,-0.5,linear,0.025,FALSE,EQ,H1,4,mixmodel_AR1_cal,0.7075,0,10000
10,250,0,400,800,1200,1600,2000,2400,2800,3200,3600,2,25,0,1,0.25,0.25,0.25,0.25,0.25,0.25,0.25,0.25,0.25,0.25,-0.5,-0.5,-0.5,-0.5,-0.5,-0.5,-0.5,-0.5,-0.5,-0.5,-0.5,linear,0.025,FALSE,EQ,H1,4,mixmodel_cal,0.6719,0,10000
10,250,0,400,800,1200,1600,2000,2400,2800,3200,3600,2,25,0,1,0.25,0.25,0.25,0.25,0.25,0.25,0.25,0.25,0.25,0.25,-0.5,-0.5,-0.5,-0.5,-0.5,-0.5,-0.5,-0.5,-0.5,-0.5,-0.5,linear,0.025,FALSE,EQ,H1,4,poolmodel,0.6557,0,10000
10,250,0,400,800,1200,1600,2000,2400,2800,3200,3600,2,25,0,1,0.25,0.25,0.25,0.25,0.25,0.25,0.25,0.25,0.25,0.25,-0.5,-0.5,-0.5,-0.5,-0.5,-0.5,-0.5,-0.5,-0.5,-0.5,-0.5,linear,0.025,FALSE,EQ,H1,4,sepmodel,0.7922,0,10000
10,250,0,400,800,1200,1600,2000,2400,2800,3200,3600,2,25,0,1,0.25,0.25,0.25,0.25,0.25,0.25,0.25,0.25,0.25,0.25,-0.5,-0.5,-0.5,-0.5,-0.5,-0.5,-0.5,-0.5,-0.5,-0.5,-0.5,linear,0.025,FALSE,EQ,H1,5,fixmodel,0.8289,0,10000
10,250,0,400,800,1200,1600,2000,2400,2800,3200,3600,2,25,0,1,0.25,0.25,0.25,0.25,0.25,0.25,0.25,0.25,0.25,0.25,-0.5,-0.5,-0.5,-0.5,-0.5,-0.5,-0.5,-0.5,-0.5,-0.5,-0.5,linear,0.025,FALSE,EQ,H1,5,fixmodel_cal,0.8297,0,10000
10,250,0,400,800,1200,1600,2000,2400,2800,3200,3600,2,25,0,1,0.25,0.25,0.25,0.25,0.25,0.25,0.25,0.25,0.25,0.25,-0.5,-0.5,-0.5,-0.5,-0.5,-0.5,-0.5,-0.5,-0.5,-0.5,-0.5,linear,0.025,FALSE,EQ,H1,5,mixmodel,0.6566,0,10000
10,250,0,400,800,1200,1600,2000,2400,2800,3200,3600,2,25,0,1,0.25,0.25,0.25,0.25,0.25,0.25,0.25,0.25,0.25,0.25,-0.5,-0.5,-0.5,-0.5,-0.5,-0.5,-0.5,-0.5,-0.5,-0.5,-0.5,linear,0.025,FALSE,EQ,H1,5,mixmodel_AR1,0.6763,0,10000
10,250,0,400,800,1200,1600,2000,2400,2800,3200,3600,2,25,0,1,0.25,0.25,0.25,0.25,0.25,0.25,0.25,0.25,0.25,0.25,-0.5,-0.5,-0.5,-0.5,-0.5,-0.5,-0.5,-0.5,-0.5,-0.5,-0.5,linear,0.025,FALSE,EQ,H1,5,mixmodel_AR1_cal,0.6454,0,10000
10,250,0,400,800,1200,1600,2000,2400,2800,3200,3600,2,25,0,1,0.25,0.25,0.25,0.25,0.25,0.25,0.25,0.25,0.25,0.25,-0.5,-0.5,-0.5,-0.5,-0.5,-0.5,-0.5,-0.5,-0.5,-0.5,-0.5,linear,0.025,FALSE,EQ,H1,5,mixmodel_cal,0.5609,0,10000
10,250,0,400,800,1200,1600,2000,2400,2800,3200,3600,2,25,0,1,0.25,0.25,0.25,0.25,0.25,0.25,0.25,0.25,0.25,0.25,-0.5,-0.5,-0.5,-0.5,-0.5,-0.5,-0.5,-0.5,-0.5,-0.5,-0.5,linear,0.025,FALSE,EQ,H1,5,poolmodel,0.543,0,10000
10,250,0,400,800,1200,1600,2000,2400,2800,3200,3600,2,25,0,1,0.25,0.25,0.25,0.25,0.25,0.25,0.25,0.25,0.25,0.25,-0.5,-0.5,-0.5,-0.5,-0.5,-0.5,-0.5,-0.5,-0.5,-0.5,-0.5,linear,0.025,FALSE,EQ,H1,5,sepmodel,0.79990000000000006,0,10000
10,250,0,400,800,1200,1600,2000,2400,2800,3200,3600,2,25,0,1,0.25,0.25,0.25,0.25,0.25,0.25,0.25,0.25,0.25,0.25,-0.5,-0.5,-0.5,-0.5,-0.5,-0.5,-0.5,-0.5,-0.5,-0.5,-0.5,linear,0.025,FALSE,EQ,H1,6,fixmodel,0.8257,0,10000
10,250,0,400,800,1200,1600,2000,2400,2800,3200,3600,2,25,0,1,0.25,0.25,0.25,0.25,0.25,0.25,0.25,0.25,0.25,0.25,-0.5,-0.5,-0.5,-0.5,-0.5,-0.5,-0.5,-0.5,-0.5,-0.5,-0.5,linear,0.025,FALSE,EQ,H1,6,fixmodel_cal,0.8278,0,10000
10,250,0,400,800,1200,1600,2000,2400,2800,3200,3600,2,25,0,1,0.25,0.25,0.25,0.25,0.25,0.25,0.25,0.25,0.25,0.25,-0.5,-0.5,-0.5,-0.5,-0.5,-0.5,-0.5,-0.5,-0.5,-0.5,-0.5,linear,0.025,FALSE,EQ,H1,6,mixmodel,0.6004,0,10000
10,250,0,400,800,1200,1600,2000,2400,2800,3200,3600,2,25,0,1,0.25,0.25,0.25,0.25,0.25,0.25,0.25,0.25,0.25,0.25,-0.5,-0.5,-0.5,-0.5,-0.5,-0.5,-0.5,-0.5,-0.5,-0.5,-0.5,linear,0.025,FALSE,EQ,H1,6,mixmodel_AR1,0.6618,0,10000
10,250,0,400,800,1200,1600,2000,2400,2800,3200,3600,2,25,0,1,0.25,0.25,0.25,0.25,0.25,0.25,0.25,0.25,0.25,0.25,-0.5,-0.5,-0.5,-0.5,-0.5,-0.5,-0.5,-0.5,-0.5,-0.5,-0.5,linear,0.025,FALSE,EQ,H1,6,mixmodel_AR1_cal,0.6101,0,10000
10,250,0,400,800,1200,1600,2000,2400,2800,3200,3600,2,25,0,1,0.25,0.25,0.25,0.25,0.25,0.25,0.25,0.25,0.25,0.25,-0.5,-0.5,-0.5,-0.5,-0.5,-0.5,-0.5,-0.5,-0.5,-0.5,-0.5,linear,0.025,FALSE,EQ,H1,6,mixmodel_cal,0.4385,0,10000
10,250,0,400,800,1200,1600,2000,2400,2800,3200,3600,2,25,0,1,0.25,0.25,0.25,0.25,0.25,0.25,0.25,0.25,0.25,0.25,-0.5,-0.5,-0.5,-0.5,-0.5,-0.5,-0.5,-0.5,-0.5,-0.5,-0.5,linear,0.025,FALSE,EQ,H1,6,poolmodel,0.4162,0,10000
10,250,0,400,800,1200,1600,2000,2400,2800,3200,3600,2,25,0,1,0.25,0.25,0.25,0.25,0.25,0.25,0.25,0.25,0.25,0.25,-0.5,-0.5,-0.5,-0.5,-0.5,-0.5,-0.5,-0.5,-0.5,-0.5,-0.5,linear,0.025,FALSE,EQ,H1,6,sepmodel,0.7989,0,10000
10,250,0,400,800,1200,1600,2000,2400,2800,3200,3600,2,25,0,1,0.25,0.25,0.25,0.25,0.25,0.25,0.25,0.25,0.25,0.25,-0.5,-0.5,-0.5,-0.5,-0.5,-0.5,-0.5,-0.5,-0.5,-0.5,-0.5,linear,0.025,FALSE,EQ,H1,7,fixmodel,0.8221,0,10000
10,250,0,400,800,1200,1600,2000,2400,2800,3200,3600,2,25,0,1,0.25,0.25,0.25,0.25,0.25,0.25,0.25,0.25,0.25,0.25,-0.5,-0.5,-0.5,-0.5,-0.5,-0.5,-0.5,-0.5,-0.5,-0.5,-0.5,linear,0.025,FALSE,EQ,H1,7,fixmodel_cal,0.8233,0,10000
10,250,0,400,800,1200,1600,2000,2400,2800,3200,3600,2,25,0,1,0.25,0.25,0.25,0.25,0.25,0.25,0.25,0.25,0.25,0.25,-0.5,-0.5,-0.5,-0.5,-0.5,-0.5,-0.5,-0.5,-0.5,-0.5,-0.5,linear,0.025,FALSE,EQ,H1,7,mixmodel,0.5486,0,10000
10,250,0,400,800,1200,1600,2000,2400,2800,3200,3600,2,25,0,1,0.25,0.25,0.25,0.25,0.25,0.25,0.25,0.25,0.25,0.25,-0.5,-0.5,-0.5,-0.5,-0.5,-0.5,-0.5,-0.5,-0.5,-0.5,-0.5,linear,0.025,FALSE,EQ,H1,7,mixmodel_AR1,0.6726,0,10000
10,250,0,400,800,1200,1600,2000,2400,2800,3200,3600,2,25,0,1,0.25,0.25,0.25,0.25,0.25,0.25,0.25,0.25,0.25,0.25,-0.5,-0.5,-0.5,-0.5,-0.5,-0.5,-0.5,-0.5,-0.5,-0.5,-0.5,linear,0.025,FALSE,EQ,H1,7,mixmodel_AR1_cal,0.6002,0,10000
10,250,0,400,800,1200,1600,2000,2400,2800,3200,3600,2,25,0,1,0.25,0.25,0.25,0.25,0.25,0.25,0.25,0.25,0.25,0.25,-0.5,-0.5,-0.5,-0.5,-0.5,-0.5,-0.5,-0.5,-0.5,-0.5,-0.5,linear,0.025,FALSE,EQ,H1,7,mixmodel_cal,0.3176,0,10000
10,250,0,400,800,1200,1600,2000,2400,2800,3200,3600,2,25,0,1,0.25,0.25,0.25,0.25,0.25,0.25,0.25,0.25,0.25,0.25,-0.5,-0.5,-0.5,-0.5,-0.5,-0.5,-0.5,-0.5,-0.5,-0.5,-0.5,linear,0.025,FALSE,EQ,H1,7,poolmodel,0.2949,0,10000
10,250,0,400,800,1200,1600,2000,2400,2800,3200,3600,2,25,0,1,0.25,0.25,0.25,0.25,0.25,0.25,0.25,0.25,0.25,0.25,-0.5,-0.5,-0.5,-0.5,-0.5,-0.5,-0.5,-0.5,-0.5,-0.5,-0.5,linear,0.025,FALSE,EQ,H1,7,sepmodel,0.7956,0,10000
10,250,0,400,800,1200,1600,2000,2400,2800,3200,3600,2,25,0,1,0.25,0.25,0.25,0.25,0.25,0.25,0.25,0.25,0.25,0.25,-0.5,-0.5,-0.5,-0.5,-0.5,-0.5,-0.5,-0.5,-0.5,-0.5,-0.5,linear,0.025,FALSE,EQ,H1,8,fixmodel,0.8256,0,10000
10,250,0,400,800,1200,1600,2000,2400,2800,3200,3600,2,25,0,1,0.25,0.25,0.25,0.25,0.25,0.25,0.25,0.25,0.25,0.25,-0.5,-0.5,-0.5,-0.5,-0.5,-0.5,-0.5,-0.5,-0.5,-0.5,-0.5,linear,0.025,FALSE,EQ,H1,8,fixmodel_cal,0.8276,0,10000
10,250,0,400,800,1200,1600,2000,2400,2800,3200,3600,2,25,0,1,0.25,0.25,0.25,0.25,0.25,0.25,0.25,0.25,0.25,0.25,-0.5,-0.5,-0.5,-0.5,-0.5,-0.5,-0.5,-0.5,-0.5,-0.5,-0.5,linear,0.025,FALSE,EQ,H1,8,mixmodel,0.5165,0,10000
10,250,0,400,800,1200,1600,2000,2400,2800,3200,3600,2,25,0,1,0.25,0.25,0.25,0.25,0.25,0.25,0.25,0.25,0.25,0.25,-0.5,-0.5,-0.5,-0.5,-0.5,-0.5,-0.5,-0.5,-0.5,-0.5,-0.5,linear,0.025,FALSE,EQ,H1,8,mixmodel_AR1,0.7045,0,10000
10,250,0,400,800,1200,1600,2000,2400,2800,3200,3600,2,25,0,1,0.25,0.25,0.25,0.25,0.25,0.25,0.25,0.25,0.25,0.25,-0.5,-0.5,-0.5,-0.5,-0.5,-0.5,-0.5,-0.5,-0.5,-0.5,-0.5,linear,0.025,FALSE,EQ,H1,8,mixmodel_AR1_cal,0.63,0,10000
10,250,0,400,800,1200,1600,2000,2400,2800,3200,3600,2,25,0,1,0.25,0.25,0.25,0.25,0.25,0.25,0.25,0.25,0.25,0.25,-0.5,-0.5,-0.5,-0.5,-0.5,-0.5,-0.5,-0.5,-0.5,-0.5,-0.5,linear,0.025,FALSE,EQ,H1,8,mixmodel_cal,0.2099,0,10000
10,250,0,400,800,1200,1600,2000,2400,2800,3200,3600,2,25,0,1,0.25,0.25,0.25,0.25,0.25,0.25,0.25,0.25,0.25,0.25,-0.5,-0.5,-0.5,-0.5,-0.5,-0.5,-0.5,-0.5,-0.5,-0.5,-0.5,linear,0.025,FALSE,EQ,H1,8,poolmodel,0.1867,0,10000
10,250,0,400,800,1200,1600,2000,2400,2800,3200,3600,2,25,0,1,0.25,0.25,0.25,0.25,0.25,0.25,0.25,0.25,0.25,0.25,-0.5,-0.5,-0.5,-0.5,-0.5,-0.5,-0.5,-0.5,-0.5,-0.5,-0.5,linear,0.025,FALSE,EQ,H1,8,sepmodel,0.7956,0,10000
10,250,0,400,800,1200,1600,2000,2400,2800,3200,3600,2,25,0,1,0.25,0.25,0.25,0.25,0.25,0.25,0.25,0.25,0.25,0.25,-0.5,-0.5,-0.5,-0.5,-0.5,-0.5,-0.5,-0.5,-0.5,-0.5,-0.5,linear,0.025,FALSE,EQ,H1,9,fixmodel,0.8201,0,10000
10,250,0,400,800,1200,1600,2000,2400,2800,3200,3600,2,25,0,1,0.25,0.25,0.25,0.25,0.25,0.25,0.25,0.25,0.25,0.25,-0.5,-0.5,-0.5,-0.5,-0.5,-0.5,-0.5,-0.5,-0.5,-0.5,-0.5,linear,0.025,FALSE,EQ,H1,9,fixmodel_cal,0.8209,0,10000
10,250,0,400,800,1200,1600,2000,2400,2800,3200,3600,2,25,0,1,0.25,0.25,0.25,0.25,0.25,0.25,0.25,0.25,0.25,0.25,-0.5,-0.5,-0.5,-0.5,-0.5,-0.5,-0.5,-0.5,-0.5,-0.5,-0.5,linear,0.025,FALSE,EQ,H1,9,mixmodel,0.4979,0,10000
10,250,0,400,800,1200,1600,2000,2400,2800,3200,3600,2,25,0,1,0.25,0.25,0.25,0.25,0.25,0.25,0.25,0.25,0.25,0.25,-0.5,-0.5,-0.5,-0.5,-0.5,-0.5,-0.5,-0.5,-0.5,-0.5,-0.5,linear,0.025,FALSE,EQ,H1,9,mixmodel_AR1,0.728,0,10000
10,250,0,400,800,1200,1600,2000,2400,2800,3200,3600,2,25,0,1,0.25,0.25,0.25,0.25,0.25,0.25,0.25,0.25,0.25,0.25,-0.5,-0.5,-0.5,-0.5,-0.5,-0.5,-0.5,-0.5,-0.5,-0.5,-0.5,linear,0.025,FALSE,EQ,H1,9,mixmodel_AR1_cal,0.6671,0,10000
10,250,0,400,800,1200,1600,2000,2400,2800,3200,3600,2,25,0,1,0.25,0.25,0.25,0.25,0.25,0.25,0.25,0.25,0.25,0.25,-0.5,-0.5,-0.5,-0.5,-0.5,-0.5,-0.5,-0.5,-0.5,-0.5,-0.5,linear,0.025,FALSE,EQ,H1,9,mixmodel_cal,0.1236,0,10000
10,250,0,400,800,1200,1600,2000,2400,2800,3200,3600,2,25,0,1,0.25,0.25,0.25,0.25,0.25,0.25,0.25,0.25,0.25,0.25,-0.5,-0.5,-0.5,-0.5,-0.5,-0.5,-0.5,-0.5,-0.5,-0.5,-0.5,linear,0.025,FALSE,EQ,H1,9,poolmodel,0.1025,0,10000
10,250,0,400,800,1200,1600,2000,2400,2800,3200,3600,2,25,0,1,0.25,0.25,0.25,0.25,0.25,0.25,0.25,0.25,0.25,0.25,-0.5,-0.5,-0.5,-0.5,-0.5,-0.5,-0.5,-0.5,-0.5,-0.5,-0.5,linear,0.025,FALSE,EQ,H1,9,sepmodel,0.7948,0,10000
10,250,0,400,800,1200,1600,2000,2400,2800,3200,3600,2,25,0,1,0.25,0.25,0.25,0.25,0.25,0.25,0.25,0.25,0.25,0.25,-0.5,-0.5,-0.5,-0.5,-0.5,-0.5,-0.5,-0.5,-0.5,-0.5,-0.5,linear,0.025,FALSE,EQ,H1,10,fixmodel,0.8179,0,10000
10,250,0,400,800,1200,1600,2000,2400,2800,3200,3600,2,25,0,1,0.25,0.25,0.25,0.25,0.25,0.25,0.25,0.25,0.25,0.25,-0.5,-0.5,-0.5,-0.5,-0.5,-0.5,-0.5,-0.5,-0.5,-0.5,-0.5,linear,0.025,FALSE,EQ,H1,10,fixmodel_cal,0.8182,0,10000
10,250,0,400,800,1200,1600,2000,2400,2800,3200,3600,2,25,0,1,0.25,0.25,0.25,0.25,0.25,0.25,0.25,0.25,0.25,0.25,-0.5,-0.5,-0.5,-0.5,-0.5,-0.5,-0.5,-0.5,-0.5,-0.5,-0.5,linear,0.025,FALSE,EQ,H1,10,mixmodel,0.5564,0,10000
10,250,0,400,800,1200,1600,2000,2400,2800,3200,3600,2,25,0,1,0.25,0.25,0.25,0.25,0.25,0.25,0.25,0.25,0.25,0.25,-0.5,-0.5,-0.5,-0.5,-0.5,-0.5,-0.5,-0.5,-0.5,-0.5,-0.5,linear,0.025,FALSE,EQ,H1,10,mixmodel_AR1,0.7404,0,10000
10,250,0,400,800,1200,1600,2000,2400,2800,3200,3600,2,25,0,1,0.25,0.25,0.25,0.25,0.25,0.25,0.25,0.25,0.25,0.25,-0.5,-0.5,-0.5,-0.5,-0.5,-0.5,-0.5,-0.5,-0.5,-0.5,-0.5,linear,0.025,FALSE,EQ,H1,10,mixmodel_AR1_cal,0.7141,0,10000
10,250,0,400,800,1200,1600,2000,2400,2800,3200,3600,2,25,0,1,0.25,0.25,0.25,0.25,0.25,0.25,0.25,0.25,0.25,0.25,-0.5,-0.5,-0.5,-0.5,-0.5,-0.5,-0.5,-0.5,-0.5,-0.5,-0.5,linear,0.025,FALSE,EQ,H1,10,mixmodel_cal,0.0783,0,10000
10,250,0,400,800,1200,1600,2000,2400,2800,3200,3600,2,25,0,1,0.25,0.25,0.25,0.25,0.25,0.25,0.25,0.25,0.25,0.25,-0.5,-0.5,-0.5,-0.5,-0.5,-0.5,-0.5,-0.5,-0.5,-0.5,-0.5,linear,0.025,FALSE,EQ,H1,10,poolmodel,0.0524,0,10000
10,250,0,400,800,1200,1600,2000,2400,2800,3200,3600,2,25,0,1,0.25,0.25,0.25,0.25,0.25,0.25,0.25,0.25,0.25,0.25,-0.5,-0.5,-0.5,-0.5,-0.5,-0.5,-0.5,-0.5,-0.5,-0.5,-0.5,linear,0.025,FALSE,EQ,H1,10,sepmodel,0.7854,0,10000
10,250,0,500,1000,1500,2000,2500,3000,3500,4000,4500,2,25,0,1,0.25,0.25,0.25,0.25,0.25,0.25,0.25,0.25,0.25,0.25,-0.375,-0.375,-0.375,-0.375,-0.375,-0.375,-0.375,-0.375,-0.375,-0.375,-0.375,linear,0.025,FALSE,EQ,H1,2,fixmodel,0.7891,0,10000
10,250,0,500,1000,1500,2000,2500,3000,3500,4000,4500,2,25,0,1,0.25,0.25,0.25,0.25,0.25,0.25,0.25,0.25,0.25,0.25,-0.375,-0.375,-0.375,-0.375,-0.375,-0.375,-0.375,-0.375,-0.375,-0.375,-0.375,linear,0.025,FALSE,EQ,H1,2,fixmodel_cal,0.7875,0,10000
10,250,0,500,1000,1500,2000,2500,3000,3500,4000,4500,2,25,0,1,0.25,0.25,0.25,0.25,0.25,0.25,0.25,0.25,0.25,0.25,-0.375,-0.375,-0.375,-0.375,-0.375,-0.375,-0.375,-0.375,-0.375,-0.375,-0.375,linear,0.025,FALSE,EQ,H1,2,mixmodel,0.8385,0,10000
10,250,0,500,1000,1500,2000,2500,3000,3500,4000,4500,2,25,0,1,0.25,0.25,0.25,0.25,0.25,0.25,0.25,0.25,0.25,0.25,-0.375,-0.375,-0.375,-0.375,-0.375,-0.375,-0.375,-0.375,-0.375,-0.375,-0.375,linear,0.025,FALSE,EQ,H1,2,mixmodel_AR1,0.8467,0,10000
10,250,0,500,1000,1500,2000,2500,3000,3500,4000,4500,2,25,0,1,0.25,0.25,0.25,0.25,0.25,0.25,0.25,0.25,0.25,0.25,-0.375,-0.375,-0.375,-0.375,-0.375,-0.375,-0.375,-0.375,-0.375,-0.375,-0.375,linear,0.025,FALSE,EQ,H1,2,mixmodel_AR1_cal,0.8426,0,10000
10,250,0,500,1000,1500,2000,2500,3000,3500,4000,4500,2,25,0,1,0.25,0.25,0.25,0.25,0.25,0.25,0.25,0.25,0.25,0.25,-0.375,-0.375,-0.375,-0.375,-0.375,-0.375,-0.375,-0.375,-0.375,-0.375,-0.375,linear,0.025,FALSE,EQ,H1,2,mixmodel_cal,0.8413,0,10000
10,250,0,500,1000,1500,2000,2500,3000,3500,4000,4500,2,25,0,1,0.25,0.25,0.25,0.25,0.25,0.25,0.25,0.25,0.25,0.25,-0.375,-0.375,-0.375,-0.375,-0.375,-0.375,-0.375,-0.375,-0.375,-0.375,-0.375,linear,0.025,FALSE,EQ,H1,2,poolmodel,0.8417,0,10000
10,250,0,500,1000,1500,2000,2500,3000,3500,4000,4500,2,25,0,1,0.25,0.25,0.25,0.25,0.25,0.25,0.25,0.25,0.25,0.25,-0.375,-0.375,-0.375,-0.375,-0.375,-0.375,-0.375,-0.375,-0.375,-0.375,-0.375,linear,0.025,FALSE,EQ,H1,2,sepmodel,0.7907,0,10000
10,250,0,500,1000,1500,2000,2500,3000,3500,4000,4500,2,25,0,1,0.25,0.25,0.25,0.25,0.25,0.25,0.25,0.25,0.25,0.25,-0.375,-0.375,-0.375,-0.375,-0.375,-0.375,-0.375,-0.375,-0.375,-0.375,-0.375,linear,0.025,FALSE,EQ,H1,3,fixmodel,0.7978,0,10000
10,250,0,500,1000,1500,2000,2500,3000,3500,4000,4500,2,25,0,1,0.25,0.25,0.25,0.25,0.25,0.25,0.25,0.25,0.25,0.25,-0.375,-0.375,-0.375,-0.375,-0.375,-0.375,-0.375,-0.375,-0.375,-0.375,-0.375,linear,0.025,FALSE,EQ,H1,3,fixmodel_cal,0.7972,0,10000
10,250,0,500,1000,1500,2000,2500,3000,3500,4000,4500,2,25,0,1,0.25,0.25,0.25,0.25,0.25,0.25,0.25,0.25,0.25,0.25,-0.375,-0.375,-0.375,-0.375,-0.375,-0.375,-0.375,-0.375,-0.375,-0.375,-0.375,linear,0.025,FALSE,EQ,H1,3,mixmodel,0.8327,0,10000
10,250,0,500,1000,1500,2000,2500,3000,3500,4000,4500,2,25,0,1,0.25,0.25,0.25,0.25,0.25,0.25,0.25,0.25,0.25,0.25,-0.375,-0.375,-0.375,-0.375,-0.375,-0.375,-0.375,-0.375,-0.375,-0.375,-0.375,linear,0.025,FALSE,EQ,H1,3,mixmodel_AR1,0.8313,0,10000
10,250,0,500,1000,1500,2000,2500,3000,3500,4000,4500,2,25,0,1,0.25,0.25,0.25,0.25,0.25,0.25,0.25,0.25,0.25,0.25,-0.375,-0.375,-0.375,-0.375,-0.375,-0.375,-0.375,-0.375,-0.375,-0.375,-0.375,linear,0.025,FALSE,EQ,H1,3,mixmodel_AR1_cal,0.8353,0,10000
10,250,0,500,1000,1500,2000,2500,3000,3500,4000,4500,2,25,0,1,0.25,0.25,0.25,0.25,0.25,0.25,0.25,0.25,0.25,0.25,-0.375,-0.375,-0.375,-0.375,-0.375,-0.375,-0.375,-0.375,-0.375,-0.375,-0.375,linear,0.025,FALSE,EQ,H1,3,mixmodel_cal,0.8288,0,10000
10,250,0,500,1000,1500,2000,2500,3000,3500,4000,4500,2,25,0,1,0.25,0.25,0.25,0.25,0.25,0.25,0.25,0.25,0.25,0.25,-0.375,-0.375,-0.375,-0.375,-0.375,-0.375,-0.375,-0.375,-0.375,-0.375,-0.375,linear,0.025,FALSE,EQ,H1,3,poolmodel,0.8271,0,10000
10,250,0,500,1000,1500,2000,2500,3000,3500,4000,4500,2,25,0,1,0.25,0.25,0.25,0.25,0.25,0.25,0.25,0.25,0.25,0.25,-0.375,-0.375,-0.375,-0.375,-0.375,-0.375,-0.375,-0.375,-0.375,-0.375,-0.375,linear,0.025,FALSE,EQ,H1,3,sepmodel,0.7963,0,10000
10,250,0,500,1000,1500,2000,2500,3000,3500,4000,4500,2,25,0,1,0.25,0.25,0.25,0.25,0.25,0.25,0.25,0.25,0.25,0.25,-0.375,-0.375,-0.375,-0.375,-0.375,-0.375,-0.375,-0.375,-0.375,-0.375,-0.375,linear,0.025,FALSE,EQ,H1,4,fixmodel,0.801,0,10000
10,250,0,500,1000,1500,2000,2500,3000,3500,4000,4500,2,25,0,1,0.25,0.25,0.25,0.25,0.25,0.25,0.25,0.25,0.25,0.25,-0.375,-0.375,-0.375,-0.375,-0.375,-0.375,-0.375,-0.375,-0.375,-0.375,-0.375,linear,0.025,FALSE,EQ,H1,4,fixmodel_cal,0.8003,0,10000
10,250,0,500,1000,1500,2000,2500,3000,3500,4000,4500,2,25,0,1,0.25,0.25,0.25,0.25,0.25,0.25,0.25,0.25,0.25,0.25,-0.375,-0.375,-0.375,-0.375,-0.375,-0.375,-0.375,-0.375,-0.375,-0.375,-0.375,linear,0.025,FALSE,EQ,H1,4,mixmodel,0.8012,0,10000
10,250,0,500,1000,1500,2000,2500,3000,3500,4000,4500,2,25,0,1,0.25,0.25,0.25,0.25,0.25,0.25,0.25,0.25,0.25,0.25,-0.375,-0.375,-0.375,-0.375,-0.375,-0.375,-0.375,-0.375,-0.375,-0.375,-0.375,linear,0.025,FALSE,EQ,H1,4,mixmodel_AR1,0.8098,0,10000
10,250,0,500,1000,1500,2000,2500,3000,3500,4000,4500,2,25,0,1,0.25,0.25,0.25,0.25,0.25,0.25,0.25,0.25,0.25,0.25,-0.375,-0.375,-0.375,-0.375,-0.375,-0.375,-0.375,-0.375,-0.375,-0.375,-0.375,linear,0.025,FALSE,EQ,H1,4,mixmodel_AR1_cal,0.7997,0,10000
10,250,0,500,1000,1500,2000,2500,3000,3500,4000,4500,2,25,0,1,0.25,0.25,0.25,0.25,0.25,0.25,0.25,0.25,0.25,0.25,-0.375,-0.375,-0.375,-0.375,-0.375,-0.375,-0.375,-0.375,-0.375,-0.375,-0.375,linear,0.025,FALSE,EQ,H1,4,mixmodel_cal,0.7879,0,10000
10,250,0,500,1000,1500,2000,2500,3000,3500,4000,4500,2,25,0,1,0.25,0.25,0.25,0.25,0.25,0.25,0.25,0.25,0.25,0.25,-0.375,-0.375,-0.375,-0.375,-0.375,-0.375,-0.375,-0.375,-0.375,-0.375,-0.375,linear,0.025,FALSE,EQ,H1,4,poolmodel,0.7828,0,10000
10,250,0,500,1000,1500,2000,2500,3000,3500,4000,4500,2,25,0,1,0.25,0.25,0.25,0.25,0.25,0.25,0.25,0.25,0.25,0.25,-0.375,-0.375,-0.375,-0.375,-0.375,-0.375,-0.375,-0.375,-0.375,-0.375,-0.375,linear,0.025,FALSE,EQ,H1,4,sepmodel,0.79990000000000006,0,10000
10,250,0,500,1000,1500,2000,2500,3000,3500,4000,4500,2,25,0,1,0.25,0.25,0.25,0.25,0.25,0.25,0.25,0.25,0.25,0.25,-0.375,-0.375,-0.375,-0.375,-0.375,-0.375,-0.375,-0.375,-0.375,-0.375,-0.375,linear,0.025,FALSE,EQ,H1,5,fixmodel,0.8041,0,10000
10,250,0,500,1000,1500,2000,2500,3000,3500,4000,4500,2,25,0,1,0.25,0.25,0.25,0.25,0.25,0.25,0.25,0.25,0.25,0.25,-0.375,-0.375,-0.375,-0.375,-0.375,-0.375,-0.375,-0.375,-0.375,-0.375,-0.375,linear,0.025,FALSE,EQ,H1,5,fixmodel_cal,0.8038,0,10000
10,250,0,500,1000,1500,2000,2500,3000,3500,4000,4500,2,25,0,1,0.25,0.25,0.25,0.25,0.25,0.25,0.25,0.25,0.25,0.25,-0.375,-0.375,-0.375,-0.375,-0.375,-0.375,-0.375,-0.375,-0.375,-0.375,-0.375,linear,0.025,FALSE,EQ,H1,5,mixmodel,0.7652,0,10000
10,250,0,500,1000,1500,2000,2500,3000,3500,4000,4500,2,25,0,1,0.25,0.25,0.25,0.25,0.25,0.25,0.25,0.25,0.25,0.25,-0.375,-0.375,-0.375,-0.375,-0.375,-0.375,-0.375,-0.375,-0.375,-0.375,-0.375,linear,0.025,FALSE,EQ,H1,5,mixmodel_AR1,0.7525,0,10000
10,250,0,500,1000,1500,2000,2500,3000,3500,4000,4500,2,25,0,1,0.25,0.25,0.25,0.25,0.25,0.25,0.25,0.25,0.25,0.25,-0.375,-0.375,-0.375,-0.375,-0.375,-0.375,-0.375,-0.375,-0.375,-0.375,-0.375,linear,0.025,FALSE,EQ,H1,5,mixmodel_AR1_cal,0.7483,0,10000
10,250,0,500,1000,1500,2000,2500,3000,3500,4000,4500,2,25,0,1,0.25,0.25,0.25,0.25,0.25,0.25,0.25,0.25,0.25,0.25,-0.375,-0.375,-0.375,-0.375,-0.375,-0.375,-0.375,-0.375,-0.375,-0.375,-0.375,linear,0.025,FALSE,EQ,H1,5,mixmodel_cal,0.7193,0,10000
10,250,0,500,1000,1500,2000,2500,3000,3500,4000,4500,2,25,0,1,0.25,0.25,0.25,0.25,0.25,0.25,0.25,0.25,0.25,0.25,-0.375,-0.375,-0.375,-0.375,-0.375,-0.375,-0.375,-0.375,-0.375,-0.375,-0.375,linear,0.025,FALSE,EQ,H1,5,poolmodel,0.7134,0,10000
10,250,0,500,1000,1500,2000,2500,3000,3500,4000,4500,2,25,0,1,0.25,0.25,0.25,0.25,0.25,0.25,0.25,0.25,0.25,0.25,-0.375,-0.375,-0.375,-0.375,-0.375,-0.375,-0.375,-0.375,-0.375,-0.375,-0.375,linear,0.025,FALSE,EQ,H1,5,sepmodel,0.8044,0,10000
10,250,0,500,1000,1500,2000,2500,3000,3500,4000,4500,2,25,0,1,0.25,0.25,0.25,0.25,0.25,0.25,0.25,0.25,0.25,0.25,-0.375,-0.375,-0.375,-0.375,-0.375,-0.375,-0.375,-0.375,-0.375,-0.375,-0.375,linear,0.025,FALSE,EQ,H1,6,fixmodel,0.795,0,10000
10,250,0,500,1000,1500,2000,2500,3000,3500,4000,4500,2,25,0,1,0.25,0.25,0.25,0.25,0.25,0.25,0.25,0.25,0.25,0.25,-0.375,-0.375,-0.375,-0.375,-0.375,-0.375,-0.375,-0.375,-0.375,-0.375,-0.375,linear,0.025,FALSE,EQ,H1,6,fixmodel_cal,0.7956,0,10000
10,250,0,500,1000,1500,2000,2500,3000,3500,4000,4500,2,25,0,1,0.25,0.25,0.25,0.25,0.25,0.25,0.25,0.25,0.25,0.25,-0.375,-0.375,-0.375,-0.375,-0.375,-0.375,-0.375,-0.375,-0.375,-0.375,-0.375,linear,0.025,FALSE,EQ,H1,6,mixmodel,0.737,0,10000
10,250,0,500,1000,1500,2000,2500,3000,3500,4000,4500,2,25,0,1,0.25,0.25,0.25,0.25,0.25,0.25,0.25,0.25,0.25,0.25,-0.375,-0.375,-0.375,-0.375,-0.375,-0.375,-0.375,-0.375,-0.375,-0.375,-0.375,linear,0.025,FALSE,EQ,H1,6,mixmodel_AR1,0.7315,0,10000
10,250,0,500,1000,1500,2000,2500,3000,3500,4000,4500,2,25,0,1,0.25,0.25,0.25,0.25,0.25,0.25,0.25,0.25,0.25,0.25,-0.375,-0.375,-0.375,-0.375,-0.375,-0.375,-0.375,-0.375,-0.375,-0.375,-0.375,linear,0.025,FALSE,EQ,H1,6,mixmodel_AR1_cal,0.703,0,10000
10,250,0,500,1000,1500,2000,2500,3000,3500,4000,4500,2,25,0,1,0.25,0.25,0.25,0.25,0.25,0.25,0.25,0.25,0.25,0.25,-0.375,-0.375,-0.375,-0.375,-0.375,-0.375,-0.375,-0.375,-0.375,-0.375,-0.375,linear,0.025,FALSE,EQ,H1,6,mixmodel_cal,0.6384,0,10000
10,250,0,500,1000,1500,2000,2500,3000,3500,4000,4500,2,25,0,1,0.25,0.25,0.25,0.25,0.25,0.25,0.25,0.25,0.25,0.25,-0.375,-0.375,-0.375,-0.375,-0.375,-0.375,-0.375,-0.375,-0.375,-0.375,-0.375,linear,0.025,FALSE,EQ,H1,6,poolmodel,0.6272,0,10000
10,250,0,500,1000,1500,2000,2500,3000,3500,4000,4500,2,25,0,1,0.25,0.25,0.25,0.25,0.25,0.25,0.25,0.25,0.25,0.25,-0.375,-0.375,-0.375,-0.375,-0.375,-0.375,-0.375,-0.375,-0.375,-0.375,-0.375,linear,0.025,FALSE,EQ,H1,6,sepmodel,0.7956,0,10000
10,250,0,500,1000,1500,2000,2500,3000,3500,4000,4500,2,25,0,1,0.25,0.25,0.25,0.25,0.25,0.25,0.25,0.25,0.25,0.25,-0.375,-0.375,-0.375,-0.375,-0.375,-0.375,-0.375,-0.375,-0.375,-0.375,-0.375,linear,0.025,FALSE,EQ,H1,7,fixmodel,0.7963,0,10000
10,250,0,500,1000,1500,2000,2500,3000,3500,4000,4500,2,25,0,1,0.25,0.25,0.25,0.25,0.25,0.25,0.25,0.25,0.25,0.25,-0.375,-0.375,-0.375,-0.375,-0.375,-0.375,-0.375,-0.375,-0.375,-0.375,-0.375,linear,0.025,FALSE,EQ,H1,7,fixmodel_cal,0.7946,0,10000
10,250,0,500,1000,1500,2000,2500,3000,3500,4000,4500,2,25,0,1,0.25,0.25,0.25,0.25,0.25,0.25,0.25,0.25,0.25,0.25,-0.375,-0.375,-0.375,-0.375,-0.375,-0.375,-0.375,-0.375,-0.375,-0.375,-0.375,linear,0.025,FALSE,EQ,H1,7,mixmodel,0.7064,0,10000
10,250,0,500,1000,1500,2000,2500,3000,3500,4000,4500,2,25,0,1,0.25,0.25,0.25,0.25,0.25,0.25,0.25,0.25,0.25,0.25,-0.375,-0.375,-0.375,-0.375,-0.375,-0.375,-0.375,-0.375,-0.375,-0.375,-0.375,linear,0.025,FALSE,EQ,H1,7,mixmodel_AR1,0.7059,0,10000
10,250,0,500,1000,1500,2000,2500,3000,3500,4000,4500,2,25,0,1,0.25,0.25,0.25,0.25,0.25,0.25,0.25,0.25,0.25,0.25,-0.375,-0.375,-0.375,-0.375,-0.375,-0.375,-0.375,-0.375,-0.375,-0.375,-0.375,linear,0.025,FALSE,EQ,H1,7,mixmodel_AR1_cal,0.6635,0,10000
10,250,0,500,1000,1500,2000,2500,3000,3500,4000,4500,2,25,0,1,0.25,0.25,0.25,0.25,0.25,0.25,0.25,0.25,0.25,0.25,-0.375,-0.375,-0.375,-0.375,-0.375,-0.375,-0.375,-0.375,-0.375,-0.375,-0.375,linear,0.025,FALSE,EQ,H1,7,mixmodel_cal,0.544,0,10000
10,250,0,500,1000,1500,2000,2500,3000,3500,4000,4500,2,25,0,1,0.25,0.25,0.25,0.25,0.25,0.25,0.25,0.25,0.25,0.25,-0.375,-0.375,-0.375,-0.375,-0.375,-0.375,-0.375,-0.375,-0.375,-0.375,-0.375,linear,0.025,FALSE,EQ,H1,7,poolmodel,0.5281,0,10000
10,250,0,500,1000,1500,2000,2500,3000,3500,4000,4500,2,25,0,1,0.25,0.25,0.25,0.25,0.25,0.25,0.25,0.25,0.25,0.25,-0.375,-0.375,-0.375,-0.375,-0.375,-0.375,-0.375,-0.375,-0.375,-0.375,-0.375,linear,0.025,FALSE,EQ,H1,7,sepmodel,0.7937,0,10000
10,250,0,500,1000,1500,2000,2500,3000,3500,4000,4500,2,25,0,1,0.25,0.25,0.25,0.25,0.25,0.25,0.25,0.25,0.25,0.25,-0.375,-0.375,-0.375,-0.375,-0.375,-0.375,-0.375,-0.375,-0.375,-0.375,-0.375,linear,0.025,FALSE,EQ,H1,8,fixmodel,0.8042,0,10000
10,250,0,500,1000,1500,2000,2500,3000,3500,4000,4500,2,25,0,1,0.25,0.25,0.25,0.25,0.25,0.25,0.25,0.25,0.25,0.25,-0.375,-0.375,-0.375,-0.375,-0.375,-0.375,-0.375,-0.375,-0.375,-0.375,-0.375,linear,0.025,FALSE,EQ,H1,8,fixmodel_cal,0.8029,0,10000
10,250,0,500,1000,1500,2000,2500,3000,3500,4000,4500,2,25,0,1,0.25,0.25,0.25,0.25,0.25,0.25,0.25,0.25,0.25,0.25,-0.375,-0.375,-0.375,-0.375,-0.375,-0.375,-0.375,-0.375,-0.375,-0.375,-0.375,linear,0.025,FALSE,EQ,H1,8,mixmodel,0.7062,0,10000
10,250,0,500,1000,1500,2000,2500,3000,3500,4000,4500,2,25,0,1,0.25,0.25,0.25,0.25,0.25,0.25,0.25,0.25,0.25,0.25,-0.375,-0.375,-0.375,-0.375,-0.375,-0.375,-0.375,-0.375,-0.375,-0.375,-0.375,linear,0.025,FALSE,EQ,H1,8,mixmodel_AR1,0.727,0,10000
10,250,0,500,1000,1500,2000,2500,3000,3500,4000,4500,2,25,0,1,0.25,0.25,0.25,0.25,0.25,0.25,0.25,0.25,0.25,0.25,-0.375,-0.375,-0.375,-0.375,-0.375,-0.375,-0.375,-0.375,-0.375,-0.375,-0.375,linear,0.025,FALSE,EQ,H1,8,mixmodel_AR1_cal,0.6592,0,10000
10,250,0,500,1000,1500,2000,2500,3000,3500,4000,4500,2,25,0,1,0.25,0.25,0.25,0.25,0.25,0.25,0.25,0.25,0.25,0.25,-0.375,-0.375,-0.375,-0.375,-0.375,-0.375,-0.375,-0.375,-0.375,-0.375,-0.375,linear,0.025,FALSE,EQ,H1,8,mixmodel_cal,0.4398,0,10000
10,250,0,500,1000,1500,2000,2500,3000,3500,4000,4500,2,25,0,1,0.25,0.25,0.25,0.25,0.25,0.25,0.25,0.25,0.25,0.25,-0.375,-0.375,-0.375,-0.375,-0.375,-0.375,-0.375,-0.375,-0.375,-0.375,-0.375,linear,0.025,FALSE,EQ,H1,8,poolmodel,0.4186,0,10000
10,250,0,500,1000,1500,2000,2500,3000,3500,4000,4500,2,25,0,1,0.25,0.25,0.25,0.25,0.25,0.25,0.25,0.25,0.25,0.25,-0.375,-0.375,-0.375,-0.375,-0.375,-0.375,-0.375,-0.375,-0.375,-0.375,-0.375,linear,0.025,FALSE,EQ,H1,8,sepmodel,0.8013,0,10000
10,250,0,500,1000,1500,2000,2500,3000,3500,4000,4500,2,25,0,1,0.25,0.25,0.25,0.25,0.25,0.25,0.25,0.25,0.25,0.25,-0.375,-0.375,-0.375,-0.375,-0.375,-0.375,-0.375,-0.375,-0.375,-0.375,-0.375,linear,0.025,FALSE,EQ,H1,9,fixmodel,0.7986,0,10000
10,250,0,500,1000,1500,2000,2500,3000,3500,4000,4500,2,25,0,1,0.25,0.25,0.25,0.25,0.25,0.25,0.25,0.25,0.25,0.25,-0.375,-0.375,-0.375,-0.375,-0.375,-0.375,-0.375,-0.375,-0.375,-0.375,-0.375,linear,0.025,FALSE,EQ,H1,9,fixmodel_cal,0.7967,0,10000
10,250,0,500,1000,1500,2000,2500,3000,3500,4000,4500,2,25,0,1,0.25,0.25,0.25,0.25,0.25,0.25,0.25,0.25,0.25,0.25,-0.375,-0.375,-0.375,-0.375,-0.375,-0.375,-0.375,-0.375,-0.375,-0.375,-0.375,linear,0.025,FALSE,EQ,H1,9,mixmodel,0.6955,0,10000
10,250,0,500,1000,1500,2000,2500,3000,3500,4000,4500,2,25,0,1,0.25,0.25,0.25,0.25,0.25,0.25,0.25,0.25,0.25,0.25,-0.375,-0.375,-0.375,-0.375,-0.375,-0.375,-0.375,-0.375,-0.375,-0.375,-0.375,linear,0.025,FALSE,EQ,H1,9,mixmodel_AR1,0.7463,0,10000
10,250,0,500,1000,1500,2000,2500,3000,3500,4000,4500,2,25,0,1,0.25,0.25,0.25,0.25,0.25,0.25,0.25,0.25,0.25,0.25,-0.375,-0.375,-0.375,-0.375,-0.375,-0.375,-0.375,-0.375,-0.375,-0.375,-0.375,linear,0.025,FALSE,EQ,H1,9,mixmodel_AR1_cal,0.6748,0,10000
10,250,0,500,1000,1500,2000,2500,3000,3500,4000,4500,2,25,0,1,0.25,0.25,0.25,0.25,0.25,0.25,0.25,0.25,0.25,0.25,-0.375,-0.375,-0.375,-0.375,-0.375,-0.375,-0.375,-0.375,-0.375,-0.375,-0.375,linear,0.025,FALSE,EQ,H1,9,mixmodel_cal,0.3448,0,10000
10,250,0,500,1000,1500,2000,2500,3000,3500,4000,4500,2,25,0,1,0.25,0.25,0.25,0.25,0.25,0.25,0.25,0.25,0.25,0.25,-0.375,-0.375,-0.375,-0.375,-0.375,-0.375,-0.375,-0.375,-0.375,-0.375,-0.375,linear,0.025,FALSE,EQ,H1,9,poolmodel,0.3167,0,10000
10,250,0,500,1000,1500,2000,2500,3000,3500,4000,4500,2,25,0,1,0.25,0.25,0.25,0.25,0.25,0.25,0.25,0.25,0.25,0.25,-0.375,-0.375,-0.375,-0.375,-0.375,-0.375,-0.375,-0.375,-0.375,-0.375,-0.375,linear,0.025,FALSE,EQ,H1,9,sepmodel,0.7959,0,10000
10,250,0,500,1000,1500,2000,2500,3000,3500,4000,4500,2,25,0,1,0.25,0.25,0.25,0.25,0.25,0.25,0.25,0.25,0.25,0.25,-0.375,-0.375,-0.375,-0.375,-0.375,-0.375,-0.375,-0.375,-0.375,-0.375,-0.375,linear,0.025,FALSE,EQ,H1,10,fixmodel,0.7995,0,10000
10,250,0,500,1000,1500,2000,2500,3000,3500,4000,4500,2,25,0,1,0.25,0.25,0.25,0.25,0.25,0.25,0.25,0.25,0.25,0.25,-0.375,-0.375,-0.375,-0.375,-0.375,-0.375,-0.375,-0.375,-0.375,-0.375,-0.375,linear,0.025,FALSE,EQ,H1,10,fixmodel_cal,0.7981,0,10000
10,250,0,500,1000,1500,2000,2500,3000,3500,4000,4500,2,25,0,1,0.25,0.25,0.25,0.25,0.25,0.25,0.25,0.25,0.25,0.25,-0.375,-0.375,-0.375,-0.375,-0.375,-0.375,-0.375,-0.375,-0.375,-0.375,-0.375,linear,0.025,FALSE,EQ,H1,10,mixmodel,0.6953,0,10000
10,250,0,500,1000,1500,2000,2500,3000,3500,4000,4500,2,25,0,1,0.25,0.25,0.25,0.25,0.25,0.25,0.25,0.25,0.25,0.25,-0.375,-0.375,-0.375,-0.375,-0.375,-0.375,-0.375,-0.375,-0.375,-0.375,-0.375,linear,0.025,FALSE,EQ,H1,10,mixmodel_AR1,0.7634,0,10000
10,250,0,500,1000,1500,2000,2500,3000,3500,4000,4500,2,25,0,1,0.25,0.25,0.25,0.25,0.25,0.25,0.25,0.25,0.25,0.25,-0.375,-0.375,-0.375,-0.375,-0.375,-0.375,-0.375,-0.375,-0.375,-0.375,-0.375,linear,0.025,FALSE,EQ,H1,10,mixmodel_AR1_cal,0.7119,0,10000
10,250,0,500,1000,1500,2000,2500,3000,3500,4000,4500,2,25,0,1,0.25,0.25,0.25,0.25,0.25,0.25,0.25,0.25,0.25,0.25,-0.375,-0.375,-0.375,-0.375,-0.375,-0.375,-0.375,-0.375,-0.375,-0.375,-0.375,linear,0.025,FALSE,EQ,H1,10,mixmodel_cal,0.2619,0,10000
10,250,0,500,1000,1500,2000,2500,3000,3500,4000,4500,2,25,0,1,0.25,0.25,0.25,0.25,0.25,0.25,0.25,0.25,0.25,0.25,-0.375,-0.375,-0.375,-0.375,-0.375,-0.375,-0.375,-0.375,-0.375,-0.375,-0.375,linear,0.025,FALSE,EQ,H1,10,poolmodel,0.2307,0,10000
10,250,0,500,1000,1500,2000,2500,3000,3500,4000,4500,2,25,0,1,0.25,0.25,0.25,0.25,0.25,0.25,0.25,0.25,0.25,0.25,-0.375,-0.375,-0.375,-0.375,-0.375,-0.375,-0.375,-0.375,-0.375,-0.375,-0.375,linear,0.025,FALSE,EQ,H1,10,sepmodel,0.7982,0,10000
10,250,0,0,0,0,0,0,0,0,0,0,2,25,0,1,0.25,0.25,0.25,0.25,0.25,0.25,0.25,0.25,0.25,0.25,-0.375,-0.375,-0.375,-0.375,-0.375,-0.375,-0.375,-0.375,-0.375,-0.375,-0.375,linear,0.025,FALSE,EQ,H1,2,fixmodel,0.7966,0,10000
10,250,0,0,0,0,0,0,0,0,0,0,2,25,0,1,0.25,0.25,0.25,0.25,0.25,0.25,0.25,0.25,0.25,0.25,-0.375,-0.375,-0.375,-0.375,-0.375,-0.375,-0.375,-0.375,-0.375,-0.375,-0.375,linear,0.025,FALSE,EQ,H1,2,fixmodel_cal,0.7969,0,10000
10,250,0,0,0,0,0,0,0,0,0,0,2,25,0,1,0.25,0.25,0.25,0.25,0.25,0.25,0.25,0.25,0.25,0.25,-0.375,-0.375,-0.375,-0.375,-0.375,-0.375,-0.375,-0.375,-0.375,-0.375,-0.375,linear,0.025,FALSE,EQ,H1,2,mixmodel,0.7966,0,10000
10,250,0,0,0,0,0,0,0,0,0,0,2,25,0,1,0.25,0.25,0.25,0.25,0.25,0.25,0.25,0.25,0.25,0.25,-0.375,-0.375,-0.375,-0.375,-0.375,-0.375,-0.375,-0.375,-0.375,-0.375,-0.375,linear,0.025,FALSE,EQ,H1,2,mixmodel_AR1,0.7966,0,10000
10,250,0,0,0,0,0,0,0,0,0,0,2,25,0,1,0.25,0.25,0.25,0.25,0.25,0.25,0.25,0.25,0.25,0.25,-0.375,-0.375,-0.375,-0.375,-0.375,-0.375,-0.375,-0.375,-0.375,-0.375,-0.375,linear,0.025,FALSE,EQ,H1,2,mixmodel_AR1_cal,0.8014,0,10000
10,250,0,0,0,0,0,0,0,0,0,0,2,25,0,1,0.25,0.25,0.25,0.25,0.25,0.25,0.25,0.25,0.25,0.25,-0.375,-0.375,-0.375,-0.375,-0.375,-0.375,-0.375,-0.375,-0.375,-0.375,-0.375,linear,0.025,FALSE,EQ,H1,2,mixmodel_cal,0.7995,0,10000
10,250,0,0,0,0,0,0,0,0,0,0,2,25,0,1,0.25,0.25,0.25,0.25,0.25,0.25,0.25,0.25,0.25,0.25,-0.375,-0.375,-0.375,-0.375,-0.375,-0.375,-0.375,-0.375,-0.375,-0.375,-0.375,linear,0.025,FALSE,EQ,H1,2,poolmodel,0.7958,0,10000
10,250,0,0,0,0,0,0,0,0,0,0,2,25,0,1,0.25,0.25,0.25,0.25,0.25,0.25,0.25,0.25,0.25,0.25,-0.375,-0.375,-0.375,-0.375,-0.375,-0.375,-0.375,-0.375,-0.375,-0.375,-0.375,linear,0.025,FALSE,EQ,H1,2,sepmodel,0.7958,0,10000
10,250,0,0,0,0,0,0,0,0,0,0,2,25,0,1,0.25,0.25,0.25,0.25,0.25,0.25,0.25,0.25,0.25,0.25,-0.375,-0.375,-0.375,-0.375,-0.375,-0.375,-0.375,-0.375,-0.375,-0.375,-0.375,linear,0.025,FALSE,EQ,H1,3,fixmodel,0.7958,0,10000
10,250,0,0,0,0,0,0,0,0,0,0,2,25,0,1,0.25,0.25,0.25,0.25,0.25,0.25,0.25,0.25,0.25,0.25,-0.375,-0.375,-0.375,-0.375,-0.375,-0.375,-0.375,-0.375,-0.375,-0.375,-0.375,linear,0.025,FALSE,EQ,H1,3,fixmodel_cal,0.7941,0,10000
10,250,0,0,0,0,0,0,0,0,0,0,2,25,0,1,0.25,0.25,0.25,0.25,0.25,0.25,0.25,0.25,0.25,0.25,-0.375,-0.375,-0.375,-0.375,-0.375,-0.375,-0.375,-0.375,-0.375,-0.375,-0.375,linear,0.025,FALSE,EQ,H1,3,mixmodel,0.7958,0,10000
10,250,0,0,0,0,0,0,0,0,0,0,2,25,0,1,0.25,0.25,0.25,0.25,0.25,0.25,0.25,0.25,0.25,0.25,-0.375,-0.375,-0.375,-0.375,-0.375,-0.375,-0.375,-0.375,-0.375,-0.375,-0.375,linear,0.025,FALSE,EQ,H1,3,mixmodel_AR1,0.7958,0,10000
10,250,0,0,0,0,0,0,0,0,0,0,2,25,0,1,0.25,0.25,0.25,0.25,0.25,0.25,0.25,0.25,0.25,0.25,-0.375,-0.375,-0.375,-0.375,-0.375,-0.375,-0.375,-0.375,-0.375,-0.375,-0.375,linear,0.025,FALSE,EQ,H1,3,mixmodel_AR1_cal,0.7998,0,10000
10,250,0,0,0,0,0,0,0,0,0,0,2,25,0,1,0.25,0.25,0.25,0.25,0.25,0.25,0.25,0.25,0.25,0.25,-0.375,-0.375,-0.375,-0.375,-0.375,-0.375,-0.375,-0.375,-0.375,-0.375,-0.375,linear,0.025,FALSE,EQ,H1,3,mixmodel_cal,0.7979,0,10000
10,250,0,0,0,0,0,0,0,0,0,0,2,25,0,1,0.25,0.25,0.25,0.25,0.25,0.25,0.25,0.25,0.25,0.25,-0.375,-0.375,-0.375,-0.375,-0.375,-0.375,-0.375,-0.375,-0.375,-0.375,-0.375,linear,0.025,FALSE,EQ,H1,3,poolmodel,0.7939,0,10000
10,250,0,0,0,0,0,0,0,0,0,0,2,25,0,1,0.25,0.25,0.25,0.25,0.25,0.25,0.25,0.25,0.25,0.25,-0.375,-0.375,-0.375,-0.375,-0.375,-0.375,-0.375,-0.375,-0.375,-0.375,-0.375,linear,0.025,FALSE,EQ,H1,3,sepmodel,0.7939,0,10000
10,250,0,0,0,0,0,0,0,0,0,0,2,25,0,1,0.25,0.25,0.25,0.25,0.25,0.25,0.25,0.25,0.25,0.25,-0.375,-0.375,-0.375,-0.375,-0.375,-0.375,-0.375,-0.375,-0.375,-0.375,-0.375,linear,0.025,FALSE,EQ,H1,4,fixmodel,0.788,0,10000
10,250,0,0,0,0,0,0,0,0,0,0,2,25,0,1,0.25,0.25,0.25,0.25,0.25,0.25,0.25,0.25,0.25,0.25,-0.375,-0.375,-0.375,-0.375,-0.375,-0.375,-0.375,-0.375,-0.375,-0.375,-0.375,linear,0.025,FALSE,EQ,H1,4,fixmodel_cal,0.787,0,10000
10,250,0,0,0,0,0,0,0,0,0,0,2,25,0,1,0.25,0.25,0.25,0.25,0.25,0.25,0.25,0.25,0.25,0.25,-0.375,-0.375,-0.375,-0.375,-0.375,-0.375,-0.375,-0.375,-0.375,-0.375,-0.375,linear,0.025,FALSE,EQ,H1,4,mixmodel,0.788,0,10000
10,250,0,0,0,0,0,0,0,0,0,0,2,25,0,1,0.25,0.25,0.25,0.25,0.25,0.25,0.25,0.25,0.25,0.25,-0.375,-0.375,-0.375,-0.375,-0.375,-0.375,-0.375,-0.375,-0.375,-0.375,-0.375,linear,0.025,FALSE,EQ,H1,4,mixmodel_AR1,0.788,0,10000
10,250,0,0,0,0,0,0,0,0,0,0,2,25,0,1,0.25,0.25,0.25,0.25,0.25,0.25,0.25,0.25,0.25,0.25,-0.375,-0.375,-0.375,-0.375,-0.375,-0.375,-0.375,-0.375,-0.375,-0.375,-0.375,linear,0.025,FALSE,EQ,H1,4,mixmodel_AR1_cal,0.7919,0,10000
10,250,0,0,0,0,0,0,0,0,0,0,2,25,0,1,0.25,0.25,0.25,0.25,0.25,0.25,0.25,0.25,0.25,0.25,-0.375,-0.375,-0.375,-0.375,-0.375,-0.375,-0.375,-0.375,-0.375,-0.375,-0.375,linear,0.025,FALSE,EQ,H1,4,mixmodel_cal,0.7913,0,10000
10,250,0,0,0,0,0,0,0,0,0,0,2,25,0,1,0.25,0.25,0.25,0.25,0.25,0.25,0.25,0.25,0.25,0.25,-0.375,-0.375,-0.375,-0.375,-0.375,-0.375,-0.375,-0.375,-0.375,-0.375,-0.375,linear,0.025,FALSE,EQ,H1,4,poolmodel,0.7864,0,10000
10,250,0,0,0,0,0,0,0,0,0,0,2,25,0,1,0.25,0.25,0.25,0.25,0.25,0.25,0.25,0.25,0.25,0.25,-0.375,-0.375,-0.375,-0.375,-0.375,-0.375,-0.375,-0.375,-0.375,-0.375,-0.375,linear,0.025,FALSE,EQ,H1,4,sepmodel,0.7864,0,10000
10,250,0,0,0,0,0,0,0,0,0,0,2,25,0,1,0.25,0.25,0.25,0.25,0.25,0.25,0.25,0.25,0.25,0.25,-0.375,-0.375,-0.375,-0.375,-0.375,-0.375,-0.375,-0.375,-0.375,-0.375,-0.375,linear,0.025,FALSE,EQ,H1,5,fixmodel,0.7925,0,10000
10,250,0,0,0,0,0,0,0,0,0,0,2,25,0,1,0.25,0.25,0.25,0.25,0.25,0.25,0.25,0.25,0.25,0.25,-0.375,-0.375,-0.375,-0.375,-0.375,-0.375,-0.375,-0.375,-0.375,-0.375,-0.375,linear,0.025,FALSE,EQ,H1,5,fixmodel_cal,0.7919,0,10000
