pavlakrotka/MASTERARBEIT/Ch3_simulations/results/results_setting_1_pow.csv
num_arms,n_arm,d1,d2,d3,d4,d5,d6,d7,d8,d9,d10,period_blocks,mu0,sigma,theta1,theta2,theta3,theta4,theta5,theta6,theta7,theta8,theta9,theta10,lambda0,lambda1,lambda2,lambda3,lambda4,lambda5,lambda6,lambda7,lambda8,lambda9,lambda10,trend,alpha,ncc,study_arm,model,reject_h0,bias,MSE,failed,nsim
10,250,0,0,0,0,0,0,0,0,0,0,2,0,1,0.25,0.25,0.25,0.25,0.25,0.25,0.25,0.25,0.25,0.25,-0.5,-0.5,-0.5,-0.5,-0.5,-0.5,-0.5,-0.5,-0.5,-0.5,-0.5,linear,0.025,TRUE,2,fixmodel,0.7958,8.238845730868575e-4,0.007841039561030307,0,10000
10,250,0,0,0,0,0,0,0,0,0,0,2,0,1,0.25,0.25,0.25,0.25,0.25,0.25,0.25,0.25,0.25,0.25,-0.5,-0.5,-0.5,-0.5,-0.5,-0.5,-0.5,-0.5,-0.5,-0.5,-0.5,linear,0.025,TRUE,2,poolmodel,0.7922,8.238845730817047e-4,0.00784103956103011,0,10000
10,250,0,0,0,0,0,0,0,0,0,0,2,0,1,0.25,0.25,0.25,0.25,0.25,0.25,0.25,0.25,0.25,0.25,-0.5,-0.5,-0.5,-0.5,-0.5,-0.5,-0.5,-0.5,-0.5,-0.5,-0.5,linear,0.025,TRUE,2,sepmodel,0.7922,8.238845730817047e-4,0.00784103956103011,0,10000
10,250,0,0,0,0,0,0,0,0,0,0,2,0,1,0.25,0.25,0.25,0.25,0.25,0.25,0.25,0.25,0.25,0.25,-0.5,-0.5,-0.5,-0.5,-0.5,-0.5,-0.5,-0.5,-0.5,-0.5,-0.5,linear,0.025,TRUE,3,fixmodel,0.7919,-0.0012341557685281016,0.007939927397674292,0,10000
10,250,0,0,0,0,0,0,0,0,0,0,2,0,1,0.25,0.25,0.25,0.25,0.25,0.25,0.25,0.25,0.25,0.25,-0.5,-0.5,-0.5,-0.5,-0.5,-0.5,-0.5,-0.5,-0.5,-0.5,-0.5,linear,0.025,TRUE,3,poolmodel,0.7907,-0.001234155768528716,0.007939927397674256,0,10000
10,250,0,0,0,0,0,0,0,0,0,0,2,0,1,0.25,0.25,0.25,0.25,0.25,0.25,0.25,0.25,0.25,0.25,-0.5,-0.5,-0.5,-0.5,-0.5,-0.5,-0.5,-0.5,-0.5,-0.5,-0.5,linear,0.025,TRUE,3,sepmodel,0.7907,-0.001234155768528716,0.007939927397674256,0,10000
10,250,0,0,0,0,0,0,0,0,0,0,2,0,1,0.25,0.25,0.25,0.25,0.25,0.25,0.25,0.25,0.25,0.25,-0.5,-0.5,-0.5,-0.5,-0.5,-0.5,-0.5,-0.5,-0.5,-0.5,-0.5,linear,0.025,TRUE,4,fixmodel,0.7896,-8.484566573264217e-4,0.008101720858180936,0,10000
10,250,0,0,0,0,0,0,0,0,0,0,2,0,1,0.25,0.25,0.25,0.25,0.25,0.25,0.25,0.25,0.25,0.25,-0.5,-0.5,-0.5,-0.5,-0.5,-0.5,-0.5,-0.5,-0.5,-0.5,-0.5,linear,0.025,TRUE,4,poolmodel,0.7881,-8.484566573283109e-4,0.008101720858180866,0,10000
10,250,0,0,0,0,0,0,0,0,0,0,2,0,1,0.25,0.25,0.25,0.25,0.25,0.25,0.25,0.25,0.25,0.25,-0.5,-0.5,-0.5,-0.5,-0.5,-0.5,-0.5,-0.5,-0.5,-0.5,-0.5,linear,0.025,TRUE,4,sepmodel,0.7881,-8.484566573283109e-4,0.008101720858180866,0,10000
10,250,0,0,0,0,0,0,0,0,0,0,2,0,1,0.25,0.25,0.25,0.25,0.25,0.25,0.25,0.25,0.25,0.25,-0.5,-0.5,-0.5,-0.5,-0.5,-0.5,-0.5,-0.5,-0.5,-0.5,-0.5,linear,0.025,TRUE,5,fixmodel,0.7926,-4.6750108806891224e-4,0.007869323361211168,0,10000
10,250,0,0,0,0,0,0,0,0,0,0,2,0,1,0.25,0.25,0.25,0.25,0.25,0.25,0.25,0.25,0.25,0.25,-0.5,-0.5,-0.5,-0.5,-0.5,-0.5,-0.5,-0.5,-0.5,-0.5,-0.5,linear,0.025,TRUE,5,poolmodel,0.7917,-4.6750108806988265e-4,0.007869323361211137,0,10000
10,250,0,0,0,0,0,0,0,0,0,0,2,0,1,0.25,0.25,0.25,0.25,0.25,0.25,0.25,0.25,0.25,0.25,-0.5,-0.5,-0.5,-0.5,-0.5,-0.5,-0.5,-0.5,-0.5,-0.5,-0.5,linear,0.025,TRUE,5,sepmodel,0.7917,-4.6750108806988265e-4,0.007869323361211137,0,10000
10,250,0,0,0,0,0,0,0,0,0,0,2,0,1,0.25,0.25,0.25,0.25,0.25,0.25,0.25,0.25,0.25,0.25,-0.5,-0.5,-0.5,-0.5,-0.5,-0.5,-0.5,-0.5,-0.5,-0.5,-0.5,linear,0.025,TRUE,6,fixmodel,0.7924,-2.997555677866135e-4,0.007978428298672055,0,10000
10,250,0,0,0,0,0,0,0,0,0,0,2,0,1,0.25,0.25,0.25,0.25,0.25,0.25,0.25,0.25,0.25,0.25,-0.5,-0.5,-0.5,-0.5,-0.5,-0.5,-0.5,-0.5,-0.5,-0.5,-0.5,linear,0.025,TRUE,6,poolmodel,0.7927,-2.9975556778753966e-4,0.007978428298672036,0,10000
10,250,0,0,0,0,0,0,0,0,0,0,2,0,1,0.25,0.25,0.25,0.25,0.25,0.25,0.25,0.25,0.25,0.25,-0.5,-0.5,-0.5,-0.5,-0.5,-0.5,-0.5,-0.5,-0.5,-0.5,-0.5,linear,0.025,TRUE,6,sepmodel,0.7927,-2.9975556778753966e-4,0.007978428298672036,0,10000
10,250,0,0,0,0,0,0,0,0,0,0,2,0,1,0.25,0.25,0.25,0.25,0.25,0.25,0.25,0.25,0.25,0.25,-0.5,-0.5,-0.5,-0.5,-0.5,-0.5,-0.5,-0.5,-0.5,-0.5,-0.5,linear,0.025,TRUE,7,fixmodel,0.7889,-9.551490977528839e-4,0.00802609972905219,0,10000
10,250,0,0,0,0,0,0,0,0,0,0,2,0,1,0.25,0.25,0.25,0.25,0.25,0.25,0.25,0.25,0.25,0.25,-0.5,-0.5,-0.5,-0.5,-0.5,-0.5,-0.5,-0.5,-0.5,-0.5,-0.5,linear,0.025,TRUE,7,poolmodel,0.7878,-9.551490977537583e-4,0.008026099729052171,0,10000
10,250,0,0,0,0,0,0,0,0,0,0,2,0,1,0.25,0.25,0.25,0.25,0.25,0.25,0.25,0.25,0.25,0.25,-0.5,-0.5,-0.5,-0.5,-0.5,-0.5,-0.5,-0.5,-0.5,-0.5,-0.5,linear,0.025,TRUE,7,sepmodel,0.7878,-9.551490977537583e-4,0.008026099729052171,0,10000
10,250,0,0,0,0,0,0,0,0,0,0,2,0,1,0.25,0.25,0.25,0.25,0.25,0.25,0.25,0.25,0.25,0.25,-0.5,-0.5,-0.5,-0.5,-0.5,-0.5,-0.5,-0.5,-0.5,-0.5,-0.5,linear,0.025,TRUE,8,fixmodel,0.7929,-6.047942013093173e-4,0.00801823234454629,0,10000
10,250,0,0,0,0,0,0,0,0,0,0,2,0,1,0.25,0.25,0.25,0.25,0.25,0.25,0.25,0.25,0.25,0.25,-0.5,-0.5,-0.5,-0.5,-0.5,-0.5,-0.5,-0.5,-0.5,-0.5,-0.5,linear,0.025,TRUE,8,poolmodel,0.7899,-6.047942013102046e-4,0.008018232344546268,0,10000
10,250,0,0,0,0,0,0,0,0,0,0,2,0,1,0.25,0.25,0.25,0.25,0.25,0.25,0.25,0.25,0.25,0.25,-0.5,-0.5,-0.5,-0.5,-0.5,-0.5,-0.5,-0.5,-0.5,-0.5,-0.5,linear,0.025,TRUE,8,sepmodel,0.7899,-6.047942013102046e-4,0.008018232344546268,0,10000
10,250,0,0,0,0,0,0,0,0,0,0,2,0,1,0.25,0.25,0.25,0.25,0.25,0.25,0.25,0.25,0.25,0.25,-0.5,-0.5,-0.5,-0.5,-0.5,-0.5,-0.5,-0.5,-0.5,-0.5,-0.5,linear,0.025,TRUE,9,fixmodel,0.7859,-7.659531511486004e-4,0.008219967825209621,0,10000
10,250,0,0,0,0,0,0,0,0,0,0,2,0,1,0.25,0.25,0.25,0.25,0.25,0.25,0.25,0.25,0.25,0.25,-0.5,-0.5,-0.5,-0.5,-0.5,-0.5,-0.5,-0.5,-0.5,-0.5,-0.5,linear,0.025,TRUE,9,poolmodel,0.7841,-7.659531511494632e-4,0.008219967825209614,0,10000
10,250,0,0,0,0,0,0,0,0,0,0,2,0,1,0.25,0.25,0.25,0.25,0.25,0.25,0.25,0.25,0.25,0.25,-0.5,-0.5,-0.5,-0.5,-0.5,-0.5,-0.5,-0.5,-0.5,-0.5,-0.5,linear,0.025,TRUE,9,sepmodel,0.7841,-7.659531511494632e-4,0.008219967825209614,0,10000
10,250,0,0,0,0,0,0,0,0,0,0,2,0,1,0.25,0.25,0.25,0.25,0.25,0.25,0.25,0.25,0.25,0.25,-0.5,-0.5,-0.5,-0.5,-0.5,-0.5,-0.5,-0.5,-0.5,-0.5,-0.5,linear,0.025,TRUE,10,fixmodel,0.7872,-0.0011474487449786538,0.0080102552262011,0,10000
10,250,0,0,0,0,0,0,0,0,0,0,2,0,1,0.25,0.25,0.25,0.25,0.25,0.25,0.25,0.25,0.25,0.25,-0.5,-0.5,-0.5,-0.5,-0.5,-0.5,-0.5,-0.5,-0.5,-0.5,-0.5,linear,0.025,TRUE,10,poolmodel,0.7854,-0.0011474487449794964,0.008010255226201086,0,10000
10,250,0,0,0,0,0,0,0,0,0,0,2,0,1,0.25,0.25,0.25,0.25,0.25,0.25,0.25,0.25,0.25,0.25,-0.5,-0.5,-0.5,-0.5,-0.5,-0.5,-0.5,-0.5,-0.5,-0.5,-0.5,linear,0.025,TRUE,10,sepmodel,0.7854,-0.0011474487449794964,0.008010255226201086,0,10000
10,250,0,25,50,75,100,125,150,175,200,225,2,0,1,0.25,0.25,0.25,0.25,0.25,0.25,0.25,0.25,0.25,0.25,-0.5,-0.5,-0.5,-0.5,-0.5,-0.5,-0.5,-0.5,-0.5,-0.5,-0.5,linear,0.025,TRUE,2,fixmodel,0.8032,9.76025302865329e-4,0.007858878472992456,0,10000
10,250,0,25,50,75,100,125,150,175,200,225,2,0,1,0.25,0.25,0.25,0.25,0.25,0.25,0.25,0.25,0.25,0.25,-0.5,-0.5,-0.5,-0.5,-0.5,-0.5,-0.5,-0.5,-0.5,-0.5,-0.5,linear,0.025,TRUE,2,poolmodel,0.7703,-0.009840102415359103,0.007857585722922129,0,10000
10,250,0,25,50,75,100,125,150,175,200,225,2,0,1,0.25,0.25,0.25,0.25,0.25,0.25,0.25,0.25,0.25,0.25,-0.5,-0.5,-0.5,-0.5,-0.5,-0.5,-0.5,-0.5,-0.5,-0.5,-0.5,linear,0.025,TRUE,2,sepmodel,0.7982,0.0011187630623545437,0.007918233941330793,0,10000
10,250,0,25,50,75,100,125,150,175,200,225,2,0,1,0.25,0.25,0.25,0.25,0.25,0.25,0.25,0.25,0.25,0.25,-0.5,-0.5,-0.5,-0.5,-0.5,-0.5,-0.5,-0.5,-0.5,-0.5,-0.5,linear,0.025,TRUE,3,fixmodel,0.79990000000000006,5.292349786486694e-4,0.008017426327684983,0,10000
10,250,0,25,50,75,100,125,150,175,200,225,2,0,1,0.25,0.25,0.25,0.25,0.25,0.25,0.25,0.25,0.25,0.25,-0.5,-0.5,-0.5,-0.5,-0.5,-0.5,-0.5,-0.5,-0.5,-0.5,-0.5,linear,0.025,TRUE,3,poolmodel,0.7423,-0.017228275132746676,0.008209617051191144,0,10000
10,250,0,25,50,75,100,125,150,175,200,225,2,0,1,0.25,0.25,0.25,0.25,0.25,0.25,0.25,0.25,0.25,0.25,-0.5,-0.5,-0.5,-0.5,-0.5,-0.5,-0.5,-0.5,-0.5,-0.5,-0.5,linear,0.025,TRUE,3,sepmodel,0.788,6.233109799660781e-4,0.0081608571207788,0,10000
10,250,0,25,50,75,100,125,150,175,200,225,2,0,1,0.25,0.25,0.25,0.25,0.25,0.25,0.25,0.25,0.25,0.25,-0.5,-0.5,-0.5,-0.5,-0.5,-0.5,-0.5,-0.5,-0.5,-0.5,-0.5,linear,0.025,TRUE,4,fixmodel,0.8049,-8.247200058716771e-4,0.007714359308559994,0,10000
10,250,0,25,50,75,100,125,150,175,200,225,2,0,1,0.25,0.25,0.25,0.25,0.25,0.25,0.25,0.25,0.25,0.25,-0.5,-0.5,-0.5,-0.5,-0.5,-0.5,-0.5,-0.5,-0.5,-0.5,-0.5,linear,0.025,TRUE,4,poolmodel,0.7224,-0.025001525205000784,0.008203110259898115,0,10000
10,250,0,25,50,75,100,125,150,175,200,225,2,0,1,0.25,0.25,0.25,0.25,0.25,0.25,0.25,0.25,0.25,0.25,-0.5,-0.5,-0.5,-0.5,-0.5,-0.5,-0.5,-0.5,-0.5,-0.5,-0.5,linear,0.025,TRUE,4,sepmodel,0.7863,-7.843161302094348e-4,0.007912101969027627,0,10000
10,250,0,25,50,75,100,125,150,175,200,225,2,0,1,0.25,0.25,0.25,0.25,0.25,0.25,0.25,0.25,0.25,0.25,-0.5,-0.5,-0.5,-0.5,-0.5,-0.5,-0.5,-0.5,-0.5,-0.5,-0.5,linear,0.025,TRUE,5,fixmodel,0.8126,4.391531934120837e-4,0.007569273413902597,0,10000
10,250,0,25,50,75,100,125,150,175,200,225,2,0,1,0.25,0.25,0.25,0.25,0.25,0.25,0.25,0.25,0.25,0.25,-0.5,-0.5,-0.5,-0.5,-0.5,-0.5,-0.5,-0.5,-0.5,-0.5,-0.5,linear,0.025,TRUE,5,poolmodel,0.7156,-0.028439238690131343,0.008235947236480905,0,10000
10,250,0,25,50,75,100,125,150,175,200,225,2,0,1,0.25,0.25,0.25,0.25,0.25,0.25,0.25,0.25,0.25,0.25,-0.5,-0.5,-0.5,-0.5,-0.5,-0.5,-0.5,-0.5,-0.5,-0.5,-0.5,linear,0.025,TRUE,5,sepmodel,0.7939,4.0821734295515234e-4,0.007802718639186342,0,10000
10,250,0,25,50,75,100,125,150,175,200,225,2,0,1,0.25,0.25,0.25,0.25,0.25,0.25,0.25,0.25,0.25,0.25,-0.5,-0.5,-0.5,-0.5,-0.5,-0.5,-0.5,-0.5,-0.5,-0.5,-0.5,linear,0.025,TRUE,6,fixmodel,0.8125,-1.2303537736282774e-4,0.007580025149416217,0,10000
10,250,0,25,50,75,100,125,150,175,200,225,2,0,1,0.25,0.25,0.25,0.25,0.25,0.25,0.25,0.25,0.25,0.25,-0.5,-0.5,-0.5,-0.5,-0.5,-0.5,-0.5,-0.5,-0.5,-0.5,-0.5,linear,0.025,TRUE,6,poolmodel,0.7069,-0.03278656016458339,0.008518757593402272,0,10000
10,250,0,25,50,75,100,125,150,175,200,225,2,0,1,0.25,0.25,0.25,0.25,0.25,0.25,0.25,0.25,0.25,0.25,-0.5,-0.5,-0.5,-0.5,-0.5,-0.5,-0.5,-0.5,-0.5,-0.5,-0.5,linear,0.025,TRUE,6,sepmodel,0.7948,-2.730032530448419e-4,0.007880299331852308,0,10000
10,250,0,25,50,75,100,125,150,175,200,225,2,0,1,0.25,0.25,0.25,0.25,0.25,0.25,0.25,0.25,0.25,0.25,-0.5,-0.5,-0.5,-0.5,-0.5,-0.5,-0.5,-0.5,-0.5,-0.5,-0.5,linear,0.025,TRUE,7,fixmodel,0.8148,-2.1732495385753424e-4,0.007668860146634036,0,10000
10,250,0,25,50,75,100,125,150,175,200,225,2,0,1,0.25,0.25,0.25,0.25,0.25,0.25,0.25,0.25,0.25,0.25,-0.5,-0.5,-0.5,-0.5,-0.5,-0.5,-0.5,-0.5,-0.5,-0.5,-0.5,linear,0.025,TRUE,7,poolmodel,0.686,-0.03673510026915514,0.008854026828592206,0,10000
10,250,0,25,50,75,100,125,150,175,200,225,2,0,1,0.25,0.25,0.25,0.25,0.25,0.25,0.25,0.25,0.25,0.25,-0.5,-0.5,-0.5,-0.5,-0.5,-0.5,-0.5,-0.5,-0.5,-0.5,-0.5,linear,0.025,TRUE,7,sepmodel,0.791,-3.276952542372294e-4,0.008037310581812894,0,10000
10,250,0,25,50,75,100,125,150,175,200,225,2,0,1,0.25,0.25,0.25,0.25,0.25,0.25,0.25,0.25,0.25,0.25,-0.5,-0.5,-0.5,-0.5,-0.5,-0.5,-0.5,-0.5,-0.5,-0.5,-0.5,linear,0.025,TRUE,8,fixmodel,0.8169,0.0012189925298162296,0.007745451769183211,0,10000
10,250,0,25,50,75,100,125,150,175,200,225,2,0,1,0.25,0.25,0.25,0.25,0.25,0.25,0.25,0.25,0.25,0.25,-0.5,-0.5,-0.5,-0.5,-0.5,-0.5,-0.5,-0.5,-0.5,-0.5,-0.5,linear,0.025,TRUE,8,poolmodel,0.6861,-0.038214973249642126,0.009033713199941042,0,10000
10,250,0,25,50,75,100,125,150,175,200,225,2,0,1,0.25,0.25,0.25,0.25,0.25,0.25,0.25,0.25,0.25,0.25,-0.5,-0.5,-0.5,-0.5,-0.5,-0.5,-0.5,-0.5,-0.5,-0.5,-0.5,linear,0.025,TRUE,8,sepmodel,0.7948,0.001027168665821793,0.008103395129149382,0,10000
10,250,0,25,50,75,100,125,150,175,200,225,2,0,1,0.25,0.25,0.25,0.25,0.25,0.25,0.25,0.25,0.25,0.25,-0.5,-0.5,-0.5,-0.5,-0.5,-0.5,-0.5,-0.5,-0.5,-0.5,-0.5,linear,0.025,TRUE,9,fixmodel,0.8254,8.148162558521611e-4,0.0073454237809868345,0,10000
10,250,0,25,50,75,100,125,150,175,200,225,2,0,1,0.25,0.25,0.25,0.25,0.25,0.25,0.25,0.25,0.25,0.25,-0.5,-0.5,-0.5,-0.5,-0.5,-0.5,-0.5,-0.5,-0.5,-0.5,-0.5,linear,0.025,TRUE,9,poolmodel,0.6794,-0.041578629952182734,0.008906914025508757,0,10000
10,250,0,25,50,75,100,125,150,175,200,225,2,0,1,0.25,0.25,0.25,0.25,0.25,0.25,0.25,0.25,0.25,0.25,-0.5,-0.5,-0.5,-0.5,-0.5,-0.5,-0.5,-0.5,-0.5,-0.5,-0.5,linear,0.025,TRUE,9,sepmodel,0.7977,5.707589734454199e-4,0.007749962886204994,0,10000
10,250,0,25,50,75,100,125,150,175,200,225,2,0,1,0.25,0.25,0.25,0.25,0.25,0.25,0.25,0.25,0.25,0.25,-0.5,-0.5,-0.5,-0.5,-0.5,-0.5,-0.5,-0.5,-0.5,-0.5,-0.5,linear,0.025,TRUE,10,fixmodel,0.8171,-1.5289519041532192e-4,0.007498627453050684,0,10000
10,250,0,25,50,75,100,125,150,175,200,225,2,0,1,0.25,0.25,0.25,0.25,0.25,0.25,0.25,0.25,0.25,0.25,-0.5,-0.5,-0.5,-0.5,-0.5,-0.5,-0.5,-0.5,-0.5,-0.5,-0.5,linear,0.025,TRUE,10,poolmodel,0.6609,-0.04449734941306147,0.00928689636338502,0,10000
10,250,0,25,50,75,100,125,150,175,200,225,2,0,1,0.25,0.25,0.25,0.25,0.25,0.25,0.25,0.25,0.25,0.25,-0.5,-0.5,-0.5,-0.5,-0.5,-0.5,-0.5,-0.5,-0.5,-0.5,-0.5,linear,0.025,TRUE,10,sepmodel,0.791,-4.5293515033221837e-4,0.00796146487644324,0,10000
10,250,0,50,100,150,200,250,300,350,400,450,2,0,1,0.25,0.25,0.25,0.25,0.25,0.25,0.25,0.25,0.25,0.25,-0.5,-0.5,-0.5,-0.5,-0.5,-0.5,-0.5,-0.5,-0.5,-0.5,-0.5,linear,0.025,TRUE,2,fixmodel,0.8006,-4.4514135725628556e-4,0.007925731898402896,0,10000
10,250,0,50,100,150,200,250,300,350,400,450,2,0,1,0.25,0.25,0.25,0.25,0.25,0.25,0.25,0.25,0.25,0.25,-0.5,-0.5,-0.5,-0.5,-0.5,-0.5,-0.5,-0.5,-0.5,-0.5,-0.5,linear,0.025,TRUE,2,poolmodel,0.7503,-0.017274720367523998,0.008028609610118823,0,10000
10,250,0,50,100,150,200,250,300,350,400,450,2,0,1,0.25,0.25,0.25,0.25,0.25,0.25,0.25,0.25,0.25,0.25,-0.5,-0.5,-0.5,-0.5,-0.5,-0.5,-0.5,-0.5,-0.5,-0.5,-0.5,linear,0.025,TRUE,2,sepmodel,0.7899,-4.759681088624564e-4,0.008090689002233588,0,10000
10,250,0,50,100,150,200,250,300,350,400,450,2,0,1,0.25,0.25,0.25,0.25,0.25,0.25,0.25,0.25,0.25,0.25,-0.5,-0.5,-0.5,-0.5,-0.5,-0.5,-0.5,-0.5,-0.5,-0.5,-0.5,linear,0.025,TRUE,3,fixmodel,0.8151,-4.967169846698473e-4,0.0076747240672151796,0,10000
10,250,0,50,100,150,200,250,300,350,400,450,2,0,1,0.25,0.25,0.25,0.25,0.25,0.25,0.25,0.25,0.25,0.25,-0.5,-0.5,-0.5,-0.5,-0.5,-0.5,-0.5,-0.5,-0.5,-0.5,-0.5,linear,0.025,TRUE,3,poolmodel,0.7137,-0.030719358932957987,0.00836615467105199,0,10000
10,250,0,50,100,150,200,250,300,350,400,450,2,0,1,0.25,0.25,0.25,0.25,0.25,0.25,0.25,0.25,0.25,0.25,-0.5,-0.5,-0.5,-0.5,-0.5,-0.5,-0.5,-0.5,-0.5,-0.5,-0.5,linear,0.025,TRUE,3,sepmodel,0.7947,-3.3336402513309797e-4,0.007969471751192132,0,10000
10,250,0,50,100,150,200,250,300,350,400,450,2,0,1,0.25,0.25,0.25,0.25,0.25,0.25,0.25,0.25,0.25,0.25,-0.5,-0.5,-0.5,-0.5,-0.5,-0.5,-0.5,-0.5,-0.5,-0.5,-0.5,linear,0.025,TRUE,4,fixmodel,0.8153,-5.683568496610339e-4,0.007546720002262699,0,10000
10,250,0,50,100,150,200,250,300,350,400,450,2,0,1,0.25,0.25,0.25,0.25,0.25,0.25,0.25,0.25,0.25,0.25,-0.5,-0.5,-0.5,-0.5,-0.5,-0.5,-0.5,-0.5,-0.5,-0.5,-0.5,linear,0.025,TRUE,4,poolmodel,0.6738,-0.041953380377883556,0.009013803233067195,0,10000
10,250,0,50,100,150,200,250,300,350,400,450,2,0,1,0.25,0.25,0.25,0.25,0.25,0.25,0.25,0.25,0.25,0.25,-0.5,-0.5,-0.5,-0.5,-0.5,-0.5,-0.5,-0.5,-0.5,-0.5,-0.5,linear,0.025,TRUE,4,sepmodel,0.7891,-3.038393423699102e-4,0.008026742246826379,0,10000
10,250,0,50,100,150,200,250,300,350,400,450,2,0,1,0.25,0.25,0.25,0.25,0.25,0.25,0.25,0.25,0.25,0.25,-0.5,-0.5,-0.5,-0.5,-0.5,-0.5,-0.5,-0.5,-0.5,-0.5,-0.5,linear,0.025,TRUE,5,fixmodel,0.8237,-2.902751874456966e-4,0.007419862610816506,0,10000
10,250,0,50,100,150,200,250,300,350,400,450,2,0,1,0.25,0.25,0.25,0.25,0.25,0.25,0.25,0.25,0.25,0.25,-0.5,-0.5,-0.5,-0.5,-0.5,-0.5,-0.5,-0.5,-0.5,-0.5,-0.5,linear,0.025,TRUE,5,poolmodel,0.6398,-0.05062042438170565,0.00969262563663604,0,10000
10,250,0,50,100,150,200,250,300,350,400,450,2,0,1,0.25,0.25,0.25,0.25,0.25,0.25,0.25,0.25,0.25,0.25,-0.5,-0.5,-0.5,-0.5,-0.5,-0.5,-0.5,-0.5,-0.5,-0.5,-0.5,linear,0.025,TRUE,5,sepmodel,0.7941,1.4198523328876205e-4,0.008006256724431147,0,10000
10,250,0,50,100,150,200,250,300,350,400,450,2,0,1,0.25,0.25,0.25,0.25,0.25,0.25,0.25,0.25,0.25,0.25,-0.5,-0.5,-0.5,-0.5,-0.5,-0.5,-0.5,-0.5,-0.5,-0.5,-0.5,linear,0.025,TRUE,6,fixmodel,0.8275,-2.3544195659672138e-4,0.007399398953705785,0,10000
10,250,0,50,100,150,200,250,300,350,400,450,2,0,1,0.25,0.25,0.25,0.25,0.25,0.25,0.25,0.25,0.25,0.25,-0.5,-0.5,-0.5,-0.5,-0.5,-0.5,-0.5,-0.5,-0.5,-0.5,-0.5,linear,0.025,TRUE,6,poolmodel,0.6188,-0.05793288471913432,0.010450842798206012,0,10000
10,250,0,50,100,150,200,250,300,350,400,450,2,0,1,0.25,0.25,0.25,0.25,0.25,0.25,0.25,0.25,0.25,0.25,-0.5,-0.5,-0.5,-0.5,-0.5,-0.5,-0.5,-0.5,-0.5,-0.5,-0.5,linear,0.025,TRUE,6,sepmodel,0.7932,3.6956366056753075e-5,0.007962187873246939,0,10000
10,250,0,50,100,150,200,250,300,350,400,450,2,0,1,0.25,0.25,0.25,0.25,0.25,0.25,0.25,0.25,0.25,0.25,-0.5,-0.5,-0.5,-0.5,-0.5,-0.5,-0.5,-0.5,-0.5,-0.5,-0.5,linear,0.025,TRUE,7,fixmodel,0.8295,4.744034932599478e-4,0.007412997934460915,0,10000
10,250,0,50,100,150,200,250,300,350,400,450,2,0,1,0.25,0.25,0.25,0.25,0.25,0.25,0.25,0.25,0.25,0.25,-0.5,-0.5,-0.5,-0.5,-0.5,-0.5,-0.5,-0.5,-0.5,-0.5,-0.5,linear,0.025,TRUE,7,poolmodel,0.5942,-0.06375800887337232,0.011161855456950276,0,10000
10,250,0,50,100,150,200,250,300,350,400,450,2,0,1,0.25,0.25,0.25,0.25,0.25,0.25,0.25,0.25,0.25,0.25,-0.5,-0.5,-0.5,-0.5,-0.5,-0.5,-0.5,-0.5,-0.5,-0.5,-0.5,linear,0.025,TRUE,7,sepmodel,0.7919,8.143098482229724e-4,0.008036887344729043,0,10000
10,250,0,50,100,150,200,250,300,350,400,450,2,0,1,0.25,0.25,0.25,0.25,0.25,0.25,0.25,0.25,0.25,0.25,-0.5,-0.5,-0.5,-0.5,-0.5,-0.5,-0.5,-0.5,-0.5,-0.5,-0.5,linear,0.025,TRUE,8,fixmodel,0.8289,9.949342460245659e-5,0.007497092203514751,0,10000
10,250,0,50,100,150,200,250,300,350,400,450,2,0,1,0.25,0.25,0.25,0.25,0.25,0.25,0.25,0.25,0.25,0.25,-0.5,-0.5,-0.5,-0.5,-0.5,-0.5,-0.5,-0.5,-0.5,-0.5,-0.5,linear,0.025,TRUE,8,poolmodel,0.5676,-0.0706826941984721,0.012208094521350283,0,10000
10,250,0,50,100,150,200,250,300,350,400,450,2,0,1,0.25,0.25,0.25,0.25,0.25,0.25,0.25,0.25,0.25,0.25,-0.5,-0.5,-0.5,-0.5,-0.5,-0.5,-0.5,-0.5,-0.5,-0.5,-0.5,linear,0.025,TRUE,8,sepmodel,0.7904,4.8434183153694336e-4,0.008186803027890018,0,10000
10,250,0,50,100,150,200,250,300,350,400,450,2,0,1,0.25,0.25,0.25,0.25,0.25,0.25,0.25,0.25,0.25,0.25,-0.5,-0.5,-0.5,-0.5,-0.5,-0.5,-0.5,-0.5,-0.5,-0.5,-0.5,linear,0.025,TRUE,9,fixmodel,0.8357,0.0010993375637221295,0.007271752183189097,0,10000
10,250,0,50,100,150,200,250,300,350,400,450,2,0,1,0.25,0.25,0.25,0.25,0.25,0.25,0.25,0.25,0.25,0.25,-0.5,-0.5,-0.5,-0.5,-0.5,-0.5,-0.5,-0.5,-0.5,-0.5,-0.5,linear,0.025,TRUE,9,poolmodel,0.5515,-0.07438015259298965,0.012477967364539147,0,10000
10,250,0,50,100,150,200,250,300,350,400,450,2,0,1,0.25,0.25,0.25,0.25,0.25,0.25,0.25,0.25,0.25,0.25,-0.5,-0.5,-0.5,-0.5,-0.5,-0.5,-0.5,-0.5,-0.5,-0.5,-0.5,linear,0.025,TRUE,9,sepmodel,0.7977,0.0015565437435396596,0.007924501735582207,0,10000
10,250,0,50,100,150,200,250,300,350,400,450,2,0,1,0.25,0.25,0.25,0.25,0.25,0.25,0.25,0.25,0.25,0.25,-0.5,-0.5,-0.5,-0.5,-0.5,-0.5,-0.5,-0.5,-0.5,-0.5,-0.5,linear,0.025,TRUE,10,fixmodel,0.8342,-2.5354854166824496e-4,0.007143496048624641,0,10000
10,250,0,50,100,150,200,250,300,350,400,450,2,0,1,0.25,0.25,0.25,0.25,0.25,0.25,0.25,0.25,0.25,0.25,-0.5,-0.5,-0.5,-0.5,-0.5,-0.5,-0.5,-0.5,-0.5,-0.5,-0.5,linear,0.025,TRUE,10,poolmodel,0.5218,-0.0803025311413076,0.013236918048668061,0,10000
10,250,0,50,100,150,200,250,300,350,400,450,2,0,1,0.25,0.25,0.25,0.25,0.25,0.25,0.25,0.25,0.25,0.25,-0.5,-0.5,-0.5,-0.5,-0.5,-0.5,-0.5,-0.5,-0.5,-0.5,-0.5,linear,0.025,TRUE,10,sepmodel,0.7914,6.501468813585248e-5,0.007977656805825946,0,10000
10,250,0,75,150,225,300,375,450,525,600,675,2,0,1,0.25,0.25,0.25,0.25,0.25,0.25,0.25,0.25,0.25,0.25,-0.5,-0.5,-0.5,-0.5,-0.5,-0.5,-0.5,-0.5,-0.5,-0.5,-0.5,linear,0.025,TRUE,2,fixmodel,0.8121,-6.416238906871279e-4,0.007690703875204427,0,10000
10,250,0,75,150,225,300,375,450,525,600,675,2,0,1,0.25,0.25,0.25,0.25,0.25,0.25,0.25,0.25,0.25,0.25,-0.5,-0.5,-0.5,-0.5,-0.5,-0.5,-0.5,-0.5,-0.5,-0.5,-0.5,linear,0.025,TRUE,2,poolmodel,0.7492,-0.021659510622526842,0.007897316406171861,0,10000
10,250,0,75,150,225,300,375,450,525,600,675,2,0,1,0.25,0.25,0.25,0.25,0.25,0.25,0.25,0.25,0.25,0.25,-0.5,-0.5,-0.5,-0.5,-0.5,-0.5,-0.5,-0.5,-0.5,-0.5,-0.5,linear,0.025,TRUE,2,sepmodel,0.7942,-6.159656761797839e-4,0.007940281546813338,0,10000
10,250,0,75,150,225,300,375,450,525,600,675,2,0,1,0.25,0.25,0.25,0.25,0.25,0.25,0.25,0.25,0.25,0.25,-0.5,-0.5,-0.5,-0.5,-0.5,-0.5,-0.5,-0.5,-0.5,-0.5,-0.5,linear,0.025,TRUE,3,fixmodel,0.8228,0.0010150481786592167,0.007537460732135142,0,10000
10,250,0,75,150,225,300,375,450,525,600,675,2,0,1,0.25,0.25,0.25,0.25,0.25,0.25,0.25,0.25,0.25,0.25,-0.5,-0.5,-0.5,-0.5,-0.5,-0.5,-0.5,-0.5,-0.5,-0.5,-0.5,linear,0.025,TRUE,3,poolmodel,0.6955,-0.03764420430652156,0.008572563229798671,0,10000
10,250,0,75,150,225,300,375,450,525,600,675,2,0,1,0.25,0.25,0.25,0.25,0.25,0.25,0.25,0.25,0.25,0.25,-0.5,-0.5,-0.5,-0.5,-0.5,-0.5,-0.5,-0.5,-0.5,-0.5,-0.5,linear,0.025,TRUE,3,sepmodel,0.7946,0.001006883835234684,0.008018024962505992,0,10000
10,250,0,75,150,225,300,375,450,525,600,675,2,0,1,0.25,0.25,0.25,0.25,0.25,0.25,0.25,0.25,0.25,0.25,-0.5,-0.5,-0.5,-0.5,-0.5,-0.5,-0.5,-0.5,-0.5,-0.5,-0.5,linear,0.025,TRUE,4,fixmodel,0.8294,0.0021015408006714933,0.007451804405344641,0,10000
10,250,0,75,150,225,300,375,450,525,600,675,2,0,1,0.25,0.25,0.25,0.25,0.25,0.25,0.25,0.25,0.25,0.25,-0.5,-0.5,-0.5,-0.5,-0.5,-0.5,-0.5,-0.5,-0.5,-0.5,-0.5,linear,0.025,TRUE,4,poolmodel,0.651,-0.051737473230681424,0.009761526257325773,0,10000
10,250,0,75,150,225,300,375,450,525,600,675,2,0,1,0.25,0.25,0.25,0.25,0.25,0.25,0.25,0.25,0.25,0.25,-0.5,-0.5,-0.5,-0.5,-0.5,-0.5,-0.5,-0.5,-0.5,-0.5,-0.5,linear,0.025,TRUE,4,sepmodel,0.7971,0.002034042637508068,0.00804616851532638,0,10000
10,250,0,75,150,225,300,375,450,525,600,675,2,0,1,0.25,0.25,0.25,0.25,0.25,0.25,0.25,0.25,0.25,0.25,-0.5,-0.5,-0.5,-0.5,-0.5,-0.5,-0.5,-0.5,-0.5,-0.5,-0.5,linear,0.025,TRUE,5,fixmodel,0.8421,0.0025521578846754668,0.007180737157400763,0,10000
10,250,0,75,150,225,300,375,450,525,600,675,2,0,1,0.25,0.25,0.25,0.25,0.25,0.25,0.25,0.25,0.25,0.25,-0.5,-0.5,-0.5,-0.5,-0.5,-0.5,-0.5,-0.5,-0.5,-0.5,-0.5,linear,0.025,TRUE,5,poolmodel,0.6016,-0.06388665343904577,0.010902324256361996,0,10000
10,250,0,75,150,225,300,375,450,525,600,675,2,0,1,0.25,0.25,0.25,0.25,0.25,0.25,0.25,0.25,0.25,0.25,-0.5,-0.5,-0.5,-0.5,-0.5,-0.5,-0.5,-0.5,-0.5,-0.5,-0.5,linear,0.025,TRUE,5,sepmodel,0.8026,0.002500399720827559,0.007944091233319451,0,10000
10,250,0,75,150,225,300,375,450,525,600,675,2,0,1,0.25,0.25,0.25,0.25,0.25,0.25,0.25,0.25,0.25,0.25,-0.5,-0.5,-0.5,-0.5,-0.5,-0.5,-0.5,-0.5,-0.5,-0.5,-0.5,linear,0.025,TRUE,6,fixmodel,0.8332,4.878278790707401e-4,0.007404829158809547,0,10000
10,250,0,75,150,225,300,375,450,525,600,675,2,0,1,0.25,0.25,0.25,0.25,0.25,0.25,0.25,0.25,0.25,0.25,-0.5,-0.5,-0.5,-0.5,-0.5,-0.5,-0.5,-0.5,-0.5,-0.5,-0.5,linear,0.025,TRUE,6,poolmodel,0.5444,-0.07726469461713731,0.012968341933548578,0,10000
10,250,0,75,150,225,300,375,450,525,600,675,2,0,1,0.25,0.25,0.25,0.25,0.25,0.25,0.25,0.25,0.25,0.25,-0.5,-0.5,-0.5,-0.5,-0.5,-0.5,-0.5,-0.5,-0.5,-0.5,-0.5,linear,0.025,TRUE,6,sepmodel,0.7891,2.57993591119014e-4,0.008244625381646033,0,10000
10,250,0,75,150,225,300,375,450,525,600,675,2,0,1,0.25,0.25,0.25,0.25,0.25,0.25,0.25,0.25,0.25,0.25,-0.5,-0.5,-0.5,-0.5,-0.5,-0.5,-0.5,-0.5,-0.5,-0.5,-0.5,linear,0.025,TRUE,7,fixmodel,0.8398,8.157576337501487e-4,0.007185686663000888,0,10000
10,250,0,75,150,225,300,375,450,525,600,675,2,0,1,0.25,0.25,0.25,0.25,0.25,0.25,0.25,0.25,0.25,0.25,-0.5,-0.5,-0.5,-0.5,-0.5,-0.5,-0.5,-0.5,-0.5,-0.5,-0.5,linear,0.025,TRUE,7,poolmodel,0.5066,-0.08574873919002522,0.014155448322086718,0,10000
10,250,0,75,150,225,300,375,450,525,600,675,2,0,1,0.25,0.25,0.25,0.25,0.25,0.25,0.25,0.25,0.25,0.25,-0.5,-0.5,-0.5,-0.5,-0.5,-0.5,-0.5,-0.5,-0.5,-0.5,-0.5,linear,0.025,TRUE,7,sepmodel,0.7915,5.829219425984151e-4,0.00808567509347348,0,10000
10,250,0,75,150,225,300,375,450,525,600,675,2,0,1,0.25,0.25,0.25,0.25,0.25,0.25,0.25,0.25,0.25,0.25,-0.5,-0.5,-0.5,-0.5,-0.5,-0.5,-0.5,-0.5,-0.5,-0.5,-0.5,linear,0.025,TRUE,8,fixmodel,0.8458,0.002387913399003255,0.007255286514802913,0,10000
10,250,0,75,150,225,300,375,450,525,600,675,2,0,1,0.25,0.25,0.25,0.25,0.25,0.25,0.25,0.25,0.25,0.25,-0.5,-0.5,-0.5,-0.5,-0.5,-0.5,-0.5,-0.5,-0.5,-0.5,-0.5,linear,0.025,TRUE,8,poolmodel,0.4701,-0.0930692258978032,0.015425869151964968,0,10000
10,250,0,75,150,225,300,375,450,525,600,675,2,0,1,0.25,0.25,0.25,0.25,0.25,0.25,0.25,0.25,0.25,0.25,-0.5,-0.5,-0.5,-0.5,-0.5,-0.5,-0.5,-0.5,-0.5,-0.5,-0.5,linear,0.025,TRUE,8,sepmodel,0.7929,0.0021498922592917357,0.008242204363745283,0,10000
10,250,0,75,150,225,300,375,450,525,600,675,2,0,1,0.25,0.25,0.25,0.25,0.25,0.25,0.25,0.25,0.25,0.25,-0.5,-0.5,-0.5,-0.5,-0.5,-0.5,-0.5,-0.5,-0.5,-0.5,-0.5,linear,0.025,TRUE,9,fixmodel,0.8473,-1.489292386690622e-4,0.006900336088087206,0,10000
10,250,0,75,150,225,300,375,450,525,600,675,2,0,1,0.25,0.25,0.25,0.25,0.25,0.25,0.25,0.25,0.25,0.25,-0.5,-0.5,-0.5,-0.5,-0.5,-0.5,-0.5,-0.5,-0.5,-0.5,-0.5,linear,0.025,TRUE,9,poolmodel,0.435,-0.10261574007341526,0.017023855648373477,0,10000
10,250,0,75,150,225,300,375,450,525,600,675,2,0,1,0.25,0.25,0.25,0.25,0.25,0.25,0.25,0.25,0.25,0.25,-0.5,-0.5,-0.5,-0.5,-0.5,-0.5,-0.5,-0.5,-0.5,-0.5,-0.5,linear,0.025,TRUE,9,sepmodel,0.7925,-4.264977997092749e-4,0.007970217553081782,0,10000
10,250,0,75,150,225,300,375,450,525,600,675,2,0,1,0.25,0.25,0.25,0.25,0.25,0.25,0.25,0.25,0.25,0.25,-0.5,-0.5,-0.5,-0.5,-0.5,-0.5,-0.5,-0.5,-0.5,-0.5,-0.5,linear,0.025,TRUE,10,fixmodel,0.8451,3.6791451406310334e-4,0.007101669910998547,0,10000
10,250,0,75,150,225,300,375,450,525,600,675,2,0,1,0.25,0.25,0.25,0.25,0.25,0.25,0.25,0.25,0.25,0.25,-0.5,-0.5,-0.5,-0.5,-0.5,-0.5,-0.5,-0.5,-0.5,-0.5,-0.5,linear,0.025,TRUE,10,poolmodel,0.4084,-0.10893681831297702,0.018538502944007062,0,10000
10,250,0,75,150,225,300,375,450,525,600,675,2,0,1,0.25,0.25,0.25,0.25,0.25,0.25,0.25,0.25,0.25,0.25,-0.5,-0.5,-0.5,-0.5,-0.5,-0.5,-0.5,-0.5,-0.5,-0.5,-0.5,linear,0.025,TRUE,10,sepmodel,0.7876,4.078924573277509e-5,0.008235268975945592,0,10000
10,250,0,100,200,300,400,500,600,700,800,900,2,0,1,0.25,0.25,0.25,0.25,0.25,0.25,0.25,0.25,0.25,0.25,-0.5,-0.5,-0.5,-0.5,-0.5,-0.5,-0.5,-0.5,-0.5,-0.5,-0.5,linear,0.025,TRUE,2,fixmodel,0.814,1.8762381275492363e-4,0.007712622255591459,0,10000
10,250,0,100,200,300,400,500,600,700,800,900,2,0,1,0.25,0.25,0.25,0.25,0.25,0.25,0.25,0.25,0.25,0.25,-0.5,-0.5,-0.5,-0.5,-0.5,-0.5,-0.5,-0.5,-0.5,-0.5,-0.5,linear,0.025,TRUE,2,poolmodel,0.7502,-0.023057338208798447,0.00790708465570292,0,10000
10,250,0,100,200,300,400,500,600,700,800,900,2,0,1,0.25,0.25,0.25,0.25,0.25,0.25,0.25,0.25,0.25,0.25,-0.5,-0.5,-0.5,-0.5,-0.5,-0.5,-0.5,-0.5,-0.5,-0.5,-0.5,linear,0.025,TRUE,2,sepmodel,0.7928,1.5902961048055506e-4,0.00808941415022982,0,10000
10,250,0,100,200,300,400,500,600,700,800,900,2,0,1,0.25,0.25,0.25,0.25,0.25,0.25,0.25,0.25,0.25,0.25,-0.5,-0.5,-0.5,-0.5,-0.5,-0.5,-0.5,-0.5,-0.5,-0.5,-0.5,linear,0.025,TRUE,3,fixmodel,0.8302,0.0012757584863464573,0.007328209226697848,0,10000
10,250,0,100,200,300,400,500,600,700,800,900,2,0,1,0.25,0.25,0.25,0.25,0.25,0.25,0.25,0.25,0.25,0.25,-0.5,-0.5,-0.5,-0.5,-0.5,-0.5,-0.5,-0.5,-0.5,-0.5,-0.5,linear,0.025,TRUE,3,poolmodel,0.6847,-0.04364628989903501,0.008775943022506947,0,10000
10,250,0,100,200,300,400,500,600,700,800,900,2,0,1,0.25,0.25,0.25,0.25,0.25,0.25,0.25,0.25,0.25,0.25,-0.5,-0.5,-0.5,-0.5,-0.5,-0.5,-0.5,-0.5,-0.5,-0.5,-0.5,linear,0.025,TRUE,3,sepmodel,0.7989,0.0012859769162318598,0.007890403029916945,0,10000
10,250,0,100,200,300,400,500,600,700,800,900,2,0,1,0.25,0.25,0.25,0.25,0.25,0.25,0.25,0.25,0.25,0.25,-0.5,-0.5,-0.5,-0.5,-0.5,-0.5,-0.5,-0.5,-0.5,-0.5,-0.5,linear,0.025,TRUE,4,fixmodel,0.8352,6.57799772998561e-5,0.007244264065905,0,10000
10,250,0,100,200,300,400,500,600,700,800,900,2,0,1,0.25,0.25,0.25,0.25,0.25,0.25,0.25,0.25,0.25,0.25,-0.5,-0.5,-0.5,-0.5,-0.5,-0.5,-0.5,-0.5,-0.5,-0.5,-0.5,linear,0.025,TRUE,4,poolmodel,0.6136,-0.06333294575032697,0.010733868049914908,0,10000
10,250,0,100,200,300,400,500,600,700,800,900,2,0,1,0.25,0.25,0.25,0.25,0.25,0.25,0.25,0.25,0.25,0.25,-0.5,-0.5,-0.5,-0.5,-0.5,-0.5,-0.5,-0.5,-0.5,-0.5,-0.5,linear,0.025,TRUE,4,sepmodel,0.7946,4.254771859694941e-5,0.007894457651968768,0,10000
10,250,0,100,200,300,400,500,600,700,800,900,2,0,1,0.25,0.25,0.25,0.25,0.25,0.25,0.25,0.25,0.25,0.25,-0.5,-0.5,-0.5,-0.5,-0.5,-0.5,-0.5,-0.5,-0.5,-0.5,-0.5,linear,0.025,TRUE,5,fixmodel,0.8339,-5.027584027146081e-4,0.0073843628652543,0,10000
10,250,0,100,200,300,400,500,600,700,800,900,2,0,1,0.25,0.25,0.25,0.25,0.25,0.25,0.25,0.25,0.25,0.25,-0.5,-0.5,-0.5,-0.5,-0.5,-0.5,-0.5,-0.5,-0.5,-0.5,-0.5,linear,0.025,TRUE,5,poolmodel,0.5397,-0.08003829549089307,0.013258138275415223,0,10000
10,250,0,100,200,300,400,500,600,700,800,900,2,0,1,0.25,0.25,0.25,0.25,0.25,0.25,0.25,0.25,0.25,0.25,-0.5,-0.5,-0.5,-0.5,-0.5,-0.5,-0.5,-0.5,-0.5,-0.5,-0.5,linear,0.025,TRUE,5,sepmodel,0.7862,-3.656869638044012e-4,0.008237728591631504,0,10000
10,250,0,100,200,300,400,500,600,700,800,900,2,0,1,0.25,0.25,0.25,0.25,0.25,0.25,0.25,0.25,0.25,0.25,-0.5,-0.5,-0.5,-0.5,-0.5,-0.5,-0.5,-0.5,-0.5,-0.5,-0.5,linear,0.025,TRUE,6,fixmodel,0.8456,6.204723313160518e-5,0.007116923707401893,0,10000
10,250,0,100,200,300,400,500,600,700,800,900,2,0,1,0.25,0.25,0.25,0.25,0.25,0.25,0.25,0.25,0.25,0.25,-0.5,-0.5,-0.5,-0.5,-0.5,-0.5,-0.5,-0.5,-0.5,-0.5,-0.5,linear,0.025,TRUE,6,poolmodel,0.4802,-0.09351340450011758,0.01536877382654424,0,10000
10,250,0,100,200,300,400,500,600,700,800,900,2,0,1,0.25,0.25,0.25,0.25,0.25,0.25,0.25,0.25,0.25,0.25,-0.5,-0.5,-0.5,-0.5,-0.5,-0.5,-0.5,-0.5,-0.5,-0.5,-0.5,linear,0.025,TRUE,6,sepmodel,0.7906,1.5981065149368557e-5,0.008053950504504933,0,10000
10,250,0,100,200,300,400,500,600,700,800,900,2,0,1,0.25,0.25,0.25,0.25,0.25,0.25,0.25,0.25,0.25,0.25,-0.5,-0.5,-0.5,-0.5,-0.5,-0.5,-0.5,-0.5,-0.5,-0.5,-0.5,linear,0.025,TRUE,7,fixmodel,0.8492,0.001023082915049093,0.00708896959722479,0,10000
10,250,0,100,200,300,400,500,600,700,800,900,2,0,1,0.25,0.25,0.25,0.25,0.25,0.25,0.25,0.25,0.25,0.25,-0.5,-0.5,-0.5,-0.5,-0.5,-0.5,-0.5,-0.5,-0.5,-0.5,-0.5,linear,0.025,TRUE,7,poolmodel,0.4351,-0.10438865816475383,0.017433868494713293,0,10000
10,250,0,100,200,300,400,500,600,700,800,900,2,0,1,0.25,0.25,0.25,0.25,0.25,0.25,0.25,0.25,0.25,0.25,-0.5,-0.5,-0.5,-0.5,-0.5,-0.5,-0.5,-0.5,-0.5,-0.5,-0.5,linear,0.025,TRUE,7,sepmodel,0.7984,9.714579356255222e-4,0.008072089899682604,0,10000
10,250,0,100,200,300,400,500,600,700,800,900,2,0,1,0.25,0.25,0.25,0.25,0.25,0.25,0.25,0.25,0.25,0.25,-0.5,-0.5,-0.5,-0.5,-0.5,-0.5,-0.5,-0.5,-0.5,-0.5,-0.5,linear,0.025,TRUE,8,fixmodel,0.8526,-1.3915237280290552e-4,0.006912218194123311,0,10000
10,250,0,100,200,300,400,500,600,700,800,900,2,0,1,0.25,0.25,0.25,0.25,0.25,0.25,0.25,0.25,0.25,0.25,-0.5,-0.5,-0.5,-0.5,-0.5,-0.5,-0.5,-0.5,-0.5,-0.5,-0.5,linear,0.025,TRUE,8,poolmodel,0.384,-0.11631631139892148,0.01985977667721584,0,10000
10,250,0,100,200,300,400,500,600,700,800,900,2,0,1,0.25,0.25,0.25,0.25,0.25,0.25,0.25,0.25,0.25,0.25,-0.5,-0.5,-0.5,-0.5,-0.5,-0.5,-0.5,-0.5,-0.5,-0.5,-0.5,linear,0.025,TRUE,8,sepmodel,0.7933,-2.7612839617678674e-4,0.007926905319773265,0,10000
10,250,0,100,200,300,400,500,600,700,800,900,2,0,1,0.25,0.25,0.25,0.25,0.25,0.25,0.25,0.25,0.25,0.25,-0.5,-0.5,-0.5,-0.5,-0.5,-0.5,-0.5,-0.5,-0.5,-0.5,-0.5,linear,0.025,TRUE,9,fixmodel,0.8525,-8.529695898668394e-4,0.006868928842004887,0,10000
10,250,0,100,200,300,400,500,600,700,800,900,2,0,1,0.25,0.25,0.25,0.25,0.25,0.25,0.25,0.25,0.25,0.25,-0.5,-0.5,-0.5,-0.5,-0.5,-0.5,-0.5,-0.5,-0.5,-0.5,-0.5,linear,0.025,TRUE,9,poolmodel,0.3339,-0.12590614431593347,0.022163950307931876,0,10000
10,250,0,100,200,300,400,500,600,700,800,900,2,0,1,0.25,0.25,0.25,0.25,0.25,0.25,0.25,0.25,0.25,0.25,-0.5,-0.5,-0.5,-0.5,-0.5,-0.5,-0.5,-0.5,-0.5,-0.5,-0.5,linear,0.025,TRUE,9,sepmodel,0.7923,-0.0010024802864652027,0.00804449764062015,0,10000
10,250,0,100,200,300,400,500,600,700,800,900,2,0,1,0.25,0.25,0.25,0.25,0.25,0.25,0.25,0.25,0.25,0.25,-0.5,-0.5,-0.5,-0.5,-0.5,-0.5,-0.5,-0.5,-0.5,-0.5,-0.5,linear,0.025,TRUE,10,fixmodel,0.8512,-7.733227215686361e-4,0.006846059157299071,0,10000
10,250,0,100,200,300,400,500,600,700,800,900,2,0,1,0.25,0.25,0.25,0.25,0.25,0.25,0.25,0.25,0.25,0.25,-0.5,-0.5,-0.5,-0.5,-0.5,-0.5,-0.5,-0.5,-0.5,-0.5,-0.5,linear,0.025,TRUE,10,poolmodel,0.3044,-0.13356351476696518,0.02408283336435342,0,10000
10,250,0,100,200,300,400,500,600,700,800,900,2,0,1,0.25,0.25,0.25,0.25,0.25,0.25,0.25,0.25,0.25,0.25,-0.5,-0.5,-0.5,-0.5,-0.5,-0.5,-0.5,-0.5,-0.5,-0.5,-0.5,linear,0.025,TRUE,10,sepmodel,0.7909,-7.423385836175265e-4,0.00795452666741307,0,10000
10,250,0,125,250,375,500,625,750,875,1000,1125,2,0,1,0.25,0.25,0.25,0.25,0.25,0.25,0.25,0.25,0.25,0.25,-0.5,-0.5,-0.5,-0.5,-0.5,-0.5,-0.5,-0.5,-0.5,-0.5,-0.5,linear,0.025,TRUE,2,fixmodel,0.8134,-0.0015543644159377046,0.007515101279897993,0,10000
10,250,0,125,250,375,500,625,750,875,1000,1125,2,0,1,0.25,0.25,0.25,0.25,0.25,0.25,0.25,0.25,0.25,0.25,-0.5,-0.5,-0.5,-0.5,-0.5,-0.5,-0.5,-0.5,-0.5,-0.5,-0.5,linear,0.025,TRUE,2,poolmodel,0.7509,-0.025750842516647554,0.007754194192031906,0,10000
10,250,0,125,250,375,500,625,750,875,1000,1125,2,0,1,0.25,0.25,0.25,0.25,0.25,0.25,0.25,0.25,0.25,0.25,-0.5,-0.5,-0.5,-0.5,-0.5,-0.5,-0.5,-0.5,-0.5,-0.5,-0.5,linear,0.025,TRUE,2,sepmodel,0.7883,-0.0016542704816045303,0.007902630601167115,0,10000
10,250,0,125,250,375,500,625,750,875,1000,1125,2,0,1,0.25,0.25,0.25,0.25,0.25,0.25,0.25,0.25,0.25,0.25,-0.5,-0.5,-0.5,-0.5,-0.5,-0.5,-0.5,-0.5,-0.5,-0.5,-0.5,linear,0.025,TRUE,3,fixmodel,0.8182,-0.0014196148273503658,0.007532221175307756,0,10000
10,250,0,125,250,375,500,625,750,875,1000,1125,2,0,1,0.25,0.25,0.25,0.25,0.25,0.25,0.25,0.25,0.25,0.25,-0.5,-0.5,-0.5,-0.5,-0.5,-0.5,-0.5,-0.5,-0.5,-0.5,-0.5,linear,0.025,TRUE,3,poolmodel,0.672,-0.04981787033160165,0.00944819339443504,0,10000
10,250,0,125,250,375,500,625,750,875,1000,1125,2,0,1,0.25,0.25,0.25,0.25,0.25,0.25,0.25,0.25,0.25,0.25,-0.5,-0.5,-0.5,-0.5,-0.5,-0.5,-0.5,-0.5,-0.5,-0.5,-0.5,linear,0.025,TRUE,3,sepmodel,0.7833,-0.0017108066621299052,0.008206741340616967,0,10000
10,250,0,125,250,375,500,625,750,875,1000,1125,2,0,1,0.25,0.25,0.25,0.25,0.25,0.25,0.25,0.25,0.25,0.25,-0.5,-0.5,-0.5,-0.5,-0.5,-0.5,-0.5,-0.5,-0.5,-0.5,-0.5,linear,0.025,TRUE,4,fixmodel,0.8358,-1.0658746728183152e-4,0.0071906781113062835,0,10000
10,250,0,125,250,375,500,625,750,875,1000,1125,2,0,1,0.25,0.25,0.25,0.25,0.25,0.25,0.25,0.25,0.25,0.25,-0.5,-0.5,-0.5,-0.5,-0.5,-0.5,-0.5,-0.5,-0.5,-0.5,-0.5,linear,0.025,TRUE,4,poolmodel,0.5966,-0.06992254244250669,0.011456589752358219,0,10000
10,250,0,125,250,375,500,625,750,875,1000,1125,2,0,1,0.25,0.25,0.25,0.25,0.25,0.25,0.25,0.25,0.25,0.25,-0.5,-0.5,-0.5,-0.5,-0.5,-0.5,-0.5,-0.5,-0.5,-0.5,-0.5,linear,0.025,TRUE,4,sepmodel,0.7944,-3.1195549823184835e-4,0.008005925754124836,0,10000
10,250,0,125,250,375,500,625,750,875,1000,1125,2,0,1,0.25,0.25,0.25,0.25,0.25,0.25,0.25,0.25,0.25,0.25,-0.5,-0.5,-0.5,-0.5,-0.5,-0.5,-0.5,-0.5,-0.5,-0.5,-0.5,linear,0.025,TRUE,5,fixmodel,0.8418,-5.216323069406717e-4,0.007058164241469389,0,10000
10,250,0,125,250,375,500,625,750,875,1000,1125,2,0,1,0.25,0.25,0.25,0.25,0.25,0.25,0.25,0.25,0.25,0.25,-0.5,-0.5,-0.5,-0.5,-0.5,-0.5,-0.5,-0.5,-0.5,-0.5,-0.5,linear,0.025,TRUE,5,poolmodel,0.5135,-0.08910912475922231,0.0143695280480427,0,10000
10,250,0,125,250,375,500,625,750,875,1000,1125,2,0,1,0.25,0.25,0.25,0.25,0.25,0.25,0.25,0.25,0.25,0.25,-0.5,-0.5,-0.5,-0.5,-0.5,-0.5,-0.5,-0.5,-0.5,-0.5,-0.5,linear,0.025,TRUE,5,sepmodel,0.7877,-6.891142850956466e-4,0.007991695957539248,0,10000
10,250,0,125,250,375,500,625,750,875,1000,1125,2,0,1,0.25,0.25,0.25,0.25,0.25,0.25,0.25,0.25,0.25,0.25,-0.5,-0.5,-0.5,-0.5,-0.5,-0.5,-0.5,-0.5,-0.5,-0.5,-0.5,linear,0.025,TRUE,6,fixmodel,0.8479,-7.430951282894827e-4,0.0068164044484519725,0,10000
10,250,0,125,250,375,500,625,750,875,1000,1125,2,0,1,0.25,0.25,0.25,0.25,0.25,0.25,0.25,0.25,0.25,0.25,-0.5,-0.5,-0.5,-0.5,-0.5,-0.5,-0.5,-0.5,-0.5,-0.5,-0.5,linear,0.025,TRUE,6,poolmodel,0.4307,-0.10572893208459962,0.01736330872842027,0,10000
10,250,0,125,250,375,500,625,750,875,1000,1125,2,0,1,0.25,0.25,0.25,0.25,0.25,0.25,0.25,0.25,0.25,0.25,-0.5,-0.5,-0.5,-0.5,-0.5,-0.5,-0.5,-0.5,-0.5,-0.5,-0.5,linear,0.025,TRUE,6,sepmodel,0.7889,-6.834452999574804e-4,0.007895820497600847,0,10000
10,250,0,125,250,375,500,625,750,875,1000,1125,2,0,1,0.25,0.25,0.25,0.25,0.25,0.25,0.25,0.25,0.25,0.25,-0.5,-0.5,-0.5,-0.5,-0.5,-0.5,-0.5,-0.5,-0.5,-0.5,-0.5,linear,0.025,TRUE,7,fixmodel,0.8447,-0.0014425332560078497,0.0069046200718103365,0,10000
10,250,0,125,250,375,500,625,750,875,1000,1125,2,0,1,0.25,0.25,0.25,0.25,0.25,0.25,0.25,0.25,0.25,0.25,-0.5,-0.5,-0.5,-0.5,-0.5,-0.5,-0.5,-0.5,-0.5,-0.5,-0.5,linear,0.025,TRUE,7,poolmodel,0.372,-0.12058945826789019,0.02074796400582568,0,10000
10,250,0,125,250,375,500,625,750,875,1000,1125,2,0,1,0.25,0.25,0.25,0.25,0.25,0.25,0.25,0.25,0.25,0.25,-0.5,-0.5,-0.5,-0.5,-0.5,-0.5,-0.5,-0.5,-0.5,-0.5,-0.5,linear,0.025,TRUE,7,sepmodel,0.7846,-0.0015811601119795982,0.008064548973761016,0,10000
10,250,0,125,250,375,500,625,750,875,1000,1125,2,0,1,0.25,0.25,0.25,0.25,0.25,0.25,0.25,0.25,0.25,0.25,-0.5,-0.5,-0.5,-0.5,-0.5,-0.5,-0.5,-0.5,-0.5,-0.5,-0.5,linear,0.025,TRUE,8,fixmodel,0.8507,-0.0011511938918747258,0.007017723286774269,0,10000
10,250,0,125,250,375,500,625,750,875,1000,1125,2,0,1,0.25,0.25,0.25,0.25,0.25,0.25,0.25,0.25,0.25,0.25,-0.5,-0.5,-0.5,-0.5,-0.5,-0.5,-0.5,-0.5,-0.5,-0.5,-0.5,linear,0.025,TRUE,8,poolmodel,0.3167,-0.1326740708659946,0.023915256211107953,0,10000
10,250,0,125,250,375,500,625,750,875,1000,1125,2,0,1,0.25,0.25,0.25,0.25,0.25,0.25,0.25,0.25,0.25,0.25,-0.5,-0.5,-0.5,-0.5,-0.5,-0.5,-0.5,-0.5,-0.5,-0.5,-0.5,linear,0.025,TRUE,8,sepmodel,0.7877,-0.0012880546261952125,0.008195815069592409,0,10000
10,250,0,125,250,375,500,625,750,875,1000,1125,2,0,1,0.25,0.25,0.25,0.25,0.25,0.25,0.25,0.25,0.25,0.25,-0.5,-0.5,-0.5,-0.5,-0.5,-0.5,-0.5,-0.5,-0.5,-0.5,-0.5,linear,0.025,TRUE,9,fixmodel,0.8504,-0.0021324296583888113,0.007014499068856649,0,10000
10,250,0,125,250,375,500,625,750,875,1000,1125,2,0,1,0.25,0.25,0.25,0.25,0.25,0.25,0.25,0.25,0.25,0.25,-0.5,-0.5,-0.5,-0.5,-0.5,-0.5,-0.5,-0.5,-0.5,-0.5,-0.5,linear,0.025,TRUE,9,poolmodel,0.2684,-0.14405139249412746,0.02702479112122237,0,10000
10,250,0,125,250,375,500,625,750,875,1000,1125,2,0,1,0.25,0.25,0.25,0.25,0.25,0.25,0.25,0.25,0.25,0.25,-0.5,-0.5,-0.5,-0.5,-0.5,-0.5,-0.5,-0.5,-0.5,-0.5,-0.5,linear,0.025,TRUE,9,sepmodel,0.7854,-0.0021937065198079724,0.00811476202626843,0,10000
10,250,0,125,250,375,500,625,750,875,1000,1125,2,0,1,0.25,0.25,0.25,0.25,0.25,0.25,0.25,0.25,0.25,0.25,-0.5,-0.5,-0.5,-0.5,-0.5,-0.5,-0.5,-0.5,-0.5,-0.5,-0.5,linear,0.025,TRUE,10,fixmodel,0.8537,-0.0019261009734855286,0.006778179511028525,0,10000
10,250,0,125,250,375,500,625,750,875,1000,1125,2,0,1,0.25,0.25,0.25,0.25,0.25,0.25,0.25,0.25,0.25,0.25,-0.5,-0.5,-0.5,-0.5,-0.5,-0.5,-0.5,-0.5,-0.5,-0.5,-0.5,linear,0.025,TRUE,10,poolmodel,0.2318,-0.15232897980838517,0.029190158020394603,0,10000
10,250,0,125,250,375,500,625,750,875,1000,1125,2,0,1,0.25,0.25,0.25,0.25,0.25,0.25,0.25,0.25,0.25,0.25,-0.5,-0.5,-0.5,-0.5,-0.5,-0.5,-0.5,-0.5,-0.5,-0.5,-0.5,linear,0.025,TRUE,10,sepmodel,0.7868,-0.0019762321582486734,0.007948056725234383,0,10000
10,250,0,150,300,450,600,750,900,1050,1200,1350,2,0,1,0.25,0.25,0.25,0.25,0.25,0.25,0.25,0.25,0.25,0.25,-0.5,-0.5,-0.5,-0.5,-0.5,-0.5,-0.5,-0.5,-0.5,-0.5,-0.5,linear,0.025,TRUE,2,fixmodel,0.8181,6.581202742360378e-4,0.007498396826176379,0,10000
10,250,0,150,300,450,600,750,900,1050,1200,1350,2,0,1,0.25,0.25,0.25,0.25,0.25,0.25,0.25,0.25,0.25,0.25,-0.5,-0.5,-0.5,-0.5,-0.5,-0.5,-0.5,-0.5,-0.5,-0.5,-0.5,linear,0.025,TRUE,2,poolmodel,0.7565,-0.024526095302934765,0.0075485765159296,0,10000
10,250,0,150,300,450,600,750,900,1050,1200,1350,2,0,1,0.25,0.25,0.25,0.25,0.25,0.25,0.25,0.25,0.25,0.25,-0.5,-0.5,-0.5,-0.5,-0.5,-0.5,-0.5,-0.5,-0.5,-0.5,-0.5,linear,0.025,TRUE,2,sepmodel,0.7944,5.458390323975875e-4,0.00790961717731645,0,10000
10,250,0,150,300,450,600,750,900,1050,1200,1350,2,0,1,0.25,0.25,0.25,0.25,0.25,0.25,0.25,0.25,0.25,0.25,-0.5,-0.5,-0.5,-0.5,-0.5,-0.5,-0.5,-0.5,-0.5,-0.5,-0.5,linear,0.025,TRUE,3,fixmodel,0.8272,-7.05063708475206e-4,0.007398355841845377,0,10000
10,250,0,150,300,450,600,750,900,1050,1200,1350,2,0,1,0.25,0.25,0.25,0.25,0.25,0.25,0.25,0.25,0.25,0.25,-0.5,-0.5,-0.5,-0.5,-0.5,-0.5,-0.5,-0.5,-0.5,-0.5,-0.5,linear,0.025,TRUE,3,poolmodel,0.6825,-0.05154358954190313,0.009389446787637075,0,10000
10,250,0,150,300,450,600,750,900,1050,1200,1350,2,0,1,0.25,0.25,0.25,0.25,0.25,0.25,0.25,0.25,0.25,0.25,-0.5,-0.5,-0.5,-0.5,-0.5,-0.5,-0.5,-0.5,-0.5,-0.5,-0.5,linear,0.025,TRUE,3,sepmodel,0.7921,-7.690279171771186e-4,0.008147490140398376,0,10000
10,250,0,150,300,450,600,750,900,1050,1200,1350,2,0,1,0.25,0.25,0.25,0.25,0.25,0.25,0.25,0.25,0.25,0.25,-0.5,-0.5,-0.5,-0.5,-0.5,-0.5,-0.5,-0.5,-0.5,-0.5,-0.5,linear,0.025,TRUE,4,fixmodel,0.8412,9.23687701884065e-4,0.007342577439337178,0,10000
10,250,0,150,300,450,600,750,900,1050,1200,1350,2,0,1,0.25,0.25,0.25,0.25,0.25,0.25,0.25,0.25,0.25,0.25,-0.5,-0.5,-0.5,-0.5,-0.5,-0.5,-0.5,-0.5,-0.5,-0.5,-0.5,linear,0.025,TRUE,4,poolmodel,0.5844,-0.0741280707758042,0.01205291603945181,0,10000
10,250,0,150,300,450,600,750,900,1050,1200,1350,2,0,1,0.25,0.25,0.25,0.25,0.25,0.25,0.25,0.25,0.25,0.25,-0.5,-0.5,-0.5,-0.5,-0.5,-0.5,-0.5,-0.5,-0.5,-0.5,-0.5,linear,0.025,TRUE,4,sepmodel,0.7918,7.000429286167902e-4,0.0082395007128653,0,10000
10,250,0,150,300,450,600,750,900,1050,1200,1350,2,0,1,0.25,0.25,0.25,0.25,0.25,0.25,0.25,0.25,0.25,0.25,-0.5,-0.5,-0.5,-0.5,-0.5,-0.5,-0.5,-0.5,-0.5,-0.5,-0.5,linear,0.025,TRUE,5,fixmodel,0.8438,5.444606991831944e-4,0.007150267087555892,0,10000
10,250,0,150,300,450,600,750,900,1050,1200,1350,2,0,1,0.25,0.25,0.25,0.25,0.25,0.25,0.25,0.25,0.25,0.25,-0.5,-0.5,-0.5,-0.5,-0.5,-0.5,-0.5,-0.5,-0.5,-0.5,-0.5,linear,0.025,TRUE,5,poolmodel,0.4907,-0.09573361032859862,0.015500520309730365,0,10000
10,250,0,150,300,450,600,750,900,1050,1200,1350,2,0,1,0.25,0.25,0.25,0.25,0.25,0.25,0.25,0.25,0.25,0.25,-0.5,-0.5,-0.5,-0.5,-0.5,-0.5,-0.5,-0.5,-0.5,-0.5,-0.5,linear,0.025,TRUE,5,sepmodel,0.7908,1.1922559301827973e-4,0.00807683314327117,0,10000
10,250,0,150,300,450,600,750,900,1050,1200,1350,2,0,1,0.25,0.25,0.25,0.25,0.25,0.25,0.25,0.25,0.25,0.25,-0.5,-0.5,-0.5,-0.5,-0.5,-0.5,-0.5,-0.5,-0.5,-0.5,-0.5,linear,0.025,TRUE,6,fixmodel,0.8508,-5.446197810880906e-4,0.006897346267147236,0,10000
10,250,0,150,300,450,600,750,900,1050,1200,1350,2,0,1,0.25,0.25,0.25,0.25,0.25,0.25,0.25,0.25,0.25,0.25,-0.5,-0.5,-0.5,-0.5,-0.5,-0.5,-0.5,-0.5,-0.5,-0.5,-0.5,linear,0.025,TRUE,6,poolmodel,0.3998,-0.11511285554725939,0.019288319375844923,0,10000
10,250,0,150,300,450,600,750,900,1050,1200,1350,2,0,1,0.25,0.25,0.25,0.25,0.25,0.25,0.25,0.25,0.25,0.25,-0.5,-0.5,-0.5,-0.5,-0.5,-0.5,-0.5,-0.5,-0.5,-0.5,-0.5,linear,0.025,TRUE,6,sepmodel,0.7911,-9.205584261652448e-4,0.007902777011279503,0,10000
10,250,0,150,300,450,600,750,900,1050,1200,1350,2,0,1,0.25,0.25,0.25,0.25,0.25,0.25,0.25,0.25,0.25,0.25,-0.5,-0.5,-0.5,-0.5,-0.5,-0.5,-0.5,-0.5,-0.5,-0.5,-0.5,linear,0.025,TRUE,7,fixmodel,0.8537,5.24837747251893e-4,0.006770674036533224,0,10000
10,250,0,150,300,450,600,750,900,1050,1200,1350,2,0,1,0.25,0.25,0.25,0.25,0.25,0.25,0.25,0.25,0.25,0.25,-0.5,-0.5,-0.5,-0.5,-0.5,-0.5,-0.5,-0.5,-0.5,-0.5,-0.5,linear,0.025,TRUE,7,poolmodel,0.3318,-0.12999603116879635,0.02281653039579323,0,10000
10,250,0,150,300,450,600,750,900,1050,1200,1350,2,0,1,0.25,0.25,0.25,0.25,0.25,0.25,0.25,0.25,0.25,0.25,-0.5,-0.5,-0.5,-0.5,-0.5,-0.5,-0.5,-0.5,-0.5,-0.5,-0.5,linear,0.025,TRUE,7,sepmodel,0.799,3.5667861558251826e-4,0.007870151111092726,0,10000
10,250,0,150,300,450,600,750,900,1050,1200,1350,2,0,1,0.25,0.25,0.25,0.25,0.25,0.25,0.25,0.25,0.25,0.25,-0.5,-0.5,-0.5,-0.5,-0.5,-0.5,-0.5,-0.5,-0.5,-0.5,-0.5,linear,0.025,TRUE,8,fixmodel,0.8543,1.2454332909259293e-4,0.006877510197174132,0,10000
10,250,0,150,300,450,600,750,900,1050,1200,1350,2,0,1,0.25,0.25,0.25,0.25,0.25,0.25,0.25,0.25,0.25,0.25,-0.5,-0.5,-0.5,-0.5,-0.5,-0.5,-0.5,-0.5,-0.5,-0.5,-0.5,linear,0.025,TRUE,8,poolmodel,0.2687,-0.14448751009065958,0.026808680253744197,0,10000
10,250,0,150,300,450,600,750,900,1050,1200,1350,2,0,1,0.25,0.25,0.25,0.25,0.25,0.25,0.25,0.25,0.25,0.25,-0.5,-0.5,-0.5,-0.5,-0.5,-0.5,-0.5,-0.5,-0.5,-0.5,-0.5,linear,0.025,TRUE,8,sepmodel,0.7911,-5.0735924232238886e-5,0.007990570876362308,0,10000
10,250,0,150,300,450,600,750,900,1050,1200,1350,2,0,1,0.25,0.25,0.25,0.25,0.25,0.25,0.25,0.25,0.25,0.25,-0.5,-0.5,-0.5,-0.5,-0.5,-0.5,-0.5,-0.5,-0.5,-0.5,-0.5,linear,0.025,TRUE,9,fixmodel,0.8664,0.001106199704013429,0.006726655400750102,0,10000
10,250,0,150,300,450,600,750,900,1050,1200,1350,2,0,1,0.25,0.25,0.25,0.25,0.25,0.25,0.25,0.25,0.25,0.25,-0.5,-0.5,-0.5,-0.5,-0.5,-0.5,-0.5,-0.5,-0.5,-0.5,-0.5,linear,0.025,TRUE,9,poolmodel,0.2253,-0.1555948722771473,0.030020648434054872,0,10000
10,250,0,150,300,450,600,750,900,1050,1200,1350,2,0,1,0.25,0.25,0.25,0.25,0.25,0.25,0.25,0.25,0.25,0.25,-0.5,-0.5,-0.5,-0.5,-0.5,-0.5,-0.5,-0.5,-0.5,-0.5,-0.5,linear,0.025,TRUE,9,sepmodel,0.8014,0.0011419978545935462,0.007939774268219717,0,10000
10,250,0,150,300,450,600,750,900,1050,1200,1350,2,0,1,0.25,0.25,0.25,0.25,0.25,0.25,0.25,0.25,0.25,0.25,-0.5,-0.5,-0.5,-0.5,-0.5,-0.5,-0.5,-0.5,-0.5,-0.5,-0.5,linear,0.025,TRUE,10,fixmodel,0.8686,9.277951166489218e-4,0.0067535801621314085,0,10000
10,250,0,150,300,450,600,750,900,1050,1200,1350,2,0,1,0.25,0.25,0.25,0.25,0.25,0.25,0.25,0.25,0.25,0.25,-0.5,-0.5,-0.5,-0.5,-0.5,-0.5,-0.5,-0.5,-0.5,-0.5,-0.5,linear,0.025,TRUE,10,poolmodel,0.1882,-0.16636625248736464,0.03345071806043558,0,10000
10,250,0,150,300,450,600,750,900,1050,1200,1350,2,0,1,0.25,0.25,0.25,0.25,0.25,0.25,0.25,0.25,0.25,0.25,-0.5,-0.5,-0.5,-0.5,-0.5,-0.5,-0.5,-0.5,-0.5,-0.5,-0.5,linear,0.025,TRUE,10,sepmodel,0.798,9.236155550815346e-4,0.008020186839912662,0,10000
10,250,0,175,350,525,700,875,1050,1225,1400,1575,2,0,1,0.25,0.25,0.25,0.25,0.25,0.25,0.25,0.25,0.25,0.25,-0.5,-0.5,-0.5,-0.5,-0.5,-0.5,-0.5,-0.5,-0.5,-0.5,-0.5,linear,0.025,TRUE,2,fixmodel,0.8237,5.330324705091076e-4,0.007413072939251801,0,10000
10,250,0,175,350,525,700,875,1050,1225,1400,1575,2,0,1,0.25,0.25,0.25,0.25,0.25,0.25,0.25,0.25,0.25,0.25,-0.5,-0.5,-0.5,-0.5,-0.5,-0.5,-0.5,-0.5,-0.5,-0.5,-0.5,linear,0.025,TRUE,2,poolmodel,0.7666,-0.025498913713750588,0.007495367851828771,0,10000
10,250,0,175,350,525,700,875,1050,1225,1400,1575,2,0,1,0.25,0.25,0.25,0.25,0.25,0.25,0.25,0.25,0.25,0.25,-0.5,-0.5,-0.5,-0.5,-0.5,-0.5,-0.5,-0.5,-0.5,-0.5,-0.5,linear,0.025,TRUE,2,sepmodel,0.7939,5.170198219021031e-4,0.007933659115834726,0,10000
10,250,0,175,350,525,700,875,1050,1225,1400,1575,2,0,1,0.25,0.25,0.25,0.25,0.25,0.25,0.25,0.25,0.25,0.25,-0.5,-0.5,-0.5,-0.5,-0.5,-0.5,-0.5,-0.5,-0.5,-0.5,-0.5,linear,0.025,TRUE,3,fixmodel,0.8348,3.81518345652038e-4,0.007156315279118549,0,10000
10,250,0,175,350,525,700,875,1050,1225,1400,1575,2,0,1,0.25,0.25,0.25,0.25,0.25,0.25,0.25,0.25,0.25,0.25,-0.5,-0.5,-0.5,-0.5,-0.5,-0.5,-0.5,-0.5,-0.5,-0.5,-0.5,linear,0.025,TRUE,3,poolmodel,0.6805,-0.05217540988371479,0.009142423795013533,0,10000
10,250,0,175,350,525,700,875,1050,1225,1400,1575,2,0,1,0.25,0.25,0.25,0.25,0.25,0.25,0.25,0.25,0.25,0.25,-0.5,-0.5,-0.5,-0.5,-0.5,-0.5,-0.5,-0.5,-0.5,-0.5,-0.5,linear,0.025,TRUE,3,sepmodel,0.7988,4.5897842848247495e-4,0.007937549090967421,0,10000
10,250,0,175,350,525,700,875,1050,1225,1400,1575,2,0,1,0.25,0.25,0.25,0.25,0.25,0.25,0.25,0.25,0.25,0.25,-0.5,-0.5,-0.5,-0.5,-0.5,-0.5,-0.5,-0.5,-0.5,-0.5,-0.5,linear,0.025,TRUE,4,fixmodel,0.8405,4.4962361865419045e-4,0.007177379577887962,0,10000
10,250,0,175,350,525,700,875,1050,1225,1400,1575,2,0,1,0.25,0.25,0.25,0.25,0.25,0.25,0.25,0.25,0.25,0.25,-0.5,-0.5,-0.5,-0.5,-0.5,-0.5,-0.5,-0.5,-0.5,-0.5,-0.5,linear,0.025,TRUE,4,poolmodel,0.5786,-0.07731064777737594,0.012263268467698152,0,10000
10,250,0,175,350,525,700,875,1050,1225,1400,1575,2,0,1,0.25,0.25,0.25,0.25,0.25,0.25,0.25,0.25,0.25,0.25,-0.5,-0.5,-0.5,-0.5,-0.5,-0.5,-0.5,-0.5,-0.5,-0.5,-0.5,linear,0.025,TRUE,4,sepmodel,0.7984,6.250773304166043e-4,0.008031255690429959,0,10000
10,250,0,175,350,525,700,875,1050,1225,1400,1575,2,0,1,0.25,0.25,0.25,0.25,0.25,0.25,0.25,0.25,0.25,0.25,-0.5,-0.5,-0.5,-0.5,-0.5,-0.5,-0.5,-0.5,-0.5,-0.5,-0.5,linear,0.025,TRUE,5,fixmodel,0.8497,0.0011437840056279978,0.006924126139118166,0,10000
10,250,0,175,350,525,700,875,1050,1225,1400,1575,2,0,1,0.25,0.25,0.25,0.25,0.25,0.25,0.25,0.25,0.25,0.25,-0.5,-0.5,-0.5,-0.5,-0.5,-0.5,-0.5,-0.5,-0.5,-0.5,-0.5,linear,0.025,TRUE,5,poolmodel,0.489,-0.09880031504452809,0.015798114267528515,0,10000
10,250,0,175,350,525,700,875,1050,1225,1400,1575,2,0,1,0.25,0.25,0.25,0.25,0.25,0.25,0.25,0.25,0.25,0.25,-0.5,-0.5,-0.5,-0.5,-0.5,-0.5,-0.5,-0.5,-0.5,-0.5,-0.5,linear,0.025,TRUE,5,sepmodel,0.8001,0.001229382772391461,0.00791618378733793,0,10000
10,250,0,175,350,525,700,875,1050,1225,1400,1575,2,0,1,0.25,0.25,0.25,0.25,0.25,0.25,0.25,0.25,0.25,0.25,-0.5,-0.5,-0.5,-0.5,-0.5,-0.5,-0.5,-0.5,-0.5,-0.5,-0.5,linear,0.025,TRUE,6,fixmodel,0.8424,-9.932375925082652e-4,0.00695522979881658,0,10000
10,250,0,175,350,525,700,875,1050,1225,1400,1575,2,0,1,0.25,0.25,0.25,0.25,0.25,0.25,0.25,0.25,0.25,0.25,-0.5,-0.5,-0.5,-0.5,-0.5,-0.5,-0.5,-0.5,-0.5,-0.5,-0.5,linear,0.025,TRUE,6,poolmodel,0.3847,-0.12096936789544258,0.020597996427759575,0,10000
10,250,0,175,350,525,700,875,1050,1225,1400,1575,2,0,1,0.25,0.25,0.25,0.25,0.25,0.25,0.25,0.25,0.25,0.25,-0.5,-0.5,-0.5,-0.5,-0.5,-0.5,-0.5,-0.5,-0.5,-0.5,-0.5,linear,0.025,TRUE,6,sepmodel,0.7883,-8.095522994159794e-4,0.008009178533609855,0,10000
10,250,0,175,350,525,700,875,1050,1225,1400,1575,2,0,1,0.25,0.25,0.25,0.25,0.25,0.25,0.25,0.25,0.25,0.25,-0.5,-0.5,-0.5,-0.5,-0.5,-0.5,-0.5,-0.5,-0.5,-0.5,-0.5,linear,0.025,TRUE,7,fixmodel,0.86,3.6700219309618163e-4,0.006780857170141957,0,10000
10,250,0,175,350,525,700,875,1050,1225,1400,1575,2,0,1,0.25,0.25,0.25,0.25,0.25,0.25,0.25,0.25,0.25,0.25,-0.5,-0.5,-0.5,-0.5,-0.5,-0.5,-0.5,-0.5,-0.5,-0.5,-0.5,linear,0.025,TRUE,7,poolmodel,0.3031,-0.13893537622345206,0.02506337475890297,0,10000
10,250,0,175,350,525,700,875,1050,1225,1400,1575,2,0,1,0.25,0.25,0.25,0.25,0.25,0.25,0.25,0.25,0.25,0.25,-0.5,-0.5,-0.5,-0.5,-0.5,-0.5,-0.5,-0.5,-0.5,-0.5,-0.5,linear,0.025,TRUE,7,sepmodel,0.7979,4.919764668194219e-4,0.007813164066935881,0,10000
10,250,0,175,350,525,700,875,1050,1225,1400,1575,2,0,1,0.25,0.25,0.25,0.25,0.25,0.25,0.25,0.25,0.25,0.25,-0.5,-0.5,-0.5,-0.5,-0.5,-0.5,-0.5,-0.5,-0.5,-0.5,-0.5,linear,0.025,TRUE,8,fixmodel,0.8584,6.077725324089226e-4,0.006725384845196713,0,10000
10,250,0,175,350,525,700,875,1050,1225,1400,1575,2,0,1,0.25,0.25,0.25,0.25,0.25,0.25,0.25,0.25,0.25,0.25,-0.5,-0.5,-0.5,-0.5,-0.5,-0.5,-0.5,-0.5,-0.5,-0.5,-0.5,linear,0.025,TRUE,8,poolmodel,0.2275,-0.15522062972686565,0.02978503261301695,0,10000
10,250,0,175,350,525,700,875,1050,1225,1400,1575,2,0,1,0.25,0.25,0.25,0.25,0.25,0.25,0.25,0.25,0.25,0.25,-0.5,-0.5,-0.5,-0.5,-0.5,-0.5,-0.5,-0.5,-0.5,-0.5,-0.5,linear,0.025,TRUE,8,sepmodel,0.7965,6.644045391409478e-4,0.007943348429448233,0,10000
10,250,0,175,350,525,700,875,1050,1225,1400,1575,2,0,1,0.25,0.25,0.25,0.25,0.25,0.25,0.25,0.25,0.25,0.25,-0.5,-0.5,-0.5,-0.5,-0.5,-0.5,-0.5,-0.5,-0.5,-0.5,-0.5,linear,0.025,TRUE,9,fixmodel,0.8591,4.8571687998577324e-4,0.006696154261938565,0,10000
10,250,0,175,350,525,700,875,1050,1225,1400,1575,2,0,1,0.25,0.25,0.25,0.25,0.25,0.25,0.25,0.25,0.25,0.25,-0.5,-0.5,-0.5,-0.5,-0.5,-0.5,-0.5,-0.5,-0.5,-0.5,-0.5,linear,0.025,TRUE,9,poolmodel,0.1798,-0.1687830339441803,0.03409875661401753,0,10000
10,250,0,175,350,525,700,875,1050,1225,1400,1575,2,0,1,0.25,0.25,0.25,0.25,0.25,0.25,0.25,0.25,0.25,0.25,-0.5,-0.5,-0.5,-0.5,-0.5,-0.5,-0.5,-0.5,-0.5,-0.5,-0.5,linear,0.025,TRUE,9,sepmodel,0.7952,5.99950632817767e-4,0.00793978203950712,0,10000
10,250,0,175,350,525,700,875,1050,1225,1400,1575,2,0,1,0.25,0.25,0.25,0.25,0.25,0.25,0.25,0.25,0.25,0.25,-0.5,-0.5,-0.5,-0.5,-0.5,-0.5,-0.5,-0.5,-0.5,-0.5,-0.5,linear,0.025,TRUE,10,fixmodel,0.859,-3.1661729852172583e-4,0.00687065699780241,0,10000
10,250,0,175,350,525,700,875,1050,1225,1400,1575,2,0,1,0.25,0.25,0.25,0.25,0.25,0.25,0.25,0.25,0.25,0.25,-0.5,-0.5,-0.5,-0.5,-0.5,-0.5,-0.5,-0.5,-0.5,-0.5,-0.5,linear,0.025,TRUE,10,poolmodel,0.1465,-0.18113349072635498,0.03857549245906248,0,10000
10,250,0,175,350,525,700,875,1050,1225,1400,1575,2,0,1,0.25,0.25,0.25,0.25,0.25,0.25,0.25,0.25,0.25,0.25,-0.5,-0.5,-0.5,-0.5,-0.5,-0.5,-0.5,-0.5,-0.5,-0.5,-0.5,linear,0.025,TRUE,10,sepmodel,0.7904,-2.2567213383799622e-4,0.008177398706491612,0,10000
10,250,0,200,400,600,800,1000,1200,1400,1600,1800,2,0,1,0.25,0.25,0.25,0.25,0.25,0.25,0.25,0.25,0.25,0.25,-0.5,-0.5,-0.5,-0.5,-0.5,-0.5,-0.5,-0.5,-0.5,-0.5,-0.5,linear,0.025,TRUE,2,fixmodel,0.816,-4.1241514464362e-4,0.0076715511667515834,0,10000
10,250,0,200,400,600,800,1000,1200,1400,1600,1800,2,0,1,0.25,0.25,0.25,0.25,0.25,0.25,0.25,0.25,0.25,0.25,-0.5,-0.5,-0.5,-0.5,-0.5,-0.5,-0.5,-0.5,-0.5,-0.5,-0.5,linear,0.025,TRUE,2,poolmodel,0.7627,-0.026528901275982855,0.007680062282402516,0,10000
10,250,0,200,400,600,800,1000,1200,1400,1600,1800,2,0,1,0.25,0.25,0.25,0.25,0.25,0.25,0.25,0.25,0.25,0.25,-0.5,-0.5,-0.5,-0.5,-0.5,-0.5,-0.5,-0.5,-0.5,-0.5,-0.5,linear,0.025,TRUE,2,sepmodel,0.7926,-2.396166995629371e-4,0.008175304245343636,0,10000
10,250,0,200,400,600,800,1000,1200,1400,1600,1800,2,0,1,0.25,0.25,0.25,0.25,0.25,0.25,0.25,0.25,0.25,0.25,-0.5,-0.5,-0.5,-0.5,-0.5,-0.5,-0.5,-0.5,-0.5,-0.5,-0.5,linear,0.025,TRUE,3,fixmodel,0.8318,2.170701730078172e-4,0.007277070966455252,0,10000
10,250,0,200,400,600,800,1000,1200,1400,1600,1800,2,0,1,0.25,0.25,0.25,0.25,0.25,0.25,0.25,0.25,0.25,0.25,-0.5,-0.5,-0.5,-0.5,-0.5,-0.5,-0.5,-0.5,-0.5,-0.5,-0.5,linear,0.025,TRUE,3,poolmodel,0.6895,-0.052413734634986,0.009165530350748923,0,10000
10,250,0,200,400,600,800,1000,1200,1400,1600,1800,2,0,1,0.25,0.25,0.25,0.25,0.25,0.25,0.25,0.25,0.25,0.25,-0.5,-0.5,-0.5,-0.5,-0.5,-0.5,-0.5,-0.5,-0.5,-0.5,-0.5,linear,0.025,TRUE,3,sepmodel,0.7983,5.340754296373662e-4,0.007984744396658852,0,10000
10,250,0,200,400,600,800,1000,1200,1400,1600,1800,2,0,1,0.25,0.25,0.25,0.25,0.25,0.25,0.25,0.25,0.25,0.25,-0.5,-0.5,-0.5,-0.5,-0.5,-0.5,-0.5,-0.5,-0.5,-0.5,-0.5,linear,0.025,TRUE,4,fixmodel,0.8392,-4.646444560302174e-4,0.00714531031822833,0,10000
10,250,0,200,400,600,800,1000,1200,1400,1600,1800,2,0,1,0.25,0.25,0.25,0.25,0.25,0.25,0.25,0.25,0.25,0.25,-0.5,-0.5,-0.5,-0.5,-0.5,-0.5,-0.5,-0.5,-0.5,-0.5,-0.5,linear,0.025,TRUE,4,poolmodel,0.5846,-0.07811280974837555,0.01230623104470969,0,10000
10,250,0,200,400,600,800,1000,1200,1400,1600,1800,2,0,1,0.25,0.25,0.25,0.25,0.25,0.25,0.25,0.25,0.25,0.25,-0.5,-0.5,-0.5,-0.5,-0.5,-0.5,-0.5,-0.5,-0.5,-0.5,-0.5,linear,0.025,TRUE,4,sepmodel,0.7898,-4.8293447850707253e-4,0.00799797150211751,0,10000
10,250,0,200,400,600,800,1000,1200,1400,1600,1800,2,0,1,0.25,0.25,0.25,0.25,0.25,0.25,0.25,0.25,0.25,0.25,-0.5,-0.5,-0.5,-0.5,-0.5,-0.5,-0.5,-0.5,-0.5,-0.5,-0.5,linear,0.025,TRUE,5,fixmodel,0.8431,-0.0012363107826702361,0.0069725812795541,0,10000
10,250,0,200,400,600,800,1000,1200,1400,1600,1800,2,0,1,0.25,0.25,0.25,0.25,0.25,0.25,0.25,0.25,0.25,0.25,-0.5,-0.5,-0.5,-0.5,-0.5,-0.5,-0.5,-0.5,-0.5,-0.5,-0.5,linear,0.025,TRUE,5,poolmodel,0.4759,-0.10286668856176243,0.016464576910402956,0,10000
10,250,0,200,400,600,800,1000,1200,1400,1600,1800,2,0,1,0.25,0.25,0.25,0.25,0.25,0.25,0.25,0.25,0.25,0.25,-0.5,-0.5,-0.5,-0.5,-0.5,-0.5,-0.5,-0.5,-0.5,-0.5,-0.5,linear,0.025,TRUE,5,sepmodel,0.7926,-9.806614617232277e-4,0.007808653603620981,0,10000
10,250,0,200,400,600,800,1000,1200,1400,1600,1800,2,0,1,0.25,0.25,0.25,0.25,0.25,0.25,0.25,0.25,0.25,0.25,-0.5,-0.5,-0.5,-0.5,-0.5,-0.5,-0.5,-0.5,-0.5,-0.5,-0.5,linear,0.025,TRUE,6,fixmodel,0.8511,1.1860991256864035e-4,0.006893787098509409,0,10000
10,250,0,200,400,600,800,1000,1200,1400,1600,1800,2,0,1,0.25,0.25,0.25,0.25,0.25,0.25,0.25,0.25,0.25,0.25,-0.5,-0.5,-0.5,-0.5,-0.5,-0.5,-0.5,-0.5,-0.5,-0.5,-0.5,linear,0.025,TRUE,6,poolmodel,0.3649,-0.1256363641654173,0.021525250168551686,0,10000
10,250,0,200,400,600,800,1000,1200,1400,1600,1800,2,0,1,0.25,0.25,0.25,0.25,0.25,0.25,0.25,0.25,0.25,0.25,-0.5,-0.5,-0.5,-0.5,-0.5,-0.5,-0.5,-0.5,-0.5,-0.5,-0.5,linear,0.025,TRUE,6,sepmodel,0.7956,2.4981912944348027e-4,0.007849483382689173,0,10000
10,250,0,200,400,600,800,1000,1200,1400,1600,1800,2,0,1,0.25,0.25,0.25,0.25,0.25,0.25,0.25,0.25,0.25,0.25,-0.5,-0.5,-0.5,-0.5,-0.5,-0.5,-0.5,-0.5,-0.5,-0.5,-0.5,linear,0.025,TRUE,7,fixmodel,0.8492,-0.0017134048454530437,0.006748933095840785,0,10000
10,250,0,200,400,600,800,1000,1200,1400,1600,1800,2,0,1,0.25,0.25,0.25,0.25,0.25,0.25,0.25,0.25,0.25,0.25,-0.5,-0.5,-0.5,-0.5,-0.5,-0.5,-0.5,-0.5,-0.5,-0.5,-0.5,linear,0.025,TRUE,7,poolmodel,0.2633,-0.14781451666469211,0.027453768235789176,0,10000
10,250,0,200,400,600,800,1000,1200,1400,1600,1800,2,0,1,0.25,0.25,0.25,0.25,0.25,0.25,0.25,0.25,0.25,0.25,-0.5,-0.5,-0.5,-0.5,-0.5,-0.5,-0.5,-0.5,-0.5,-0.5,-0.5,linear,0.025,TRUE,7,sepmodel,0.7975,-0.001272354795315923,0.0078032898081825145,0,10000
10,250,0,200,400,600,800,1000,1200,1400,1600,1800,2,0,1,0.25,0.25,0.25,0.25,0.25,0.25,0.25,0.25,0.25,0.25,-0.5,-0.5,-0.5,-0.5,-0.5,-0.5,-0.5,-0.5,-0.5,-0.5,-0.5,linear,0.025,TRUE,8,fixmodel,0.8589,-4.065964833750304e-5,0.006764880654962892,0,10000
10,250,0,200,400,600,800,1000,1200,1400,1600,1800,2,0,1,0.25,0.25,0.25,0.25,0.25,0.25,0.25,0.25,0.25,0.25,-0.5,-0.5,-0.5,-0.5,-0.5,-0.5,-0.5,-0.5,-0.5,-0.5,-0.5,linear,0.025,TRUE,8,poolmodel,0.2007,-0.1644153334346687,0.032650590782435124,0,10000
10,250,0,200,400,600,800,1000,1200,1400,1600,1800,2,0,1,0.25,0.25,0.25,0.25,0.25,0.25,0.25,0.25,0.25,0.25,-0.5,-0.5,-0.5,-0.5,-0.5,-0.5,-0.5,-0.5,-0.5,-0.5,-0.5,linear,0.025,TRUE,8,sepmodel,0.7964,3.861247668319778e-4,0.007951538779508853,0,10000
10,250,0,200,400,600,800,1000,1200,1400,1600,1800,2,0,1,0.25,0.25,0.25,0.25,0.25,0.25,0.25,0.25,0.25,0.25,-0.5,-0.5,-0.5,-0.5,-0.5,-0.5,-0.5,-0.5,-0.5,-0.5,-0.5,linear,0.025,TRUE,9,fixmodel,0.8637,7.695258392476297e-4,0.006667169682672958,0,10000
10,250,0,200,400,600,800,1000,1200,1400,1600,1800,2,0,1,0.25,0.25,0.25,0.25,0.25,0.25,0.25,0.25,0.25,0.25,-0.5,-0.5,-0.5,-0.5,-0.5,-0.5,-0.5,-0.5,-0.5,-0.5,-0.5,linear,0.025,TRUE,9,poolmodel,0.1505,-0.17899425561487453,0.03759044718792604,0,10000
10,250,0,200,400,600,800,1000,1200,1400,1600,1800,2,0,1,0.25,0.25,0.25,0.25,0.25,0.25,0.25,0.25,0.25,0.25,-0.5,-0.5,-0.5,-0.5,-0.5,-0.5,-0.5,-0.5,-0.5,-0.5,-0.5,linear,0.025,TRUE,9,sepmodel,0.8027,0.0011359908553870513,0.007921600329892076,0,10000
10,250,0,200,400,600,800,1000,1200,1400,1600,1800,2,0,1,0.25,0.25,0.25,0.25,0.25,0.25,0.25,0.25,0.25,0.25,-0.5,-0.5,-0.5,-0.5,-0.5,-0.5,-0.5,-0.5,-0.5,-0.5,-0.5,linear,0.025,TRUE,10,fixmodel,0.8593,-4.459755789339679e-5,0.0067459153919605,0,10000
10,250,0,200,400,600,800,1000,1200,1400,1600,1800,2,0,1,0.25,0.25,0.25,0.25,0.25,0.25,0.25,0.25,0.25,0.25,-0.5,-0.5,-0.5,-0.5,-0.5,-0.5,-0.5,-0.5,-0.5,-0.5,-0.5,linear,0.025,TRUE,10,poolmodel,0.1147,-0.1922264486576444,0.042462450127240904,0,10000
10,250,0,200,400,600,800,1000,1200,1400,1600,1800,2,0,1,0.25,0.25,0.25,0.25,0.25,0.25,0.25,0.25,0.25,0.25,-0.5,-0.5,-0.5,-0.5,-0.5,-0.5,-0.5,-0.5,-0.5,-0.5,-0.5,linear,0.025,TRUE,10,sepmodel,0.7984,3.355787879299308e-4,0.008016125536136051,0,10000
10,250,0,225,450,675,900,1125,1350,1575,1800,2025,2,0,1,0.25,0.25,0.25,0.25,0.25,0.25,0.25,0.25,0.25,0.25,-0.5,-0.5,-0.5,-0.5,-0.5,-0.5,-0.5,-0.5,-0.5,-0.5,-0.5,linear,0.025,TRUE,2,fixmodel,0.827,-6.161475025095416e-4,0.0071992588892887096,0,10000
10,250,0,225,450,675,900,1125,1350,1575,1800,2025,2,0,1,0.25,0.25,0.25,0.25,0.25,0.25,0.25,0.25,0.25,0.25,-0.5,-0.5,-0.5,-0.5,-0.5,-0.5,-0.5,-0.5,-0.5,-0.5,-0.5,linear,0.025,TRUE,2,poolmodel,0.7785,-0.027251766158870507,0.007257982432346109,0,10000
10,250,0,225,450,675,900,1125,1350,1575,1800,2025,2,0,1,0.25,0.25,0.25,0.25,0.25,0.25,0.25,0.25,0.25,0.25,-0.5,-0.5,-0.5,-0.5,-0.5,-0.5,-0.5,-0.5,-0.5,-0.5,-0.5,linear,0.025,TRUE,2,sepmodel,0.7992,-3.007932555412451e-4,0.007699527566184062,0,10000
10,250,0,225,450,675,900,1125,1350,1575,1800,2025,2,0,1,0.25,0.25,0.25,0.25,0.25,0.25,0.25,0.25,0.25,0.25,-0.5,-0.5,-0.5,-0.5,-0.5,-0.5,-0.5,-0.5,-0.5,-0.5,-0.5,linear,0.025,TRUE,3,fixmodel,0.8317,3.127004896798316e-4,0.0073676278032834734,0,10000
10,250,0,225,450,675,900,1125,1350,1575,1800,2025,2,0,1,0.25,0.25,0.25,0.25,0.25,0.25,0.25,0.25,0.25,0.25,-0.5,-0.5,-0.5,-0.5,-0.5,-0.5,-0.5,-0.5,-0.5,-0.5,-0.5,linear,0.025,TRUE,3,poolmodel,0.6963,-0.05279718013322367,0.009209915623112847,0,10000
10,250,0,225,450,675,900,1125,1350,1575,1800,2025,2,0,1,0.25,0.25,0.25,0.25,0.25,0.25,0.25,0.25,0.25,0.25,-0.5,-0.5,-0.5,-0.5,-0.5,-0.5,-0.5,-0.5,-0.5,-0.5,-0.5,linear,0.025,TRUE,3,sepmodel,0.7985,3.9942414758498254e-4,0.008057987760421749,0,10000
10,250,0,225,450,675,900,1125,1350,1575,1800,2025,2,0,1,0.25,0.25,0.25,0.25,0.25,0.25,0.25,0.25,0.25,0.25,-0.5,-0.5,-0.5,-0.5,-0.5,-0.5,-0.5,-0.5,-0.5,-0.5,-0.5,linear,0.025,TRUE,4,fixmodel,0.8396,3.145008425985623e-4,0.00727821765170217,0,10000
10,250,0,225,450,675,900,1125,1350,1575,1800,2025,2,0,1,0.25,0.25,0.25,0.25,0.25,0.25,0.25,0.25,0.25,0.25,-0.5,-0.5,-0.5,-0.5,-0.5,-0.5,-0.5,-0.5,-0.5,-0.5,-0.5,linear,0.025,TRUE,4,poolmodel,0.6,-0.07705730139545573,0.012057447517890112,0,10000
10,250,0,225,450,675,900,1125,1350,1575,1800,2025,2,0,1,0.25,0.25,0.25,0.25,0.25,0.25,0.25,0.25,0.25,0.25,-0.5,-0.5,-0.5,-0.5,-0.5,-0.5,-0.5,-0.5,-0.5,-0.5,-0.5,linear,0.025,TRUE,4,sepmodel,0.799,6.511571814368283e-4,0.008068674913282644,0,10000
10,250,0,225,450,675,900,1125,1350,1575,1800,2025,2,0,1,0.25,0.25,0.25,0.25,0.25,0.25,0.25,0.25,0.25,0.25,-0.5,-0.5,-0.5,-0.5,-0.5,-0.5,-0.5,-0.5,-0.5,-0.5,-0.5,linear,0.025,TRUE,5,fixmodel,0.8427,-2.4414808000257967e-4,0.00705557520231233,0,10000
10,250,0,225,450,675,900,1125,1350,1575,1800,2025,2,0,1,0.25,0.25,0.25,0.25,0.25,0.25,0.25,0.25,0.25,0.25,-0.5,-0.5,-0.5,-0.5,-0.5,-0.5,-0.5,-0.5,-0.5,-0.5,-0.5,linear,0.025,TRUE,5,poolmodel,0.4733,-0.10477308228588939,0.016752780011385318,0,10000
10,250,0,225,450,675,900,1125,1350,1575,1800,2025,2,0,1,0.25,0.25,0.25,0.25,0.25,0.25,0.25,0.25,0.25,0.25,-0.5,-0.5,-0.5,-0.5,-0.5,-0.5,-0.5,-0.5,-0.5,-0.5,-0.5,linear,0.025,TRUE,5,sepmodel,0.7932,3.001627289617614e-5,0.007952470089013047,0,10000
10,250,0,225,450,675,900,1125,1350,1575,1800,2025,2,0,1,0.25,0.25,0.25,0.25,0.25,0.25,0.25,0.25,0.25,0.25,-0.5,-0.5,-0.5,-0.5,-0.5,-0.5,-0.5,-0.5,-0.5,-0.5,-0.5,linear,0.025,TRUE,6,fixmodel,0.8505,0.0013585474365266307,0.0070412642793429864,0,10000
10,250,0,225,450,675,900,1125,1350,1575,1800,2025,2,0,1,0.25,0.25,0.25,0.25,0.25,0.25,0.25,0.25,0.25,0.25,-0.5,-0.5,-0.5,-0.5,-0.5,-0.5,-0.5,-0.5,-0.5,-0.5,-0.5,linear,0.025,TRUE,6,poolmodel,0.3669,-0.12761057428957537,0.021966548745415378,0,10000
10,250,0,225,450,675,900,1125,1350,1575,1800,2025,2,0,1,0.25,0.25,0.25,0.25,0.25,0.25,0.25,0.25,0.25,0.25,-0.5,-0.5,-0.5,-0.5,-0.5,-0.5,-0.5,-0.5,-0.5,-0.5,-0.5,linear,0.025,TRUE,6,sepmodel,0.8008,0.0014467099072906714,0.008003985572151472,0,10000
10,250,0,225,450,675,900,1125,1350,1575,1800,2025,2,0,1,0.25,0.25,0.25,0.25,0.25,0.25,0.25,0.25,0.25,0.25,-0.5,-0.5,-0.5,-0.5,-0.5,-0.5,-0.5,-0.5,-0.5,-0.5,-0.5,linear,0.025,TRUE,7,fixmodel,0.8553,7.731018480408512e-4,0.006965255889873078,0,10000
10,250,0,225,450,675,900,1125,1350,1575,1800,2025,2,0,1,0.25,0.25,0.25,0.25,0.25,0.25,0.25,0.25,0.25,0.25,-0.5,-0.5,-0.5,-0.5,-0.5,-0.5,-0.5,-0.5,-0.5,-0.5,-0.5,linear,0.025,TRUE,7,poolmodel,0.2566,-0.15068087311759318,0.028300135627169907,0,10000
10,250,0,225,450,675,900,1125,1350,1575,1800,2025,2,0,1,0.25,0.25,0.25,0.25,0.25,0.25,0.25,0.25,0.25,0.25,-0.5,-0.5,-0.5,-0.5,-0.5,-0.5,-0.5,-0.5,-0.5,-0.5,-0.5,linear,0.025,TRUE,7,sepmodel,0.8005,9.24248393970738e-4,0.008051467363404608,0,10000
10,250,0,225,450,675,900,1125,1350,1575,1800,2025,2,0,1,0.25,0.25,0.25,0.25,0.25,0.25,0.25,0.25,0.25,0.25,-0.5,-0.5,-0.5,-0.5,-0.5,-0.5,-0.5,-0.5,-0.5,-0.5,-0.5,linear,0.025,TRUE,8,fixmodel,0.8587,2.3845111131068846e-4,0.0068357256324523994,0,10000
10,250,0,225,450,675,900,1125,1350,1575,1800,2025,2,0,1,0.25,0.25,0.25,0.25,0.25,0.25,0.25,0.25,0.25,0.25,-0.5,-0.5,-0.5,-0.5,-0.5,-0.5,-0.5,-0.5,-0.5,-0.5,-0.5,linear,0.025,TRUE,8,poolmodel,0.1753,-0.17146499849269903,0.03483256868031392,0,10000
10,250,0,225,450,675,900,1125,1350,1575,1800,2025,2,0,1,0.25,0.25,0.25,0.25,0.25,0.25,0.25,0.25,0.25,0.25,-0.5,-0.5,-0.5,-0.5,-0.5,-0.5,-0.5,-0.5,-0.5,-0.5,-0.5,linear,0.025,TRUE,8,sepmodel,0.7973,3.7378746308753126e-4,0.007961353776161213,0,10000
10,250,0,225,450,675,900,1125,1350,1575,1800,2025,2,0,1,0.25,0.25,0.25,0.25,0.25,0.25,0.25,0.25,0.25,0.25,-0.5,-0.5,-0.5,-0.5,-0.5,-0.5,-0.5,-0.5,-0.5,-0.5,-0.5,linear,0.025,TRUE,9,fixmodel,0.8596,6.210811910552028e-4,0.006792121401167567,0,10000
10,250,0,225,450,675,900,1125,1350,1575,1800,2025,2,0,1,0.25,0.25,0.25,0.25,0.25,0.25,0.25,0.25,0.25,0.25,-0.5,-0.5,-0.5,-0.5,-0.5,-0.5,-0.5,-0.5,-0.5,-0.5,-0.5,linear,0.025,TRUE,9,poolmodel,0.1257,-0.18799718001860186,0.040724849561137394,0,10000
10,250,0,225,450,675,900,1125,1350,1575,1800,2025,2,0,1,0.25,0.25,0.25,0.25,0.25,0.25,0.25,0.25,0.25,0.25,-0.5,-0.5,-0.5,-0.5,-0.5,-0.5,-0.5,-0.5,-0.5,-0.5,-0.5,linear,0.025,TRUE,9,sepmodel,0.7943,2.8162923825816123e-4,0.007994449495924472,0,10000
10,250,0,225,450,675,900,1125,1350,1575,1800,2025,2,0,1,0.25,0.25,0.25,0.25,0.25,0.25,0.25,0.25,0.25,0.25,-0.5,-0.5,-0.5,-0.5,-0.5,-0.5,-0.5,-0.5,-0.5,-0.5,-0.5,linear,0.025,TRUE,10,fixmodel,0.8617,-1.1418126710182327e-4,0.006718443578435169,0,10000
10,250,0,225,450,675,900,1125,1350,1575,1800,2025,2,0,1,0.25,0.25,0.25,0.25,0.25,0.25,0.25,0.25,0.25,0.25,-0.5,-0.5,-0.5,-0.5,-0.5,-0.5,-0.5,-0.5,-0.5,-0.5,-0.5,linear,0.025,TRUE,10,poolmodel,0.0905,-0.20182802360258134,0.046077006706412314,0,10000
10,250,0,225,450,675,900,1125,1350,1575,1800,2025,2,0,1,0.25,0.25,0.25,0.25,0.25,0.25,0.25,0.25,0.25,0.25,-0.5,-0.5,-0.5,-0.5,-0.5,-0.5,-0.5,-0.5,-0.5,-0.5,-0.5,linear,0.025,TRUE,10,sepmodel,0.7951,-4.6236659689485843e-4,0.008046090525975864,0,10000
10,250,0,250,500,750,1000,1250,1500,1750,2000,2250,2,0,1,0.25,0.25,0.25,0.25,0.25,0.25,0.25,0.25,0.25,0.25,-0.5,-0.5,-0.5,-0.5,-0.5,-0.5,-0.5,-0.5,-0.5,-0.5,-0.5,linear,0.025,TRUE,2,fixmodel,0.8274,-4.7821244310993573e-4,0.007282595534066804,0,10000
10,250,0,250,500,750,1000,1250,1500,1750,2000,2250,2,0,1,0.25,0.25,0.25,0.25,0.25,0.25,0.25,0.25,0.25,0.25,-0.5,-0.5,-0.5,-0.5,-0.5,-0.5,-0.5,-0.5,-0.5,-0.5,-0.5,linear,0.025,TRUE,2,poolmodel,0.7736,-0.027468931927567858,0.0073384919695047195,0,10000
10,250,0,250,500,750,1000,1250,1500,1750,2000,2250,2,0,1,0.25,0.25,0.25,0.25,0.25,0.25,0.25,0.25,0.25,0.25,-0.5,-0.5,-0.5,-0.5,-0.5,-0.5,-0.5,-0.5,-0.5,-0.5,-0.5,linear,0.025,TRUE,2,sepmodel,0.7959,-6.471032328947968e-4,0.007843818044965208,0,10000
10,250,0,250,500,750,1000,1250,1500,1750,2000,2250,2,0,1,0.25,0.25,0.25,0.25,0.25,0.25,0.25,0.25,0.25,0.25,-0.5,-0.5,-0.5,-0.5,-0.5,-0.5,-0.5,-0.5,-0.5,-0.5,-0.5,linear,0.025,TRUE,3,fixmodel,0.8247,-4.7044028133349543e-4,0.007561815271205397,0,10000
10,250,0,250,500,750,1000,1250,1500,1750,2000,2250,2,0,1,0.25,0.25,0.25,0.25,0.25,0.25,0.25,0.25,0.25,0.25,-0.5,-0.5,-0.5,-0.5,-0.5,-0.5,-0.5,-0.5,-0.5,-0.5,-0.5,linear,0.025,TRUE,3,poolmodel,0.6975,-0.053758847260543786,0.009148495043180174,0,10000
10,250,0,250,500,750,1000,1250,1500,1750,2000,2250,2,0,1,0.25,0.25,0.25,0.25,0.25,0.25,0.25,0.25,0.25,0.25,-0.5,-0.5,-0.5,-0.5,-0.5,-0.5,-0.5,-0.5,-0.5,-0.5,-0.5,linear,0.025,TRUE,3,sepmodel,0.7881,-0.0011211408200898021,0.008240777894668452,0,10000
10,250,0,250,500,750,1000,1250,1500,1750,2000,2250,2,0,1,0.25,0.25,0.25,0.25,0.25,0.25,0.25,0.25,0.25,0.25,-0.5,-0.5,-0.5,-0.5,-0.5,-0.5,-0.5,-0.5,-0.5,-0.5,-0.5,linear,0.025,TRUE,4,fixmodel,0.8342,-8.175444877697441e-4,0.0071760256950485326,0,10000
10,250,0,250,500,750,1000,1250,1500,1750,2000,2250,2,0,1,0.25,0.25,0.25,0.25,0.25,0.25,0.25,0.25,0.25,0.25,-0.5,-0.5,-0.5,-0.5,-0.5,-0.5,-0.5,-0.5,-0.5,-0.5,-0.5,linear,0.025,TRUE,4,poolmodel,0.6028,-0.07889928577098554,0.012093121440729663,0,10000
10,250,0,250,500,750,1000,1250,1500,1750,2000,2250,2,0,1,0.25,0.25,0.25,0.25,0.25,0.25,0.25,0.25,0.25,0.25,-0.5,-0.5,-0.5,-0.5,-0.5,-0.5,-0.5,-0.5,-0.5,-0.5,-0.5,linear,0.025,TRUE,4,sepmodel,0.7933,-0.0011367690391757457,0.007950934872212384,0,10000
10,250,0,250,500,750,1000,1250,1500,1750,2000,2250,2,0,1,0.25,0.25,0.25,0.25,0.25,0.25,0.25,0.25,0.25,0.25,-0.5,-0.5,-0.5,-0.5,-0.5,-0.5,-0.5,-0.5,-0.5,-0.5,-0.5,linear,0.025,TRUE,5,fixmodel,0.8393,-0.0012382028739297384,0.007153955906018044,0,10000
10,250,0,250,500,750,1000,1250,1500,1750,2000,2250,2,0,1,0.25,0.25,0.25,0.25,0.25,0.25,0.25,0.25,0.25,0.25,-0.5,-0.5,-0.5,-0.5,-0.5,-0.5,-0.5,-0.5,-0.5,-0.5,-0.5,linear,0.025,TRUE,5,poolmodel,0.4802,-0.10579726138919263,0.016957111566726153,0,10000
10,250,0,250,500,750,1000,1250,1500,1750,2000,2250,2,0,1,0.25,0.25,0.25,0.25,0.25,0.25,0.25,0.25,0.25,0.25,-0.5,-0.5,-0.5,-0.5,-0.5,-0.5,-0.5,-0.5,-0.5,-0.5,-0.5,linear,0.025,TRUE,5,sepmodel,0.7945,-9.739748672977365e-4,0.008035643695893914,0,10000
10,250,0,250,500,750,1000,1250,1500,1750,2000,2250,2,0,1,0.25,0.25,0.25,0.25,0.25,0.25,0.25,0.25,0.25,0.25,-0.5,-0.5,-0.5,-0.5,-0.5,-0.5,-0.5,-0.5,-0.5,-0.5,-0.5,linear,0.025,TRUE,6,fixmodel,0.8465,-0.001117148526960528,0.0069874809449277575,0,10000
10,250,0,250,500,750,1000,1250,1500,1750,2000,2250,2,0,1,0.25,0.25,0.25,0.25,0.25,0.25,0.25,0.25,0.25,0.25,-0.5,-0.5,-0.5,-0.5,-0.5,-0.5,-0.5,-0.5,-0.5,-0.5,-0.5,linear,0.025,TRUE,6,poolmodel,0.3569,-0.13040267330539962,0.02250545974602485,0,10000
10,250,0,250,500,750,1000,1250,1500,1750,2000,2250,2,0,1,0.25,0.25,0.25,0.25,0.25,0.25,0.25,0.25,0.25,0.25,-0.5,-0.5,-0.5,-0.5,-0.5,-0.5,-0.5,-0.5,-0.5,-0.5,-0.5,linear,0.025,TRUE,6,sepmodel,0.7985,-6.723595905367455e-4,0.007943333130208695,0,10000
10,250,0,250,500,750,1000,1250,1500,1750,2000,2250,2,0,1,0.25,0.25,0.25,0.25,0.25,0.25,0.25,0.25,0.25,0.25,-0.5,-0.5,-0.5,-0.5,-0.5,-0.5,-0.5,-0.5,-0.5,-0.5,-0.5,linear,0.025,TRUE,7,fixmodel,0.8498,-0.001084765260728318,0.0067661568961590625,0,10000
10,250,0,250,500,750,1000,1250,1500,1750,2000,2250,2,0,1,0.25,0.25,0.25,0.25,0.25,0.25,0.25,0.25,0.25,0.25,-0.5,-0.5,-0.5,-0.5,-0.5,-0.5,-0.5,-0.5,-0.5,-0.5,-0.5,linear,0.025,TRUE,7,poolmodel,0.2418,-0.15462722398322398,0.029210707554303262,0,10000
10,250,0,250,500,750,1000,1250,1500,1750,2000,2250,2,0,1,0.25,0.25,0.25,0.25,0.25,0.25,0.25,0.25,0.25,0.25,-0.5,-0.5,-0.5,-0.5,-0.5,-0.5,-0.5,-0.5,-0.5,-0.5,-0.5,linear,0.025,TRUE,7,sepmodel,0.801,-6.547044239400762e-4,0.0077072034279501,0,10000
10,250,0,250,500,750,1000,1250,1500,1750,2000,2250,2,0,1,0.25,0.25,0.25,0.25,0.25,0.25,0.25,0.25,0.25,0.25,-0.5,-0.5,-0.5,-0.5,-0.5,-0.5,-0.5,-0.5,-0.5,-0.5,-0.5,linear,0.025,TRUE,8,fixmodel,0.8504,-3.503880881623799e-4,0.006864711195218235,0,10000
10,250,0,250,500,750,1000,1250,1500,1750,2000,2250,2,0,1,0.25,0.25,0.25,0.25,0.25,0.25,0.25,0.25,0.25,0.25,-0.5,-0.5,-0.5,-0.5,-0.5,-0.5,-0.5,-0.5,-0.5,-0.5,-0.5,linear,0.025,TRUE,8,poolmodel,0.1674,-0.1759721961687146,0.036311078034326164,0,10000
10,250,0,250,500,750,1000,1250,1500,1750,2000,2250,2,0,1,0.25,0.25,0.25,0.25,0.25,0.25,0.25,0.25,0.25,0.25,-0.5,-0.5,-0.5,-0.5,-0.5,-0.5,-0.5,-0.5,-0.5,-0.5,-0.5,linear,0.025,TRUE,8,sepmodel,0.7945,-1.5523212707278133e-6,0.007857781030521763,0,10000
10,250,0,250,500,750,1000,1250,1500,1750,2000,2250,2,0,1,0.25,0.25,0.25,0.25,0.25,0.25,0.25,0.25,0.25,0.25,-0.5,-0.5,-0.5,-0.5,-0.5,-0.5,-0.5,-0.5,-0.5,-0.5,-0.5,linear,0.025,TRUE,9,fixmodel,0.851,5.682039985652985e-4,0.007024670907741502,0,10000
10,250,0,250,500,750,1000,1250,1500,1750,2000,2250,2,0,1,0.25,0.25,0.25,0.25,0.25,0.25,0.25,0.25,0.25,0.25,-0.5,-0.5,-0.5,-0.5,-0.5,-0.5,-0.5,-0.5,-0.5,-0.5,-0.5,linear,0.025,TRUE,9,poolmodel,0.1161,-0.19335847842513038,0.04274013276161695,0,10000
10,250,0,250,500,750,1000,1250,1500,1750,2000,2250,2,0,1,0.25,0.25,0.25,0.25,0.25,0.25,0.25,0.25,0.25,0.25,-0.5,-0.5,-0.5,-0.5,-0.5,-0.5,-0.5,-0.5,-0.5,-0.5,-0.5,linear,0.025,TRUE,9,sepmodel,0.8,8.934660213202847e-4,0.008124680739272859,0,10000
10,250,0,250,500,750,1000,1250,1500,1750,2000,2250,2,0,1,0.25,0.25,0.25,0.25,0.25,0.25,0.25,0.25,0.25,0.25,-0.5,-0.5,-0.5,-0.5,-0.5,-0.5,-0.5,-0.5,-0.5,-0.5,-0.5,linear,0.025,TRUE,10,fixmodel,0.857,-5.36989978191478e-4,0.006751600445132055,0,10000
10,250,0,250,500,750,1000,1250,1500,1750,2000,2250,2,0,1,0.25,0.25,0.25,0.25,0.25,0.25,0.25,0.25,0.25,0.25,-0.5,-0.5,-0.5,-0.5,-0.5,-0.5,-0.5,-0.5,-0.5,-0.5,-0.5,linear,0.025,TRUE,10,poolmodel,0.0737,-0.20962133512241177,0.04908519377490189,0,10000
10,250,0,250,500,750,1000,1250,1500,1750,2000,2250,2,0,1,0.25,0.25,0.25,0.25,0.25,0.25,0.25,0.25,0.25,0.25,-0.5,-0.5,-0.5,-0.5,-0.5,-0.5,-0.5,-0.5,-0.5,-0.5,-0.5,linear,0.025,TRUE,10,sepmodel,0.7991,1.9623131349164193e-5,0.00791655942147172,0,10000
10,250,0,275,550,825,1100,1375,1650,1925,2200,2475,2,0,1,0.25,0.25,0.25,0.25,0.25,0.25,0.25,0.25,0.25,0.25,-0.5,-0.5,-0.5,-0.5,-0.5,-0.5,-0.5,-0.5,-0.5,-0.5,-0.5,linear,0.025,TRUE,2,fixmodel,0.8176,-7.988809473082428e-5,0.007598981767060897,0,10000
10,250,0,275,550,825,1100,1375,1650,1925,2200,2475,2,0,1,0.25,0.25,0.25,0.25,0.25,0.25,0.25,0.25,0.25,0.25,-0.5,-0.5,-0.5,-0.5,-0.5,-0.5,-0.5,-0.5,-0.5,-0.5,-0.5,linear,0.025,TRUE,2,poolmodel,0.7769,-0.02817812361055635,0.007457571724801378,0,10000
10,250,0,275,550,825,1100,1375,1650,1925,2200,2475,2,0,1,0.25,0.25,0.25,0.25,0.25,0.25,0.25,0.25,0.25,0.25,-0.5,-0.5,-0.5,-0.5,-0.5,-0.5,-0.5,-0.5,-0.5,-0.5,-0.5,linear,0.025,TRUE,2,sepmodel,0.7901,2.47281347104501e-4,0.008134548355963618,0,10000
10,250,0,275,550,825,1100,1375,1650,1925,2200,2475,2,0,1,0.25,0.25,0.25,0.25,0.25,0.25,0.25,0.25,0.25,0.25,-0.5,-0.5,-0.5,-0.5,-0.5,-0.5,-0.5,-0.5,-0.5,-0.5,-0.5,linear,0.025,TRUE,3,fixmodel,0.8297,4.27986703339107e-4,0.007371966548266301,0,10000
10,250,0,275,550,825,1100,1375,1650,1925,2200,2475,2,0,1,0.25,0.25,0.25,0.25,0.25,0.25,0.25,0.25,0.25,0.25,-0.5,-0.5,-0.5,-0.5,-0.5,-0.5,-0.5,-0.5,-0.5,-0.5,-0.5,linear,0.025,TRUE,3,poolmodel,0.7168,-0.05241264100483525,0.00888574366101263,0,10000
10,250,0,275,550,825,1100,1375,1650,1925,2200,2475,2,0,1,0.25,0.25,0.25,0.25,0.25,0.25,0.25,0.25,0.25,0.25,-0.5,-0.5,-0.5,-0.5,-0.5,-0.5,-0.5,-0.5,-0.5,-0.5,-0.5,linear,0.025,TRUE,3,sepmodel,0.7979,4.544268843773714e-4,0.00799004240187733,0,10000
10,250,0,275,550,825,1100,1375,1650,1925,2200,2475,2,0,1,0.25,0.25,0.25,0.25,0.25,0.25,0.25,0.25,0.25,0.25,-0.5,-0.5,-0.5,-0.5,-0.5,-0.5,-0.5,-0.5,-0.5,-0.5,-0.5,linear,0.025,TRUE,4,fixmodel,0.8413,1.8918737961765258e-4,0.007097548476029598,0,10000
10,250,0,275,550,825,1100,1375,1650,1925,2200,2475,2,0,1,0.25,0.25,0.25,0.25,0.25,0.25,0.25,0.25,0.25,0.25,-0.5,-0.5,-0.5,-0.5,-0.5,-0.5,-0.5,-0.5,-0.5,-0.5,-0.5,linear,0.025,TRUE,4,poolmodel,0.6104,-0.07936088951720781,0.011998052433092928,0,10000
10,250,0,275,550,825,1100,1375,1650,1925,2200,2475,2,0,1,0.25,0.25,0.25,0.25,0.25,0.25,0.25,0.25,0.25,0.25,-0.5,-0.5,-0.5,-0.5,-0.5,-0.5,-0.5,-0.5,-0.5,-0.5,-0.5,linear,0.025,TRUE,4,sepmodel,0.8016,3.5620065905445e-4,0.007951366028316588,0,10000
10,250,0,275,550,825,1100,1375,1650,1925,2200,2475,2,0,1,0.25,0.25,0.25,0.25,0.25,0.25,0.25,0.25,0.25,0.25,-0.5,-0.5,-0.5,-0.5,-0.5,-0.5,-0.5,-0.5,-0.5,-0.5,-0.5,linear,0.025,TRUE,5,fixmodel,0.8428,4.7927406361553164e-4,0.00726153156746011,0,10000
10,250,0,275,550,825,1100,1375,1650,1925,2200,2475,2,0,1,0.25,0.25,0.25,0.25,0.25,0.25,0.25,0.25,0.25,0.25,-0.5,-0.5,-0.5,-0.5,-0.5,-0.5,-0.5,-0.5,-0.5,-0.5,-0.5,linear,0.025,TRUE,5,poolmodel,0.493,-0.10371121915831412,0.0164794216020322,0,10000
10,250,0,275,550,825,1100,1375,1650,1925,2200,2475,2,0,1,0.25,0.25,0.25,0.25,0.25,0.25,0.25,0.25,0.25,0.25,-0.5,-0.5,-0.5,-0.5,-0.5,-0.5,-0.5,-0.5,-0.5,-0.5,-0.5,linear,0.025,TRUE,5,sepmodel,0.7985,3.6762824195338815e-4,0.008087875513135409,0,10000
10,250,0,275,550,825,1100,1375,1650,1925,2200,2475,2,0,1,0.25,0.25,0.25,0.25,0.25,0.25,0.25,0.25,0.25,0.25,-0.5,-0.5,-0.5,-0.5,-0.5,-0.5,-0.5,-0.5,-0.5,-0.5,-0.5,linear,0.025,TRUE,6,fixmodel,0.8432,0.0018121246007664984,0.007173439717368907,0,10000
10,250,0,275,550,825,1100,1375,1650,1925,2200,2475,2,0,1,0.25,0.25,0.25,0.25,0.25,0.25,0.25,0.25,0.25,0.25,-0.5,-0.5,-0.5,-0.5,-0.5,-0.5,-0.5,-0.5,-0.5,-0.5,-0.5,linear,0.025,TRUE,6,poolmodel,0.3745,-0.1286692077205069,0.0220263338729316,0,10000
10,250,0,275,550,825,1100,1375,1650,1925,2200,2475,2,0,1,0.25,0.25,0.25,0.25,0.25,0.25,0.25,0.25,0.25,0.25,-0.5,-0.5,-0.5,-0.5,-0.5,-0.5,-0.5,-0.5,-0.5,-0.5,-0.5,linear,0.025,TRUE,6,sepmodel,0.7998,0.0017606859921131942,0.008049828886955521,0,10000
10,250,0,275,550,825,1100,1375,1650,1925,2200,2475,2,0,1,0.25,0.25,0.25,0.25,0.25,0.25,0.25,0.25,0.25,0.25,-0.5,-0.5,-0.5,-0.5,-0.5,-0.5,-0.5,-0.5,-0.5,-0.5,-0.5,linear,0.025,TRUE,7,fixmodel,0.855,0.0010228324692935545,0.006927019781810212,0,10000
10,250,0,275,550,825,1100,1375,1650,1925,2200,2475,2,0,1,0.25,0.25,0.25,0.25,0.25,0.25,0.25,0.25,0.25,0.25,-0.5,-0.5,-0.5,-0.5,-0.5,-0.5,-0.5,-0.5,-0.5,-0.5,-0.5,linear,0.025,TRUE,7,poolmodel,0.2497,-0.15466072457172772,0.029171213789661078,0,10000
10,250,0,275,550,825,1100,1375,1650,1925,2200,2475,2,0,1,0.25,0.25,0.25,0.25,0.25,0.25,0.25,0.25,0.25,0.25,-0.5,-0.5,-0.5,-0.5,-0.5,-0.5,-0.5,-0.5,-0.5,-0.5,-0.5,linear,0.025,TRUE,7,sepmodel,0.8058,9.392656257055087e-4,0.00779468658590599,0,10000
10,250,0,275,550,825,1100,1375,1650,1925,2200,2475,2,0,1,0.25,0.25,0.25,0.25,0.25,0.25,0.25,0.25,0.25,0.25,-0.5,-0.5,-0.5,-0.5,-0.5,-0.5,-0.5,-0.5,-0.5,-0.5,-0.5,linear,0.025,TRUE,8,fixmodel,0.8429,-5.000612403924505e-4,0.00704248502645902,0,10000
10,250,0,275,550,825,1100,1375,1650,1925,2200,2475,2,0,1,0.25,0.25,0.25,0.25,0.25,0.25,0.25,0.25,0.25,0.25,-0.5,-0.5,-0.5,-0.5,-0.5,-0.5,-0.5,-0.5,-0.5,-0.5,-0.5,linear,0.025,TRUE,8,poolmodel,0.1611,-0.17904077872193794,0.0373564149208116,0,10000
10,250,0,275,550,825,1100,1375,1650,1925,2200,2475,2,0,1,0.25,0.25,0.25,0.25,0.25,0.25,0.25,0.25,0.25,0.25,-0.5,-0.5,-0.5,-0.5,-0.5,-0.5,-0.5,-0.5,-0.5,-0.5,-0.5,linear,0.025,TRUE,8,sepmodel,0.7879,-0.0010251823553132453,0.00801453185831926,0,10000
10,250,0,275,550,825,1100,1375,1650,1925,2200,2475,2,0,1,0.25,0.25,0.25,0.25,0.25,0.25,0.25,0.25,0.25,0.25,-0.5,-0.5,-0.5,-0.5,-0.5,-0.5,-0.5,-0.5,-0.5,-0.5,-0.5,linear,0.025,TRUE,9,fixmodel,0.8488,3.7796586932269555e-4,0.007010030193070488,0,10000
10,250,0,275,550,825,1100,1375,1650,1925,2200,2475,2,0,1,0.25,0.25,0.25,0.25,0.25,0.25,0.25,0.25,0.25,0.25,-0.5,-0.5,-0.5,-0.5,-0.5,-0.5,-0.5,-0.5,-0.5,-0.5,-0.5,linear,0.025,TRUE,9,poolmodel,0.1063,-0.19833862575005284,0.04450970920981588,0,10000
10,250,0,275,550,825,1100,1375,1650,1925,2200,2475,2,0,1,0.25,0.25,0.25,0.25,0.25,0.25,0.25,0.25,0.25,0.25,-0.5,-0.5,-0.5,-0.5,-0.5,-0.5,-0.5,-0.5,-0.5,-0.5,-0.5,linear,0.025,TRUE,9,sepmodel,0.7983,-1.7822775138469104e-5,0.008046820644717916,0,10000
10,250,0,275,550,825,1100,1375,1650,1925,2200,2475,2,0,1,0.25,0.25,0.25,0.25,0.25,0.25,0.25,0.25,0.25,0.25,-0.5,-0.5,-0.5,-0.5,-0.5,-0.5,-0.5,-0.5,-0.5,-0.5,-0.5,linear,0.025,TRUE,10,fixmodel,0.8493,-1.269394370649118e-4,0.0069588965370669465,0,10000
10,250,0,275,550,825,1100,1375,1650,1925,2200,2475,2,0,1,0.25,0.25,0.25,0.25,0.25,0.25,0.25,0.25,0.25,0.25,-0.5,-0.5,-0.5,-0.5,-0.5,-0.5,-0.5,-0.5,-0.5,-0.5,-0.5,linear,0.025,TRUE,10,poolmodel,0.0689,-0.2145129149573107,0.051145208624556376,0,10000
10,250,0,275,550,825,1100,1375,1650,1925,2200,2475,2,0,1,0.25,0.25,0.25,0.25,0.25,0.25,0.25,0.25,0.25,0.25,-0.5,-0.5,-0.5,-0.5,-0.5,-0.5,-0.5,-0.5,-0.5,-0.5,-0.5,linear,0.025,TRUE,10,sepmodel,0.7903,-6.586464296163508e-4,0.008016150554664021,0,10000
10,250,0,300,600,900,1200,1500,1800,2100,2400,2700,2,0,1,0.25,0.25,0.25,0.25,0.25,0.25,0.25,0.25,0.25,0.25,-0.5,-0.5,-0.5,-0.5,-0.5,-0.5,-0.5,-0.5,-0.5,-0.5,-0.5,linear,0.025,TRUE,2,fixmodel,0.8212,-7.772636120335331e-4,0.007524298104607827,0,10000
10,250,0,300,600,900,1200,1500,1800,2100,2400,2700,2,0,1,0.25,0.25,0.25,0.25,0.25,0.25,0.25,0.25,0.25,0.25,-0.5,-0.5,-0.5,-0.5,-0.5,-0.5,-0.5,-0.5,-0.5,-0.5,-0.5,linear,0.025,TRUE,2,poolmodel,0.783,-0.028738997918038963,0.00742678045004269,0,10000
10,250,0,300,600,900,1200,1500,1800,2100,2400,2700,2,0,1,0.25,0.25,0.25,0.25,0.25,0.25,0.25,0.25,0.25,0.25,-0.5,-0.5,-0.5,-0.5,-0.5,-0.5,-0.5,-0.5,-0.5,-0.5,-0.5,linear,0.025,TRUE,2,sepmodel,0.7907,-8.012796326452531e-4,0.008150142746775148,0,10000
10,250,0,300,600,900,1200,1500,1800,2100,2400,2700,2,0,1,0.25,0.25,0.25,0.25,0.25,0.25,0.25,0.25,0.25,0.25,-0.5,-0.5,-0.5,-0.5,-0.5,-0.5,-0.5,-0.5,-0.5,-0.5,-0.5,linear,0.025,TRUE,3,fixmodel,0.8236,-0.0012501998899385007,0.007298369527556325,0,10000
10,250,0,300,600,900,1200,1500,1800,2100,2400,2700,2,0,1,0.25,0.25,0.25,0.25,0.25,0.25,0.25,0.25,0.25,0.25,-0.5,-0.5,-0.5,-0.5,-0.5,-0.5,-0.5,-0.5,-0.5,-0.5,-0.5,linear,0.025,TRUE,3,poolmodel,0.7213,-0.05301270735898732,0.008746082381715481,0,10000
10,250,0,300,600,900,1200,1500,1800,2100,2400,2700,2,0,1,0.25,0.25,0.25,0.25,0.25,0.25,0.25,0.25,0.25,0.25,-0.5,-0.5,-0.5,-0.5,-0.5,-0.5,-0.5,-0.5,-0.5,-0.5,-0.5,linear,0.025,TRUE,3,sepmodel,0.7949,-0.001278455638254176,0.007877447469071513,0,10000
10,250,0,300,600,900,1200,1500,1800,2100,2400,2700,2,0,1,0.25,0.25,0.25,0.25,0.25,0.25,0.25,0.25,0.25,0.25,-0.5,-0.5,-0.5,-0.5,-0.5,-0.5,-0.5,-0.5,-0.5,-0.5,-0.5,linear,0.025,TRUE,4,fixmodel,0.8354,-0.0012643407137590355,0.007094095352603158,0,10000
10,250,0,300,600,900,1200,1500,1800,2100,2400,2700,2,0,1,0.25,0.25,0.25,0.25,0.25,0.25,0.25,0.25,0.25,0.25,-0.5,-0.5,-0.5,-0.5,-0.5,-0.5,-0.5,-0.5,-0.5,-0.5,-0.5,linear,0.025,TRUE,4,poolmodel,0.617,-0.08025625980640856,0.011975859149157827,0,10000
10,250,0,300,600,900,1200,1500,1800,2100,2400,2700,2,0,1,0.25,0.25,0.25,0.25,0.25,0.25,0.25,0.25,0.25,0.25,-0.5,-0.5,-0.5,-0.5,-0.5,-0.5,-0.5,-0.5,-0.5,-0.5,-0.5,linear,0.025,TRUE,4,sepmodel,0.7933,-0.001308707350779386,0.007838582485868613,0,10000
10,250,0,300,600,900,1200,1500,1800,2100,2400,2700,2,0,1,0.25,0.25,0.25,0.25,0.25,0.25,0.25,0.25,0.25,0.25,-0.5,-0.5,-0.5,-0.5,-0.5,-0.5,-0.5,-0.5,-0.5,-0.5,-0.5,linear,0.025,TRUE,5,fixmodel,0.8333,-0.0010581050151552342,0.00727281343773893,0,10000
10,250,0,300,600,900,1200,1500,1800,2100,2400,2700,2,0,1,0.25,0.25,0.25,0.25,0.25,0.25,0.25,0.25,0.25,0.25,-0.5,-0.5,-0.5,-0.5,-0.5,-0.5,-0.5,-0.5,-0.5,-0.5,-0.5,linear,0.025,TRUE,5,poolmodel,0.4983,-0.10525326272089176,0.016520886956607896,0,10000
10,250,0,300,600,900,1200,1500,1800,2100,2400,2700,2,0,1,0.25,0.25,0.25,0.25,0.25,0.25,0.25,0.25,0.25,0.25,-0.5,-0.5,-0.5,-0.5,-0.5,-0.5,-0.5,-0.5,-0.5,-0.5,-0.5,linear,0.025,TRUE,5,sepmodel,0.7869,-0.0015032352999725556,0.008025133726576096,0,10000
10,250,0,300,600,900,1200,1500,1800,2100,2400,2700,2,0,1,0.25,0.25,0.25,0.25,0.25,0.25,0.25,0.25,0.25,0.25,-0.5,-0.5,-0.5,-0.5,-0.5,-0.5,-0.5,-0.5,-0.5,-0.5,-0.5,linear,0.025,TRUE,6,fixmodel,0.8367,-0.0012011889669992582,0.007226388994878736,0,10000
10,250,0,300,600,900,1200,1500,1800,2100,2400,2700,2,0,1,0.25,0.25,0.25,0.25,0.25,0.25,0.25,0.25,0.25,0.25,-0.5,-0.5,-0.5,-0.5,-0.5,-0.5,-0.5,-0.5,-0.5,-0.5,-0.5,linear,0.025,TRUE,6,poolmodel,0.3736,-0.1300472784309387,0.02224380145708882,0,10000
10,250,0,300,600,900,1200,1500,1800,2100,2400,2700,2,0,1,0.25,0.25,0.25,0.25,0.25,0.25,0.25,0.25,0.25,0.25,-0.5,-0.5,-0.5,-0.5,-0.5,-0.5,-0.5,-0.5,-0.5,-0.5,-0.5,linear,0.025,TRUE,6,sepmodel,0.7861,-0.0017791667605612021,0.008076298348874383,0,10000
10,250,0,300,600,900,1200,1500,1800,2100,2400,2700,2,0,1,0.25,0.25,0.25,0.25,0.25,0.25,0.25,0.25,0.25,0.25,-0.5,-0.5,-0.5,-0.5,-0.5,-0.5,-0.5,-0.5,-0.5,-0.5,-0.5,linear,0.025,TRUE,7,fixmodel,0.8341,-0.0010262395184473154,0.007167515342430619,0,10000
10,250,0,300,600,900,1200,1500,1800,2100,2400,2700,2,0,1,0.25,0.25,0.25,0.25,0.25,0.25,0.25,0.25,0.25,0.25,-0.5,-0.5,-0.5,-0.5,-0.5,-0.5,-0.5,-0.5,-0.5,-0.5,-0.5,linear,0.025,TRUE,7,poolmodel,0.2584,-0.15503019877188629,0.029294126448770875,0,10000
10,250,0,300,600,900,1200,1500,1800,2100,2400,2700,2,0,1,0.25,0.25,0.25,0.25,0.25,0.25,0.25,0.25,0.25,0.25,-0.5,-0.5,-0.5,-0.5,-0.5,-0.5,-0.5,-0.5,-0.5,-0.5,-0.5,linear,0.025,TRUE,7,sepmodel,0.788,-0.0016261092011341405,0.007988211295366792,0,10000
10,250,0,300,600,900,1200,1500,1800,2100,2400,2700,2,0,1,0.25,0.25,0.25,0.25,0.25,0.25,0.25,0.25,0.25,0.25,-0.5,-0.5,-0.5,-0.5,-0.5,-0.5,-0.5,-0.5,-0.5,-0.5,-0.5,linear,0.025,TRUE,8,fixmodel,0.8367,-6.384040844490112e-4,0.007192655409879307,0,10000
10,250,0,300,600,900,1200,1500,1800,2100,2400,2700,2,0,1,0.25,0.25,0.25,0.25,0.25,0.25,0.25,0.25,0.25,0.25,-0.5,-0.5,-0.5,-0.5,-0.5,-0.5,-0.5,-0.5,-0.5,-0.5,-0.5,linear,0.025,TRUE,8,poolmodel,0.1639,-0.1791418801124167,0.03723399685347345,0,10000
10,250,0,300,600,900,1200,1500,1800,2100,2400,2700,2,0,1,0.25,0.25,0.25,0.25,0.25,0.25,0.25,0.25,0.25,0.25,-0.5,-0.5,-0.5,-0.5,-0.5,-0.5,-0.5,-0.5,-0.5,-0.5,-0.5,linear,0.025,TRUE,8,sepmodel,0.7942,-6.171583578564256e-4,0.00802969896028812,0,10000
10,250,0,300,600,900,1200,1500,1800,2100,2400,2700,2,0,1,0.25,0.25,0.25,0.25,0.25,0.25,0.25,0.25,0.25,0.25,-0.5,-0.5,-0.5,-0.5,-0.5,-0.5,-0.5,-0.5,-0.5,-0.5,-0.5,linear,0.025,TRUE,9,fixmodel,0.8341,-0.0028114760943982187,0.007156174741525707,0,10000
10,250,0,300,600,900,1200,1500,1800,2100,2400,2700,2,0,1,0.25,0.25,0.25,0.25,0.25,0.25,0.25,0.25,0.25,0.25,-0.5,-0.5,-0.5,-0.5,-0.5,-0.5,-0.5,-0.5,-0.5,-0.5,-0.5,linear,0.025,TRUE,9,poolmodel,0.0946,-0.20293431851350405,0.046215983438866695,0,10000
10,250,0,300,600,900,1200,1500,1800,2100,2400,2700,2,0,1,0.25,0.25,0.25,0.25,0.25,0.25,0.25,0.25,0.25,0.25,-0.5,-0.5,-0.5,-0.5,-0.5,-0.5,-0.5,-0.5,-0.5,-0.5,-0.5,linear,0.025,TRUE,9,sepmodel,0.7848,-0.0028555006235489577,0.008115755949591921,0,10000
10,250,0,300,600,900,1200,1500,1800,2100,2400,2700,2,0,1,0.25,0.25,0.25,0.25,0.25,0.25,0.25,0.25,0.25,0.25,-0.5,-0.5,-0.5,-0.5,-0.5,-0.5,-0.5,-0.5,-0.5,-0.5,-0.5,linear,0.025,TRUE,10,fixmodel,0.8439,-4.594176239452427e-4,0.007106169023360632,0,10000
10,250,0,300,600,900,1200,1500,1800,2100,2400,2700,2,0,1,0.25,0.25,0.25,0.25,0.25,0.25,0.25,0.25,0.25,0.25,-0.5,-0.5,-0.5,-0.5,-0.5,-0.5,-0.5,-0.5,-0.5,-0.5,-0.5,linear,0.025,TRUE,10,poolmodel,0.0626,-0.21825616858877603,0.05267299880800123,0,10000
10,250,0,300,600,900,1200,1500,1800,2100,2400,2700,2,0,1,0.25,0.25,0.25,0.25,0.25,0.25,0.25,0.25,0.25,0.25,-0.5,-0.5,-0.5,-0.5,-0.5,-0.5,-0.5,-0.5,-0.5,-0.5,-0.5,linear,0.025,TRUE,10,sepmodel,0.7945,-2.7354270362011794e-4,0.008075224008006789,0,10000
10,250,0,325,650,975,1300,1625,1950,2275,2600,2925,2,0,1,0.25,0.25,0.25,0.25,0.25,0.25,0.25,0.25,0.25,0.25,-0.5,-0.5,-0.5,-0.5,-0.5,-0.5,-0.5,-0.5,-0.5,-0.5,-0.5,linear,0.025,TRUE,2,fixmodel,0.8294,8.430034209646557e-4,0.007341385423856273,0,10000
10,250,0,325,650,975,1300,1625,1950,2275,2600,2925,2,0,1,0.25,0.25,0.25,0.25,0.25,0.25,0.25,0.25,0.25,0.25,-0.5,-0.5,-0.5,-0.5,-0.5,-0.5,-0.5,-0.5,-0.5,-0.5,-0.5,linear,0.025,TRUE,2,poolmodel,0.7934,-0.027607363413858256,0.007087811703358953,0,10000
10,250,0,325,650,975,1300,1625,1950,2275,2600,2925,2,0,1,0.25,0.25,0.25,0.25,0.25,0.25,0.25,0.25,0.25,0.25,-0.5,-0.5,-0.5,-0.5,-0.5,-0.5,-0.5,-0.5,-0.5,-0.5,-0.5,linear,0.025,TRUE,2,sepmodel,0.8062,8.719897277915267e-4,0.007859671687946579,0,10000
10,250,0,325,650,975,1300,1625,1950,2275,2600,2925,2,0,1,0.25,0.25,0.25,0.25,0.25,0.25,0.25,0.25,0.25,0.25,-0.5,-0.5,-0.5,-0.5,-0.5,-0.5,-0.5,-0.5,-0.5,-0.5,-0.5,linear,0.025,TRUE,3,fixmodel,0.8251,-3.6314786269108255e-4,0.007489789899953428,0,10000
10,250,0,325,650,975,1300,1625,1950,2275,2600,2925,2,0,1,0.25,0.25,0.25,0.25,0.25,0.25,0.25,0.25,0.25,0.25,-0.5,-0.5,-0.5,-0.5,-0.5,-0.5,-0.5,-0.5,-0.5,-0.5,-0.5,linear,0.025,TRUE,3,poolmodel,0.7267,-0.05350838542601105,0.008750086239004213,0,10000
10,250,0,325,650,975,1300,1625,1950,2275,2600,2925,2,0,1,0.25,0.25,0.25,0.25,0.25,0.25,0.25,0.25,0.25,0.25,-0.5,-0.5,-0.5,-0.5,-0.5,-0.5,-0.5,-0.5,-0.5,-0.5,-0.5,linear,0.025,TRUE,3,sepmodel,0.7924,-2.1323492282640101e-4,0.008053416720199585,0,10000
10,250,0,325,650,975,1300,1625,1950,2275,2600,2925,2,0,1,0.25,0.25,0.25,0.25,0.25,0.25,0.25,0.25,0.25,0.25,-0.5,-0.5,-0.5,-0.5,-0.5,-0.5,-0.5,-0.5,-0.5,-0.5,-0.5,linear,0.025,TRUE,4,fixmodel,0.8291,3.0951468486258135e-4,0.007478054897781224,0,10000
10,250,0,325,650,975,1300,1625,1950,2275,2600,2925,2,0,1,0.25,0.25,0.25,0.25,0.25,0.25,0.25,0.25,0.25,0.25,-0.5,-0.5,-0.5,-0.5,-0.5,-0.5,-0.5,-0.5,-0.5,-0.5,-0.5,linear,0.025,TRUE,4,poolmodel,0.6244,-0.07865499273413024,0.011936633627013105,0,10000
10,250,0,325,650,975,1300,1625,1950,2275,2600,2925,2,0,1,0.25,0.25,0.25,0.25,0.25,0.25,0.25,0.25,0.25,0.25,-0.5,-0.5,-0.5,-0.5,-0.5,-0.5,-0.5,-0.5,-0.5,-0.5,-0.5,linear,0.025,TRUE,4,sepmodel,0.7953,4.596537709821905e-4,0.008205296232665167,0,10000
10,250,0,325,650,975,1300,1625,1950,2275,2600,2925,2,0,1,0.25,0.25,0.25,0.25,0.25,0.25,0.25,0.25,0.25,0.25,-0.5,-0.5,-0.5,-0.5,-0.5,-0.5,-0.5,-0.5,-0.5,-0.5,-0.5,linear,0.025,TRUE,5,fixmodel,0.8366,-0.0011884766120873619,0.007202797537414532,0,10000
10,250,0,325,650,975,1300,1625,1950,2275,2600,2925,2,0,1,0.25,0.25,0.25,0.25,0.25,0.25,0.25,0.25,0.25,0.25,-0.5,-0.5,-0.5,-0.5,-0.5,-0.5,-0.5,-0.5,-0.5,-0.5,-0.5,linear,0.025,TRUE,5,poolmodel,0.5042,-0.1054408710668768,0.016357354506329545,0,10000
10,250,0,325,650,975,1300,1625,1950,2275,2600,2925,2,0,1,0.25,0.25,0.25,0.25,0.25,0.25,0.25,0.25,0.25,0.25,-0.5,-0.5,-0.5,-0.5,-0.5,-0.5,-0.5,-0.5,-0.5,-0.5,-0.5,linear,0.025,TRUE,5,sepmodel,0.7916,-0.0017735743104958944,0.008044338098456174,0,10000
10,250,0,325,650,975,1300,1625,1950,2275,2600,2925,2,0,1,0.25,0.25,0.25,0.25,0.25,0.25,0.25,0.25,0.25,0.25,-0.5,-0.5,-0.5,-0.5,-0.5,-0.5,-0.5,-0.5,-0.5,-0.5,-0.5,linear,0.025,TRUE,6,fixmodel,0.8349,-6.844430639398302e-4,0.007262141130618886,0,10000
10,250,0,325,650,975,1300,1625,1950,2275,2600,2925,2,0,1,0.25,0.25,0.25,0.25,0.25,0.25,0.25,0.25,0.25,0.25,-0.5,-0.5,-0.5,-0.5,-0.5,-0.5,-0.5,-0.5,-0.5,-0.5,-0.5,linear,0.025,TRUE,6,poolmodel,0.3777,-0.12985614452471902,0.02210772655581144,0,10000
10,250,0,325,650,975,1300,1625,1950,2275,2600,2925,2,0,1,0.25,0.25,0.25,0.25,0.25,0.25,0.25,0.25,0.25,0.25,-0.5,-0.5,-0.5,-0.5,-0.5,-0.5,-0.5,-0.5,-0.5,-0.5,-0.5,linear,0.025,TRUE,6,sepmodel,0.7971,-8.825987496520845e-4,0.008116822540752392,0,10000
10,250,0,325,650,975,1300,1625,1950,2275,2600,2925,2,0,1,0.25,0.25,0.25,0.25,0.25,0.25,0.25,0.25,0.25,0.25,-0.5,-0.5,-0.5,-0.5,-0.5,-0.5,-0.5,-0.5,-0.5,-0.5,-0.5,linear,0.025,TRUE,7,fixmodel,0.8384,-1.3528954445185206e-4,0.007031513206027129,0,10000
10,250,0,325,650,975,1300,1625,1950,2275,2600,2925,2,0,1,0.25,0.25,0.25,0.25,0.25,0.25,0.25,0.25,0.25,0.25,-0.5,-0.5,-0.5,-0.5,-0.5,-0.5,-0.5,-0.5,-0.5,-0.5,-0.5,linear,0.025,TRUE,7,poolmodel,0.2652,-0.1538165078004306,0.02863830527774319,0,10000
10,250,0,325,650,975,1300,1625,1950,2275,2600,2925,2,0,1,0.25,0.25,0.25,0.25,0.25,0.25,0.25,0.25,0.25,0.25,-0.5,-0.5,-0.5,-0.5,-0.5,-0.5,-0.5,-0.5,-0.5,-0.5,-0.5,linear,0.025,TRUE,7,sepmodel,0.7974,-2.077329944243544e-4,0.007731146926195623,0,10000
10,250,0,325,650,975,1300,1625,1950,2275,2600,2925,2,0,1,0.25,0.25,0.25,0.25,0.25,0.25,0.25,0.25,0.25,0.25,-0.5,-0.5,-0.5,-0.5,-0.5,-0.5,-0.5,-0.5,-0.5,-0.5,-0.5,linear,0.025,TRUE,8,fixmodel,0.8374,-6.764916705432044e-4,0.007205620008316684,0,10000
10,250,0,325,650,975,1300,1625,1950,2275,2600,2925,2,0,1,0.25,0.25,0.25,0.25,0.25,0.25,0.25,0.25,0.25,0.25,-0.5,-0.5,-0.5,-0.5,-0.5,-0.5,-0.5,-0.5,-0.5,-0.5,-0.5,linear,0.025,TRUE,8,poolmodel,0.165,-0.17969386166291731,0.03729101627715657,0,10000
10,250,0,325,650,975,1300,1625,1950,2275,2600,2925,2,0,1,0.25,0.25,0.25,0.25,0.25,0.25,0.25,0.25,0.25,0.25,-0.5,-0.5,-0.5,-0.5,-0.5,-0.5,-0.5,-0.5,-0.5,-0.5,-0.5,linear,0.025,TRUE,8,sepmodel,0.7931,-6.512975424881163e-4,0.007984418885233898,0,10000
10,250,0,325,650,975,1300,1625,1950,2275,2600,2925,2,0,1,0.25,0.25,0.25,0.25,0.25,0.25,0.25,0.25,0.25,0.25,-0.5,-0.5,-0.5,-0.5,-0.5,-0.5,-0.5,-0.5,-0.5,-0.5,-0.5,linear,0.025,TRUE,9,fixmodel,0.8426,9.685116399113077e-4,0.007088220765666891,0,10000
10,250,0,325,650,975,1300,1625,1950,2275,2600,2925,2,0,1,0.25,0.25,0.25,0.25,0.25,0.25,0.25,0.25,0.25,0.25,-0.5,-0.5,-0.5,-0.5,-0.5,-0.5,-0.5,-0.5,-0.5,-0.5,-0.5,linear,0.025,TRUE,9,poolmodel,0.1014,-0.2012777383682418,0.04537918508429895,0,10000
10,250,0,325,650,975,1300,1625,1950,2275,2600,2925,2,0,1,0.25,0.25,0.25,0.25,0.25,0.25,0.25,0.25,0.25,0.25,-0.5,-0.5,-0.5,-0.5,-0.5,-0.5,-0.5,-0.5,-0.5,-0.5,-0.5,linear,0.025,TRUE,9,sepmodel,0.8018,8.97154692506679e-4,0.007856271533686433,0,10000
10,250,0,325,650,975,1300,1625,1950,2275,2600,2925,2,0,1,0.25,0.25,0.25,0.25,0.25,0.25,0.25,0.25,0.25,0.25,-0.5,-0.5,-0.5,-0.5,-0.5,-0.5,-0.5,-0.5,-0.5,-0.5,-0.5,linear,0.025,TRUE,10,fixmodel,0.8341,1.3585651069142622e-4,0.007380384871066068,0,10000
10,250,0,325,650,975,1300,1625,1950,2275,2600,2925,2,0,1,0.25,0.25,0.25,0.25,0.25,0.25,0.25,0.25,0.25,0.25,-0.5,-0.5,-0.5,-0.5,-0.5,-0.5,-0.5,-0.5,-0.5,-0.5,-0.5,linear,0.025,TRUE,10,poolmodel,0.0657,-0.22011012056401896,0.05342268110312737,0,10000
10,250,0,325,650,975,1300,1625,1950,2275,2600,2925,2,0,1,0.25,0.25,0.25,0.25,0.25,0.25,0.25,0.25,0.25,0.25,-0.5,-0.5,-0.5,-0.5,-0.5,-0.5,-0.5,-0.5,-0.5,-0.5,-0.5,linear,0.025,TRUE,10,sepmodel,0.793,3.8468828858860126e-4,0.00814743366700483,0,10000
10,250,0,350,700,1050,1400,1750,2100,2450,2800,3150,2,0,1,0.25,0.25,0.25,0.25,0.25,0.25,0.25,0.25,0.25,0.25,-0.5,-0.5,-0.5,-0.5,-0.5,-0.5,-0.5,-0.5,-0.5,-0.5,-0.5,linear,0.025,TRUE,2,fixmodel,0.824,7.480309637419676e-4,0.007350300673130451,0,10000
10,250,0,350,700,1050,1400,1750,2100,2450,2800,3150,2,0,1,0.25,0.25,0.25,0.25,0.25,0.25,0.25,0.25,0.25,0.25,-0.5,-0.5,-0.5,-0.5,-0.5,-0.5,-0.5,-0.5,-0.5,-0.5,-0.5,linear,0.025,TRUE,2,poolmodel,0.7978,-0.026729327229511924,0.006917195045795016,0,10000
10,250,0,350,700,1050,1400,1750,2100,2450,2800,3150,2,0,1,0.25,0.25,0.25,0.25,0.25,0.25,0.25,0.25,0.25,0.25,-0.5,-0.5,-0.5,-0.5,-0.5,-0.5,-0.5,-0.5,-0.5,-0.5,-0.5,linear,0.025,TRUE,2,sepmodel,0.7967,0.0011013267210706734,0.007891715711082064,0,10000
10,250,0,350,700,1050,1400,1750,2100,2450,2800,3150,2,0,1,0.25,0.25,0.25,0.25,0.25,0.25,0.25,0.25,0.25,0.25,-0.5,-0.5,-0.5,-0.5,-0.5,-0.5,-0.5,-0.5,-0.5,-0.5,-0.5,linear,0.025,TRUE,3,fixmodel,0.8311,4.5045412032895555e-4,0.0072379841381773995,0,10000
10,250,0,350,700,1050,1400,1750,2100,2450,2800,3150,2,0,1,0.25,0.25,0.25,0.25,0.25,0.25,0.25,0.25,0.25,0.25,-0.5,-0.5,-0.5,-0.5,-0.5,-0.5,-0.5,-0.5,-0.5,-0.5,-0.5,linear,0.025,TRUE,3,poolmodel,0.7381,-0.053207119059311525,0.008542048525765322,0,10000
10,250,0,350,700,1050,1400,1750,2100,2450,2800,3150,2,0,1,0.25,0.25,0.25,0.25,0.25,0.25,0.25,0.25,0.25,0.25,-0.5,-0.5,-0.5,-0.5,-0.5,-0.5,-0.5,-0.5,-0.5,-0.5,-0.5,linear,0.025,TRUE,3,sepmodel,0.8055,4.991922757766208e-4,0.007792809317462046,0,10000
10,250,0,350,700,1050,1400,1750,2100,2450,2800,3150,2,0,1,0.25,0.25,0.25,0.25,0.25,0.25,0.25,0.25,0.25,0.25,-0.5,-0.5,-0.5,-0.5,-0.5,-0.5,-0.5,-0.5,-0.5,-0.5,-0.5,linear,0.025,TRUE,4,fixmodel,0.8281,3.424255855230951e-4,0.007242957830822948,0,10000
10,250,0,350,700,1050,1400,1750,2100,2450,2800,3150,2,0,1,0.25,0.25,0.25,0.25,0.25,0.25,0.25,0.25,0.25,0.25,-0.5,-0.5,-0.5,-0.5,-0.5,-0.5,-0.5,-0.5,-0.5,-0.5,-0.5,linear,0.025,TRUE,4,poolmodel,0.6427,-0.07808372409537828,0.011479989129110869,0,10000
10,250,0,350,700,1050,1400,1750,2100,2450,2800,3150,2,0,1,0.25,0.25,0.25,0.25,0.25,0.25,0.25,0.25,0.25,0.25,-0.5,-0.5,-0.5,-0.5,-0.5,-0.5,-0.5,-0.5,-0.5,-0.5,-0.5,linear,0.025,TRUE,4,sepmodel,0.7977,2.3234742713021148e-4,0.007855435526669927,0,10000
10,250,0,350,700,1050,1400,1750,2100,2450,2800,3150,2,0,1,0.25,0.25,0.25,0.25,0.25,0.25,0.25,0.25,0.25,0.25,-0.5,-0.5,-0.5,-0.5,-0.5,-0.5,-0.5,-0.5,-0.5,-0.5,-0.5,linear,0.025,TRUE,5,fixmodel,0.8281,3.062712686685273e-4,0.007352712617911204,0,10000
10,250,0,350,700,1050,1400,1750,2100,2450,2800,3150,2,0,1,0.25,0.25,0.25,0.25,0.25,0.25,0.25,0.25,0.25,0.25,-0.5,-0.5,-0.5,-0.5,-0.5,-0.5,-0.5,-0.5,-0.5,-0.5,-0.5,linear,0.025,TRUE,5,poolmodel,0.5208,-0.10331601478514385,0.015986937218729277,0,10000
10,250,0,350,700,1050,1400,1750,2100,2450,2800,3150,2,0,1,0.25,0.25,0.25,0.25,0.25,0.25,0.25,0.25,0.25,0.25,-0.5,-0.5,-0.5,-0.5,-0.5,-0.5,-0.5,-0.5,-0.5,-0.5,-0.5,linear,0.025,TRUE,5,sepmodel,0.7925,-1.146987045438353e-4,0.008037019157015365,0,10000
10,250,0,350,700,1050,1400,1750,2100,2450,2800,3150,2,0,1,0.25,0.25,0.25,0.25,0.25,0.25,0.25,0.25,0.25,0.25,-0.5,-0.5,-0.5,-0.5,-0.5,-0.5,-0.5,-0.5,-0.5,-0.5,-0.5,linear,0.025,TRUE,6,fixmodel,0.8304,-1.3027836200258676e-4,0.007410037131531715,0,10000
10,250,0,350,700,1050,1400,1750,2100,2450,2800,3150,2,0,1,0.25,0.25,0.25,0.25,0.25,0.25,0.25,0.25,0.25,0.25,-0.5,-0.5,-0.5,-0.5,-0.5,-0.5,-0.5,-0.5,-0.5,-0.5,-0.5,linear,0.025,TRUE,6,poolmodel,0.3979,-0.12801730397687444,0.021612195336639786,0,10000
10,250,0,350,700,1050,1400,1750,2100,2450,2800,3150,2,0,1,0.25,0.25,0.25,0.25,0.25,0.25,0.25,0.25,0.25,0.25,-0.5,-0.5,-0.5,-0.5,-0.5,-0.5,-0.5,-0.5,-0.5,-0.5,-0.5,linear,0.025,TRUE,6,sepmodel,0.7941,-8.334424813178851e-4,0.008091200247995412,0,10000
10,250,0,350,700,1050,1400,1750,2100,2450,2800,3150,2,0,1,0.25,0.25,0.25,0.25,0.25,0.25,0.25,0.25,0.25,0.25,-0.5,-0.5,-0.5,-0.5,-0.5,-0.5,-0.5,-0.5,-0.5,-0.5,-0.5,linear,0.025,TRUE,7,fixmodel,0.8309,-7.662930683953995e-4,0.007288150644490762,0,10000
10,250,0,350,700,1050,1400,1750,2100,2450,2800,3150,2,0,1,0.25,0.25,0.25,0.25,0.25,0.25,0.25,0.25,0.25,0.25,-0.5,-0.5,-0.5,-0.5,-0.5,-0.5,-0.5,-0.5,-0.5,-0.5,-0.5,linear,0.025,TRUE,7,poolmodel,0.2747,-0.15301610888578487,0.028385703091019596,0,10000
10,250,0,350,700,1050,1400,1750,2100,2450,2800,3150,2,0,1,0.25,0.25,0.25,0.25,0.25,0.25,0.25,0.25,0.25,0.25,-0.5,-0.5,-0.5,-0.5,-0.5,-0.5,-0.5,-0.5,-0.5,-0.5,-0.5,linear,0.025,TRUE,7,sepmodel,0.7936,-7.889630028987237e-4,0.007924455903378353,0,10000
10,250,0,350,700,1050,1400,1750,2100,2450,2800,3150,2,0,1,0.25,0.25,0.25,0.25,0.25,0.25,0.25,0.25,0.25,0.25,-0.5,-0.5,-0.5,-0.5,-0.5,-0.5,-0.5,-0.5,-0.5,-0.5,-0.5,linear,0.025,TRUE,8,fixmodel,0.828,-6.867345858077881e-4,0.007315449280264134,0,10000
10,250,0,350,700,1050,1400,1750,2100,2450,2800,3150,2,0,1,0.25,0.25,0.25,0.25,0.25,0.25,0.25,0.25,0.25,0.25,-0.5,-0.5,-0.5,-0.5,-0.5,-0.5,-0.5,-0.5,-0.5,-0.5,-0.5,linear,0.025,TRUE,8,poolmodel,0.1733,-0.17750138380922797,0.03639278459002037,0,10000
10,250,0,350,700,1050,1400,1750,2100,2450,2800,3150,2,0,1,0.25,0.25,0.25,0.25,0.25,0.25,0.25,0.25,0.25,0.25,-0.5,-0.5,-0.5,-0.5,-0.5,-0.5,-0.5,-0.5,-0.5,-0.5,-0.5,linear,0.025,TRUE,8,sepmodel,0.7957,-2.221586539859031e-4,0.008009695796053162,0,10000
10,250,0,350,700,1050,1400,1750,2100,2450,2800,3150,2,0,1,0.25,0.25,0.25,0.25,0.25,0.25,0.25,0.25,0.25,0.25,-0.5,-0.5,-0.5,-0.5,-0.5,-0.5,-0.5,-0.5,-0.5,-0.5,-0.5,linear,0.025,TRUE,9,fixmodel,0.8332,2.1078614484179682e-5,0.0072269819121091134,0,10000
10,250,0,350,700,1050,1400,1750,2100,2450,2800,3150,2,0,1,0.25,0.25,0.25,0.25,0.25,0.25,0.25,0.25,0.25,0.25,-0.5,-0.5,-0.5,-0.5,-0.5,-0.5,-0.5,-0.5,-0.5,-0.5,-0.5,linear,0.025,TRUE,9,poolmodel,0.1017,-0.201982342486327,0.045573039775865534,0,10000
10,250,0,350,700,1050,1400,1750,2100,2450,2800,3150,2,0,1,0.25,0.25,0.25,0.25,0.25,0.25,0.25,0.25,0.25,0.25,-0.5,-0.5,-0.5,-0.5,-0.5,-0.5,-0.5,-0.5,-0.5,-0.5,-0.5,linear,0.025,TRUE,9,sepmodel,0.7978,3.6133974280036794e-4,0.007969726379295581,0,10000
10,250,0,350,700,1050,1400,1750,2100,2450,2800,3150,2,0,1,0.25,0.25,0.25,0.25,0.25,0.25,0.25,0.25,0.25,0.25,-0.5,-0.5,-0.5,-0.5,-0.5,-0.5,-0.5,-0.5,-0.5,-0.5,-0.5,linear,0.025,TRUE,10,fixmodel,0.8364,7.080055129481007e-4,0.007408211962475655,0,10000
10,250,0,350,700,1050,1400,1750,2100,2450,2800,3150,2,0,1,0.25,0.25,0.25,0.25,0.25,0.25,0.25,0.25,0.25,0.25,-0.5,-0.5,-0.5,-0.5,-0.5,-0.5,-0.5,-0.5,-0.5,-0.5,-0.5,linear,0.025,TRUE,10,poolmodel,0.0581,-0.22114233810185954,0.053684280651868796,0,10000
10,250,0,350,700,1050,1400,1750,2100,2450,2800,3150,2,0,1,0.25,0.25,0.25,0.25,0.25,0.25,0.25,0.25,0.25,0.25,-0.5,-0.5,-0.5,-0.5,-0.5,-0.5,-0.5,-0.5,-0.5,-0.5,-0.5,linear,0.025,TRUE,10,sepmodel,0.792,9.827153305721507e-4,0.008151114383899968,0,10000
10,250,0,375,750,1125,1500,1875,2250,2625,3000,3375,2,0,1,0.25,0.25,0.25,0.25,0.25,0.25,0.25,0.25,0.25,0.25,-0.5,-0.5,-0.5,-0.5,-0.5,-0.5,-0.5,-0.5,-0.5,-0.5,-0.5,linear,0.025,TRUE,2,fixmodel,0.8117,-0.0017344620659937432,0.007479902048426733,0,10000
10,250,0,375,750,1125,1500,1875,2250,2625,3000,3375,2,0,1,0.25,0.25,0.25,0.25,0.25,0.25,0.25,0.25,0.25,0.25,-0.5,-0.5,-0.5,-0.5,-0.5,-0.5,-0.5,-0.5,-0.5,-0.5,-0.5,linear,0.025,TRUE,2,poolmodel,0.7978,-0.029010135181400533,0.007066691336554896,0,10000
