pavlakrotka/MASTERARBEIT/simulations_12_2022/results/results_iv_eq_pow.csv
num_arms,n_arm,d1,d2,d3,d4,d5,d6,d7,period_blocks,mu0,sigma,theta1,theta2,theta3,theta4,theta5,theta6,theta7,lambda0,lambda1,lambda2,lambda3,lambda4,lambda5,lambda6,lambda7,trend,alpha,ncc,unit_size,ci,bs_degree,poly_degree,n_wave,N_peak,timetrend,hypothesis,study_arm,model,reject_h0,failed,nsim
7,250,0,250,250,500,500,750,750,2,0,1,0.25,0.25,0.25,0.25,0.25,0.25,0.25,-0.5,-0.5,-0.5,-0.5,-0.5,-0.5,-0.5,-0.5,linear,0.025,TRUE,25,FALSE,1,1,NA,914,EQ,H1,2,fixmodel,0.825,0,1000
7,250,0,250,250,500,500,750,750,2,0,1,0.25,0.25,0.25,0.25,0.25,0.25,0.25,-0.5,-0.5,-0.5,-0.5,-0.5,-0.5,-0.5,-0.5,linear,0.025,TRUE,25,FALSE,1,1,NA,914,EQ,H1,2,fixmodel_cal,0.824,0,1000
7,250,0,250,250,500,500,750,750,2,0,1,0.25,0.25,0.25,0.25,0.25,0.25,0.25,-0.5,-0.5,-0.5,-0.5,-0.5,-0.5,-0.5,-0.5,linear,0.025,TRUE,25,FALSE,1,1,NA,914,EQ,H1,2,mixmodel,0.77,0,1000
7,250,0,250,250,500,500,750,750,2,0,1,0.25,0.25,0.25,0.25,0.25,0.25,0.25,-0.5,-0.5,-0.5,-0.5,-0.5,-0.5,-0.5,-0.5,linear,0.025,TRUE,25,FALSE,1,1,NA,914,EQ,H1,2,mixmodel_AR1,0.76,0,1000
7,250,0,250,250,500,500,750,750,2,0,1,0.25,0.25,0.25,0.25,0.25,0.25,0.25,-0.5,-0.5,-0.5,-0.5,-0.5,-0.5,-0.5,-0.5,linear,0.025,TRUE,25,FALSE,1,1,NA,914,EQ,H1,2,mixmodel_AR1_cal,0.77,0,1000
7,250,0,250,250,500,500,750,750,2,0,1,0.25,0.25,0.25,0.25,0.25,0.25,0.25,-0.5,-0.5,-0.5,-0.5,-0.5,-0.5,-0.5,-0.5,linear,0.025,TRUE,25,FALSE,1,1,NA,914,EQ,H1,2,mixmodel_cal,0.653,0,1000
7,250,0,250,250,500,500,750,750,2,0,1,0.25,0.25,0.25,0.25,0.25,0.25,0.25,-0.5,-0.5,-0.5,-0.5,-0.5,-0.5,-0.5,-0.5,linear,0.025,TRUE,25,FALSE,1,1,NA,914,EQ,H1,2,piecewise,0.824,0,1000
7,250,0,250,250,500,500,750,750,2,0,1,0.25,0.25,0.25,0.25,0.25,0.25,0.25,-0.5,-0.5,-0.5,-0.5,-0.5,-0.5,-0.5,-0.5,linear,0.025,TRUE,25,FALSE,1,1,NA,914,EQ,H1,2,piecewise_cal,0.821,0,1000
7,250,0,250,250,500,500,750,750,2,0,1,0.25,0.25,0.25,0.25,0.25,0.25,0.25,-0.5,-0.5,-0.5,-0.5,-0.5,-0.5,-0.5,-0.5,linear,0.025,TRUE,25,FALSE,1,1,NA,914,EQ,H1,2,poolmodel,0.623,0,1000
7,250,0,250,250,500,500,750,750,2,0,1,0.25,0.25,0.25,0.25,0.25,0.25,0.25,-0.5,-0.5,-0.5,-0.5,-0.5,-0.5,-0.5,-0.5,linear,0.025,TRUE,25,FALSE,1,1,NA,914,EQ,H1,2,sepmodel,0.8,0,1000
7,250,0,250,250,500,500,750,750,2,0,1,0.25,0.25,0.25,0.25,0.25,0.25,0.25,-0.5,-0.5,-0.5,-0.5,-0.5,-0.5,-0.5,-0.5,linear,0.025,TRUE,25,FALSE,1,1,NA,914,EQ,H1,2,splines,0.823,0,1000
7,250,0,250,250,500,500,750,750,2,0,1,0.25,0.25,0.25,0.25,0.25,0.25,0.25,-0.5,-0.5,-0.5,-0.5,-0.5,-0.5,-0.5,-0.5,linear,0.025,TRUE,25,FALSE,1,1,NA,914,EQ,H1,2,splines_cal,0.828,0,1000
7,250,0,250,250,500,500,750,750,2,0,1,0.25,0.25,0.25,0.25,0.25,0.25,0.25,-0.5,-0.5,-0.5,-0.5,-0.5,-0.5,-0.5,-0.5,linear,0.025,TRUE,25,FALSE,1,1,NA,914,EQ,H1,3,fixmodel,0.834,0,1000
7,250,0,250,250,500,500,750,750,2,0,1,0.25,0.25,0.25,0.25,0.25,0.25,0.25,-0.5,-0.5,-0.5,-0.5,-0.5,-0.5,-0.5,-0.5,linear,0.025,TRUE,25,FALSE,1,1,NA,914,EQ,H1,3,fixmodel_cal,0.833,0,1000
7,250,0,250,250,500,500,750,750,2,0,1,0.25,0.25,0.25,0.25,0.25,0.25,0.25,-0.5,-0.5,-0.5,-0.5,-0.5,-0.5,-0.5,-0.5,linear,0.025,TRUE,25,FALSE,1,1,NA,914,EQ,H1,3,mixmodel,0.79,0,1000
7,250,0,250,250,500,500,750,750,2,0,1,0.25,0.25,0.25,0.25,0.25,0.25,0.25,-0.5,-0.5,-0.5,-0.5,-0.5,-0.5,-0.5,-0.5,linear,0.025,TRUE,25,FALSE,1,1,NA,914,EQ,H1,3,mixmodel_AR1,0.78,0,1000
7,250,0,250,250,500,500,750,750,2,0,1,0.25,0.25,0.25,0.25,0.25,0.25,0.25,-0.5,-0.5,-0.5,-0.5,-0.5,-0.5,-0.5,-0.5,linear,0.025,TRUE,25,FALSE,1,1,NA,914,EQ,H1,3,mixmodel_AR1_cal,0.786,0,1000
7,250,0,250,250,500,500,750,750,2,0,1,0.25,0.25,0.25,0.25,0.25,0.25,0.25,-0.5,-0.5,-0.5,-0.5,-0.5,-0.5,-0.5,-0.5,linear,0.025,TRUE,25,FALSE,1,1,NA,914,EQ,H1,3,mixmodel_cal,0.671,0,1000
7,250,0,250,250,500,500,750,750,2,0,1,0.25,0.25,0.25,0.25,0.25,0.25,0.25,-0.5,-0.5,-0.5,-0.5,-0.5,-0.5,-0.5,-0.5,linear,0.025,TRUE,25,FALSE,1,1,NA,914,EQ,H1,3,piecewise,0.834,0,1000
7,250,0,250,250,500,500,750,750,2,0,1,0.25,0.25,0.25,0.25,0.25,0.25,0.25,-0.5,-0.5,-0.5,-0.5,-0.5,-0.5,-0.5,-0.5,linear,0.025,TRUE,25,FALSE,1,1,NA,914,EQ,H1,3,piecewise_cal,0.833,0,1000
7,250,0,250,250,500,500,750,750,2,0,1,0.25,0.25,0.25,0.25,0.25,0.25,0.25,-0.5,-0.5,-0.5,-0.5,-0.5,-0.5,-0.5,-0.5,linear,0.025,TRUE,25,FALSE,1,1,NA,914,EQ,H1,3,poolmodel,0.639,0,1000
7,250,0,250,250,500,500,750,750,2,0,1,0.25,0.25,0.25,0.25,0.25,0.25,0.25,-0.5,-0.5,-0.5,-0.5,-0.5,-0.5,-0.5,-0.5,linear,0.025,TRUE,25,FALSE,1,1,NA,914,EQ,H1,3,sepmodel,0.8,0,1000
7,250,0,250,250,500,500,750,750,2,0,1,0.25,0.25,0.25,0.25,0.25,0.25,0.25,-0.5,-0.5,-0.5,-0.5,-0.5,-0.5,-0.5,-0.5,linear,0.025,TRUE,25,FALSE,1,1,NA,914,EQ,H1,3,splines,0.84,0,1000
7,250,0,250,250,500,500,750,750,2,0,1,0.25,0.25,0.25,0.25,0.25,0.25,0.25,-0.5,-0.5,-0.5,-0.5,-0.5,-0.5,-0.5,-0.5,linear,0.025,TRUE,25,FALSE,1,1,NA,914,EQ,H1,3,splines_cal,0.833,0,1000
7,250,0,250,250,500,500,750,750,2,0,1,0.25,0.25,0.25,0.25,0.25,0.25,0.25,-0.5,-0.5,-0.5,-0.5,-0.5,-0.5,-0.5,-0.5,linear,0.025,TRUE,25,FALSE,1,1,NA,914,EQ,H1,4,fixmodel,0.847,0,1000
7,250,0,250,250,500,500,750,750,2,0,1,0.25,0.25,0.25,0.25,0.25,0.25,0.25,-0.5,-0.5,-0.5,-0.5,-0.5,-0.5,-0.5,-0.5,linear,0.025,TRUE,25,FALSE,1,1,NA,914,EQ,H1,4,fixmodel_cal,0.831,0,1000
7,250,0,250,250,500,500,750,750,2,0,1,0.25,0.25,0.25,0.25,0.25,0.25,0.25,-0.5,-0.5,-0.5,-0.5,-0.5,-0.5,-0.5,-0.5,linear,0.025,TRUE,25,FALSE,1,1,NA,914,EQ,H1,4,mixmodel,0.757,0,1000
7,250,0,250,250,500,500,750,750,2,0,1,0.25,0.25,0.25,0.25,0.25,0.25,0.25,-0.5,-0.5,-0.5,-0.5,-0.5,-0.5,-0.5,-0.5,linear,0.025,TRUE,25,FALSE,1,1,NA,914,EQ,H1,4,mixmodel_AR1,0.759,0,1000
7,250,0,250,250,500,500,750,750,2,0,1,0.25,0.25,0.25,0.25,0.25,0.25,0.25,-0.5,-0.5,-0.5,-0.5,-0.5,-0.5,-0.5,-0.5,linear,0.025,TRUE,25,FALSE,1,1,NA,914,EQ,H1,4,mixmodel_AR1_cal,0.765,0,1000
7,250,0,250,250,500,500,750,750,2,0,1,0.25,0.25,0.25,0.25,0.25,0.25,0.25,-0.5,-0.5,-0.5,-0.5,-0.5,-0.5,-0.5,-0.5,linear,0.025,TRUE,25,FALSE,1,1,NA,914,EQ,H1,4,mixmodel_cal,0.509,0,1000
7,250,0,250,250,500,500,750,750,2,0,1,0.25,0.25,0.25,0.25,0.25,0.25,0.25,-0.5,-0.5,-0.5,-0.5,-0.5,-0.5,-0.5,-0.5,linear,0.025,TRUE,25,FALSE,1,1,NA,914,EQ,H1,4,piecewise,0.846,0,1000
7,250,0,250,250,500,500,750,750,2,0,1,0.25,0.25,0.25,0.25,0.25,0.25,0.25,-0.5,-0.5,-0.5,-0.5,-0.5,-0.5,-0.5,-0.5,linear,0.025,TRUE,25,FALSE,1,1,NA,914,EQ,H1,4,piecewise_cal,0.824,0,1000
7,250,0,250,250,500,500,750,750,2,0,1,0.25,0.25,0.25,0.25,0.25,0.25,0.25,-0.5,-0.5,-0.5,-0.5,-0.5,-0.5,-0.5,-0.5,linear,0.025,TRUE,25,FALSE,1,1,NA,914,EQ,H1,4,poolmodel,0.421,0,1000
7,250,0,250,250,500,500,750,750,2,0,1,0.25,0.25,0.25,0.25,0.25,0.25,0.25,-0.5,-0.5,-0.5,-0.5,-0.5,-0.5,-0.5,-0.5,linear,0.025,TRUE,25,FALSE,1,1,NA,914,EQ,H1,4,sepmodel,0.801,0,1000
7,250,0,250,250,500,500,750,750,2,0,1,0.25,0.25,0.25,0.25,0.25,0.25,0.25,-0.5,-0.5,-0.5,-0.5,-0.5,-0.5,-0.5,-0.5,linear,0.025,TRUE,25,FALSE,1,1,NA,914,EQ,H1,4,splines,0.844,0,1000
7,250,0,250,250,500,500,750,750,2,0,1,0.25,0.25,0.25,0.25,0.25,0.25,0.25,-0.5,-0.5,-0.5,-0.5,-0.5,-0.5,-0.5,-0.5,linear,0.025,TRUE,25,FALSE,1,1,NA,914,EQ,H1,4,splines_cal,0.831,0,1000
7,250,0,250,250,500,500,750,750,2,0,1,0.25,0.25,0.25,0.25,0.25,0.25,0.25,-0.5,-0.5,-0.5,-0.5,-0.5,-0.5,-0.5,-0.5,linear,0.025,TRUE,25,FALSE,1,1,NA,914,EQ,H1,5,fixmodel,0.845,0,1000
7,250,0,250,250,500,500,750,750,2,0,1,0.25,0.25,0.25,0.25,0.25,0.25,0.25,-0.5,-0.5,-0.5,-0.5,-0.5,-0.5,-0.5,-0.5,linear,0.025,TRUE,25,FALSE,1,1,NA,914,EQ,H1,5,fixmodel_cal,0.838,0,1000
7,250,0,250,250,500,500,750,750,2,0,1,0.25,0.25,0.25,0.25,0.25,0.25,0.25,-0.5,-0.5,-0.5,-0.5,-0.5,-0.5,-0.5,-0.5,linear,0.025,TRUE,25,FALSE,1,1,NA,914,EQ,H1,5,mixmodel,0.757,0,1000
7,250,0,250,250,500,500,750,750,2,0,1,0.25,0.25,0.25,0.25,0.25,0.25,0.25,-0.5,-0.5,-0.5,-0.5,-0.5,-0.5,-0.5,-0.5,linear,0.025,TRUE,25,FALSE,1,1,NA,914,EQ,H1,5,mixmodel_AR1,0.769,0,1000
7,250,0,250,250,500,500,750,750,2,0,1,0.25,0.25,0.25,0.25,0.25,0.25,0.25,-0.5,-0.5,-0.5,-0.5,-0.5,-0.5,-0.5,-0.5,linear,0.025,TRUE,25,FALSE,1,1,NA,914,EQ,H1,5,mixmodel_AR1_cal,0.774,0,1000
7,250,0,250,250,500,500,750,750,2,0,1,0.25,0.25,0.25,0.25,0.25,0.25,0.25,-0.5,-0.5,-0.5,-0.5,-0.5,-0.5,-0.5,-0.5,linear,0.025,TRUE,25,FALSE,1,1,NA,914,EQ,H1,5,mixmodel_cal,0.508,0,1000
7,250,0,250,250,500,500,750,750,2,0,1,0.25,0.25,0.25,0.25,0.25,0.25,0.25,-0.5,-0.5,-0.5,-0.5,-0.5,-0.5,-0.5,-0.5,linear,0.025,TRUE,25,FALSE,1,1,NA,914,EQ,H1,5,piecewise,0.845,0,1000
7,250,0,250,250,500,500,750,750,2,0,1,0.25,0.25,0.25,0.25,0.25,0.25,0.25,-0.5,-0.5,-0.5,-0.5,-0.5,-0.5,-0.5,-0.5,linear,0.025,TRUE,25,FALSE,1,1,NA,914,EQ,H1,5,piecewise_cal,0.825,0,1000
7,250,0,250,250,500,500,750,750,2,0,1,0.25,0.25,0.25,0.25,0.25,0.25,0.25,-0.5,-0.5,-0.5,-0.5,-0.5,-0.5,-0.5,-0.5,linear,0.025,TRUE,25,FALSE,1,1,NA,914,EQ,H1,5,poolmodel,0.442,0,1000
7,250,0,250,250,500,500,750,750,2,0,1,0.25,0.25,0.25,0.25,0.25,0.25,0.25,-0.5,-0.5,-0.5,-0.5,-0.5,-0.5,-0.5,-0.5,linear,0.025,TRUE,25,FALSE,1,1,NA,914,EQ,H1,5,sepmodel,0.803,0,1000
7,250,0,250,250,500,500,750,750,2,0,1,0.25,0.25,0.25,0.25,0.25,0.25,0.25,-0.5,-0.5,-0.5,-0.5,-0.5,-0.5,-0.5,-0.5,linear,0.025,TRUE,25,FALSE,1,1,NA,914,EQ,H1,5,splines,0.849,0,1000
7,250,0,250,250,500,500,750,750,2,0,1,0.25,0.25,0.25,0.25,0.25,0.25,0.25,-0.5,-0.5,-0.5,-0.5,-0.5,-0.5,-0.5,-0.5,linear,0.025,TRUE,25,FALSE,1,1,NA,914,EQ,H1,5,splines_cal,0.838,0,1000
7,250,0,250,250,500,500,750,750,2,0,1,0.25,0.25,0.25,0.25,0.25,0.25,0.25,-0.5,-0.5,-0.5,-0.5,-0.5,-0.5,-0.5,-0.5,linear,0.025,TRUE,25,FALSE,1,1,NA,914,EQ,H1,6,fixmodel,0.848,0,1000
7,250,0,250,250,500,500,750,750,2,0,1,0.25,0.25,0.25,0.25,0.25,0.25,0.25,-0.5,-0.5,-0.5,-0.5,-0.5,-0.5,-0.5,-0.5,linear,0.025,TRUE,25,FALSE,1,1,NA,914,EQ,H1,6,fixmodel_cal,0.857,0,1000
7,250,0,250,250,500,500,750,750,2,0,1,0.25,0.25,0.25,0.25,0.25,0.25,0.25,-0.5,-0.5,-0.5,-0.5,-0.5,-0.5,-0.5,-0.5,linear,0.025,TRUE,25,FALSE,1,1,NA,914,EQ,H1,6,mixmodel,0.739,0,1000
7,250,0,250,250,500,500,750,750,2,0,1,0.25,0.25,0.25,0.25,0.25,0.25,0.25,-0.5,-0.5,-0.5,-0.5,-0.5,-0.5,-0.5,-0.5,linear,0.025,TRUE,25,FALSE,1,1,NA,914,EQ,H1,6,mixmodel_AR1,0.774,0,1000
7,250,0,250,250,500,500,750,750,2,0,1,0.25,0.25,0.25,0.25,0.25,0.25,0.25,-0.5,-0.5,-0.5,-0.5,-0.5,-0.5,-0.5,-0.5,linear,0.025,TRUE,25,FALSE,1,1,NA,914,EQ,H1,6,mixmodel_AR1_cal,0.769,0,1000
7,250,0,250,250,500,500,750,750,2,0,1,0.25,0.25,0.25,0.25,0.25,0.25,0.25,-0.5,-0.5,-0.5,-0.5,-0.5,-0.5,-0.5,-0.5,linear,0.025,TRUE,25,FALSE,1,1,NA,914,EQ,H1,6,mixmodel_cal,0.356,0,1000
7,250,0,250,250,500,500,750,750,2,0,1,0.25,0.25,0.25,0.25,0.25,0.25,0.25,-0.5,-0.5,-0.5,-0.5,-0.5,-0.5,-0.5,-0.5,linear,0.025,TRUE,25,FALSE,1,1,NA,914,EQ,H1,6,piecewise,0.848,0,1000
7,250,0,250,250,500,500,750,750,2,0,1,0.25,0.25,0.25,0.25,0.25,0.25,0.25,-0.5,-0.5,-0.5,-0.5,-0.5,-0.5,-0.5,-0.5,linear,0.025,TRUE,25,FALSE,1,1,NA,914,EQ,H1,6,piecewise_cal,0.846,0,1000
7,250,0,250,250,500,500,750,750,2,0,1,0.25,0.25,0.25,0.25,0.25,0.25,0.25,-0.5,-0.5,-0.5,-0.5,-0.5,-0.5,-0.5,-0.5,linear,0.025,TRUE,25,FALSE,1,1,NA,914,EQ,H1,6,poolmodel,0.26,0,1000
7,250,0,250,250,500,500,750,750,2,0,1,0.25,0.25,0.25,0.25,0.25,0.25,0.25,-0.5,-0.5,-0.5,-0.5,-0.5,-0.5,-0.5,-0.5,linear,0.025,TRUE,25,FALSE,1,1,NA,914,EQ,H1,6,sepmodel,0.794,0,1000
7,250,0,250,250,500,500,750,750,2,0,1,0.25,0.25,0.25,0.25,0.25,0.25,0.25,-0.5,-0.5,-0.5,-0.5,-0.5,-0.5,-0.5,-0.5,linear,0.025,TRUE,25,FALSE,1,1,NA,914,EQ,H1,6,splines,0.851,0,1000
7,250,0,250,250,500,500,750,750,2,0,1,0.25,0.25,0.25,0.25,0.25,0.25,0.25,-0.5,-0.5,-0.5,-0.5,-0.5,-0.5,-0.5,-0.5,linear,0.025,TRUE,25,FALSE,1,1,NA,914,EQ,H1,6,splines_cal,0.85,0,1000
7,250,0,250,250,500,500,750,750,2,0,1,0.25,0.25,0.25,0.25,0.25,0.25,0.25,-0.5,-0.5,-0.5,-0.5,-0.5,-0.5,-0.5,-0.5,linear,0.025,TRUE,25,FALSE,1,1,NA,914,EQ,H1,7,fixmodel,0.86,0,1000
7,250,0,250,250,500,500,750,750,2,0,1,0.25,0.25,0.25,0.25,0.25,0.25,0.25,-0.5,-0.5,-0.5,-0.5,-0.5,-0.5,-0.5,-0.5,linear,0.025,TRUE,25,FALSE,1,1,NA,914,EQ,H1,7,fixmodel_cal,0.854,0,1000
7,250,0,250,250,500,500,750,750,2,0,1,0.25,0.25,0.25,0.25,0.25,0.25,0.25,-0.5,-0.5,-0.5,-0.5,-0.5,-0.5,-0.5,-0.5,linear,0.025,TRUE,25,FALSE,1,1,NA,914,EQ,H1,7,mixmodel,0.768,0,1000
7,250,0,250,250,500,500,750,750,2,0,1,0.25,0.25,0.25,0.25,0.25,0.25,0.25,-0.5,-0.5,-0.5,-0.5,-0.5,-0.5,-0.5,-0.5,linear,0.025,TRUE,25,FALSE,1,1,NA,914,EQ,H1,7,mixmodel_AR1,0.792,0,1000
7,250,0,250,250,500,500,750,750,2,0,1,0.25,0.25,0.25,0.25,0.25,0.25,0.25,-0.5,-0.5,-0.5,-0.5,-0.5,-0.5,-0.5,-0.5,linear,0.025,TRUE,25,FALSE,1,1,NA,914,EQ,H1,7,mixmodel_AR1_cal,0.783,0,1000
7,250,0,250,250,500,500,750,750,2,0,1,0.25,0.25,0.25,0.25,0.25,0.25,0.25,-0.5,-0.5,-0.5,-0.5,-0.5,-0.5,-0.5,-0.5,linear,0.025,TRUE,25,FALSE,1,1,NA,914,EQ,H1,7,mixmodel_cal,0.383,0,1000
7,250,0,250,250,500,500,750,750,2,0,1,0.25,0.25,0.25,0.25,0.25,0.25,0.25,-0.5,-0.5,-0.5,-0.5,-0.5,-0.5,-0.5,-0.5,linear,0.025,TRUE,25,FALSE,1,1,NA,914,EQ,H1,7,piecewise,0.86,0,1000
7,250,0,250,250,500,500,750,750,2,0,1,0.25,0.25,0.25,0.25,0.25,0.25,0.25,-0.5,-0.5,-0.5,-0.5,-0.5,-0.5,-0.5,-0.5,linear,0.025,TRUE,25,FALSE,1,1,NA,914,EQ,H1,7,piecewise_cal,0.848,0,1000
7,250,0,250,250,500,500,750,750,2,0,1,0.25,0.25,0.25,0.25,0.25,0.25,0.25,-0.5,-0.5,-0.5,-0.5,-0.5,-0.5,-0.5,-0.5,linear,0.025,TRUE,25,FALSE,1,1,NA,914,EQ,H1,7,poolmodel,0.292,0,1000
7,250,0,250,250,500,500,750,750,2,0,1,0.25,0.25,0.25,0.25,0.25,0.25,0.25,-0.5,-0.5,-0.5,-0.5,-0.5,-0.5,-0.5,-0.5,linear,0.025,TRUE,25,FALSE,1,1,NA,914,EQ,H1,7,sepmodel,0.805,0,1000
7,250,0,250,250,500,500,750,750,2,0,1,0.25,0.25,0.25,0.25,0.25,0.25,0.25,-0.5,-0.5,-0.5,-0.5,-0.5,-0.5,-0.5,-0.5,linear,0.025,TRUE,25,FALSE,1,1,NA,914,EQ,H1,7,splines,0.856,0,1000
7,250,0,250,250,500,500,750,750,2,0,1,0.25,0.25,0.25,0.25,0.25,0.25,0.25,-0.5,-0.5,-0.5,-0.5,-0.5,-0.5,-0.5,-0.5,linear,0.025,TRUE,25,FALSE,1,1,NA,914,EQ,H1,7,splines_cal,0.857,0,1000
7,250,0,250,250,500,500,750,750,2,0,1,0.25,0.25,0.25,0.25,0.25,0.25,0.25,-0.5,-0.5,-0.5,-0.5,-0.5,-0.5,-0.5,-0.5,linear,0.025,TRUE,25,FALSE,2,2,NA,914,EQ,H1,2,fixmodel,0.815,0,1000
7,250,0,250,250,500,500,750,750,2,0,1,0.25,0.25,0.25,0.25,0.25,0.25,0.25,-0.5,-0.5,-0.5,-0.5,-0.5,-0.5,-0.5,-0.5,linear,0.025,TRUE,25,FALSE,2,2,NA,914,EQ,H1,2,fixmodel_cal,0.813,0,1000
7,250,0,250,250,500,500,750,750,2,0,1,0.25,0.25,0.25,0.25,0.25,0.25,0.25,-0.5,-0.5,-0.5,-0.5,-0.5,-0.5,-0.5,-0.5,linear,0.025,TRUE,25,FALSE,2,2,NA,914,EQ,H1,2,mixmodel,0.776,0,1000
7,250,0,250,250,500,500,750,750,2,0,1,0.25,0.25,0.25,0.25,0.25,0.25,0.25,-0.5,-0.5,-0.5,-0.5,-0.5,-0.5,-0.5,-0.5,linear,0.025,TRUE,25,FALSE,2,2,NA,914,EQ,H1,2,mixmodel_AR1,0.758,0,1000
7,250,0,250,250,500,500,750,750,2,0,1,0.25,0.25,0.25,0.25,0.25,0.25,0.25,-0.5,-0.5,-0.5,-0.5,-0.5,-0.5,-0.5,-0.5,linear,0.025,TRUE,25,FALSE,2,2,NA,914,EQ,H1,2,mixmodel_AR1_cal,0.759,0,1000
7,250,0,250,250,500,500,750,750,2,0,1,0.25,0.25,0.25,0.25,0.25,0.25,0.25,-0.5,-0.5,-0.5,-0.5,-0.5,-0.5,-0.5,-0.5,linear,0.025,TRUE,25,FALSE,2,2,NA,914,EQ,H1,2,mixmodel_cal,0.641,0,1000
7,250,0,250,250,500,500,750,750,2,0,1,0.25,0.25,0.25,0.25,0.25,0.25,0.25,-0.5,-0.5,-0.5,-0.5,-0.5,-0.5,-0.5,-0.5,linear,0.025,TRUE,25,FALSE,2,2,NA,914,EQ,H1,2,piecewise,0.816,0,1000
7,250,0,250,250,500,500,750,750,2,0,1,0.25,0.25,0.25,0.25,0.25,0.25,0.25,-0.5,-0.5,-0.5,-0.5,-0.5,-0.5,-0.5,-0.5,linear,0.025,TRUE,25,FALSE,2,2,NA,914,EQ,H1,2,piecewise_cal,0.799,0,1000
7,250,0,250,250,500,500,750,750,2,0,1,0.25,0.25,0.25,0.25,0.25,0.25,0.25,-0.5,-0.5,-0.5,-0.5,-0.5,-0.5,-0.5,-0.5,linear,0.025,TRUE,25,FALSE,2,2,NA,914,EQ,H1,2,poolmodel,0.618,0,1000
7,250,0,250,250,500,500,750,750,2,0,1,0.25,0.25,0.25,0.25,0.25,0.25,0.25,-0.5,-0.5,-0.5,-0.5,-0.5,-0.5,-0.5,-0.5,linear,0.025,TRUE,25,FALSE,2,2,NA,914,EQ,H1,2,sepmodel,0.789,0,1000
7,250,0,250,250,500,500,750,750,2,0,1,0.25,0.25,0.25,0.25,0.25,0.25,0.25,-0.5,-0.5,-0.5,-0.5,-0.5,-0.5,-0.5,-0.5,linear,0.025,TRUE,25,FALSE,2,2,NA,914,EQ,H1,2,splines,0.824,0,1000
7,250,0,250,250,500,500,750,750,2,0,1,0.25,0.25,0.25,0.25,0.25,0.25,0.25,-0.5,-0.5,-0.5,-0.5,-0.5,-0.5,-0.5,-0.5,linear,0.025,TRUE,25,FALSE,2,2,NA,914,EQ,H1,2,splines_cal,0.811,0,1000
7,250,0,250,250,500,500,750,750,2,0,1,0.25,0.25,0.25,0.25,0.25,0.25,0.25,-0.5,-0.5,-0.5,-0.5,-0.5,-0.5,-0.5,-0.5,linear,0.025,TRUE,25,FALSE,2,2,NA,914,EQ,H1,3,fixmodel,0.822,0,1000
7,250,0,250,250,500,500,750,750,2,0,1,0.25,0.25,0.25,0.25,0.25,0.25,0.25,-0.5,-0.5,-0.5,-0.5,-0.5,-0.5,-0.5,-0.5,linear,0.025,TRUE,25,FALSE,2,2,NA,914,EQ,H1,3,fixmodel_cal,0.818,0,1000
7,250,0,250,250,500,500,750,750,2,0,1,0.25,0.25,0.25,0.25,0.25,0.25,0.25,-0.5,-0.5,-0.5,-0.5,-0.5,-0.5,-0.5,-0.5,linear,0.025,TRUE,25,FALSE,2,2,NA,914,EQ,H1,3,mixmodel,0.777,0,1000
7,250,0,250,250,500,500,750,750,2,0,1,0.25,0.25,0.25,0.25,0.25,0.25,0.25,-0.5,-0.5,-0.5,-0.5,-0.5,-0.5,-0.5,-0.5,linear,0.025,TRUE,25,FALSE,2,2,NA,914,EQ,H1,3,mixmodel_AR1,0.758,0,1000
7,250,0,250,250,500,500,750,750,2,0,1,0.25,0.25,0.25,0.25,0.25,0.25,0.25,-0.5,-0.5,-0.5,-0.5,-0.5,-0.5,-0.5,-0.5,linear,0.025,TRUE,25,FALSE,2,2,NA,914,EQ,H1,3,mixmodel_AR1_cal,0.77,0,1000
7,250,0,250,250,500,500,750,750,2,0,1,0.25,0.25,0.25,0.25,0.25,0.25,0.25,-0.5,-0.5,-0.5,-0.5,-0.5,-0.5,-0.5,-0.5,linear,0.025,TRUE,25,FALSE,2,2,NA,914,EQ,H1,3,mixmodel_cal,0.654,0,1000
7,250,0,250,250,500,500,750,750,2,0,1,0.25,0.25,0.25,0.25,0.25,0.25,0.25,-0.5,-0.5,-0.5,-0.5,-0.5,-0.5,-0.5,-0.5,linear,0.025,TRUE,25,FALSE,2,2,NA,914,EQ,H1,3,piecewise,0.821,0,1000
7,250,0,250,250,500,500,750,750,2,0,1,0.25,0.25,0.25,0.25,0.25,0.25,0.25,-0.5,-0.5,-0.5,-0.5,-0.5,-0.5,-0.5,-0.5,linear,0.025,TRUE,25,FALSE,2,2,NA,914,EQ,H1,3,piecewise_cal,0.8,0,1000
7,250,0,250,250,500,500,750,750,2,0,1,0.25,0.25,0.25,0.25,0.25,0.25,0.25,-0.5,-0.5,-0.5,-0.5,-0.5,-0.5,-0.5,-0.5,linear,0.025,TRUE,25,FALSE,2,2,NA,914,EQ,H1,3,poolmodel,0.614,0,1000
7,250,0,250,250,500,500,750,750,2,0,1,0.25,0.25,0.25,0.25,0.25,0.25,0.25,-0.5,-0.5,-0.5,-0.5,-0.5,-0.5,-0.5,-0.5,linear,0.025,TRUE,25,FALSE,2,2,NA,914,EQ,H1,3,sepmodel,0.792,0,1000
7,250,0,250,250,500,500,750,750,2,0,1,0.25,0.25,0.25,0.25,0.25,0.25,0.25,-0.5,-0.5,-0.5,-0.5,-0.5,-0.5,-0.5,-0.5,linear,0.025,TRUE,25,FALSE,2,2,NA,914,EQ,H1,3,splines,0.823,0,1000
7,250,0,250,250,500,500,750,750,2,0,1,0.25,0.25,0.25,0.25,0.25,0.25,0.25,-0.5,-0.5,-0.5,-0.5,-0.5,-0.5,-0.5,-0.5,linear,0.025,TRUE,25,FALSE,2,2,NA,914,EQ,H1,3,splines_cal,0.817,0,1000
7,250,0,250,250,500,500,750,750,2,0,1,0.25,0.25,0.25,0.25,0.25,0.25,0.25,-0.5,-0.5,-0.5,-0.5,-0.5,-0.5,-0.5,-0.5,linear,0.025,TRUE,25,FALSE,2,2,NA,914,EQ,H1,4,fixmodel,0.845,0,1000
7,250,0,250,250,500,500,750,750,2,0,1,0.25,0.25,0.25,0.25,0.25,0.25,0.25,-0.5,-0.5,-0.5,-0.5,-0.5,-0.5,-0.5,-0.5,linear,0.025,TRUE,25,FALSE,2,2,NA,914,EQ,H1,4,fixmodel_cal,0.84,0,1000
7,250,0,250,250,500,500,750,750,2,0,1,0.25,0.25,0.25,0.25,0.25,0.25,0.25,-0.5,-0.5,-0.5,-0.5,-0.5,-0.5,-0.5,-0.5,linear,0.025,TRUE,25,FALSE,2,2,NA,914,EQ,H1,4,mixmodel,0.766,0,1000
7,250,0,250,250,500,500,750,750,2,0,1,0.25,0.25,0.25,0.25,0.25,0.25,0.25,-0.5,-0.5,-0.5,-0.5,-0.5,-0.5,-0.5,-0.5,linear,0.025,TRUE,25,FALSE,2,2,NA,914,EQ,H1,4,mixmodel_AR1,0.772,0,1000
7,250,0,250,250,500,500,750,750,2,0,1,0.25,0.25,0.25,0.25,0.25,0.25,0.25,-0.5,-0.5,-0.5,-0.5,-0.5,-0.5,-0.5,-0.5,linear,0.025,TRUE,25,FALSE,2,2,NA,914,EQ,H1,4,mixmodel_AR1_cal,0.772,0,1000
7,250,0,250,250,500,500,750,750,2,0,1,0.25,0.25,0.25,0.25,0.25,0.25,0.25,-0.5,-0.5,-0.5,-0.5,-0.5,-0.5,-0.5,-0.5,linear,0.025,TRUE,25,FALSE,2,2,NA,914,EQ,H1,4,mixmodel_cal,0.489,0,1000
7,250,0,250,250,500,500,750,750,2,0,1,0.25,0.25,0.25,0.25,0.25,0.25,0.25,-0.5,-0.5,-0.5,-0.5,-0.5,-0.5,-0.5,-0.5,linear,0.025,TRUE,25,FALSE,2,2,NA,914,EQ,H1,4,piecewise,0.845,0,1000
7,250,0,250,250,500,500,750,750,2,0,1,0.25,0.25,0.25,0.25,0.25,0.25,0.25,-0.5,-0.5,-0.5,-0.5,-0.5,-0.5,-0.5,-0.5,linear,0.025,TRUE,25,FALSE,2,2,NA,914,EQ,H1,4,piecewise_cal,0.816,0,1000
7,250,0,250,250,500,500,750,750,2,0,1,0.25,0.25,0.25,0.25,0.25,0.25,0.25,-0.5,-0.5,-0.5,-0.5,-0.5,-0.5,-0.5,-0.5,linear,0.025,TRUE,25,FALSE,2,2,NA,914,EQ,H1,4,poolmodel,0.416,0,1000
7,250,0,250,250,500,500,750,750,2,0,1,0.25,0.25,0.25,0.25,0.25,0.25,0.25,-0.5,-0.5,-0.5,-0.5,-0.5,-0.5,-0.5,-0.5,linear,0.025,TRUE,25,FALSE,2,2,NA,914,EQ,H1,4,sepmodel,0.79,0,1000
7,250,0,250,250,500,500,750,750,2,0,1,0.25,0.25,0.25,0.25,0.25,0.25,0.25,-0.5,-0.5,-0.5,-0.5,-0.5,-0.5,-0.5,-0.5,linear,0.025,TRUE,25,FALSE,2,2,NA,914,EQ,H1,4,splines,0.839,0,1000
7,250,0,250,250,500,500,750,750,2,0,1,0.25,0.25,0.25,0.25,0.25,0.25,0.25,-0.5,-0.5,-0.5,-0.5,-0.5,-0.5,-0.5,-0.5,linear,0.025,TRUE,25,FALSE,2,2,NA,914,EQ,H1,4,splines_cal,0.846,0,1000
7,250,0,250,250,500,500,750,750,2,0,1,0.25,0.25,0.25,0.25,0.25,0.25,0.25,-0.5,-0.5,-0.5,-0.5,-0.5,-0.5,-0.5,-0.5,linear,0.025,TRUE,25,FALSE,2,2,NA,914,EQ,H1,5,fixmodel,0.844,0,1000
7,250,0,250,250,500,500,750,750,2,0,1,0.25,0.25,0.25,0.25,0.25,0.25,0.25,-0.5,-0.5,-0.5,-0.5,-0.5,-0.5,-0.5,-0.5,linear,0.025,TRUE,25,FALSE,2,2,NA,914,EQ,H1,5,fixmodel_cal,0.841,0,1000
7,250,0,250,250,500,500,750,750,2,0,1,0.25,0.25,0.25,0.25,0.25,0.25,0.25,-0.5,-0.5,-0.5,-0.5,-0.5,-0.5,-0.5,-0.5,linear,0.025,TRUE,25,FALSE,2,2,NA,914,EQ,H1,5,mixmodel,0.767,0,1000
7,250,0,250,250,500,500,750,750,2,0,1,0.25,0.25,0.25,0.25,0.25,0.25,0.25,-0.5,-0.5,-0.5,-0.5,-0.5,-0.5,-0.5,-0.5,linear,0.025,TRUE,25,FALSE,2,2,NA,914,EQ,H1,5,mixmodel_AR1,0.775,0,1000
7,250,0,250,250,500,500,750,750,2,0,1,0.25,0.25,0.25,0.25,0.25,0.25,0.25,-0.5,-0.5,-0.5,-0.5,-0.5,-0.5,-0.5,-0.5,linear,0.025,TRUE,25,FALSE,2,2,NA,914,EQ,H1,5,mixmodel_AR1_cal,0.777,0,1000
7,250,0,250,250,500,500,750,750,2,0,1,0.25,0.25,0.25,0.25,0.25,0.25,0.25,-0.5,-0.5,-0.5,-0.5,-0.5,-0.5,-0.5,-0.5,linear,0.025,TRUE,25,FALSE,2,2,NA,914,EQ,H1,5,mixmodel_cal,0.501,0,1000
7,250,0,250,250,500,500,750,750,2,0,1,0.25,0.25,0.25,0.25,0.25,0.25,0.25,-0.5,-0.5,-0.5,-0.5,-0.5,-0.5,-0.5,-0.5,linear,0.025,TRUE,25,FALSE,2,2,NA,914,EQ,H1,5,piecewise,0.844,0,1000
7,250,0,250,250,500,500,750,750,2,0,1,0.25,0.25,0.25,0.25,0.25,0.25,0.25,-0.5,-0.5,-0.5,-0.5,-0.5,-0.5,-0.5,-0.5,linear,0.025,TRUE,25,FALSE,2,2,NA,914,EQ,H1,5,piecewise_cal,0.826,0,1000
7,250,0,250,250,500,500,750,750,2,0,1,0.25,0.25,0.25,0.25,0.25,0.25,0.25,-0.5,-0.5,-0.5,-0.5,-0.5,-0.5,-0.5,-0.5,linear,0.025,TRUE,25,FALSE,2,2,NA,914,EQ,H1,5,poolmodel,0.418,0,1000
7,250,0,250,250,500,500,750,750,2,0,1,0.25,0.25,0.25,0.25,0.25,0.25,0.25,-0.5,-0.5,-0.5,-0.5,-0.5,-0.5,-0.5,-0.5,linear,0.025,TRUE,25,FALSE,2,2,NA,914,EQ,H1,5,sepmodel,0.802,0,1000
7,250,0,250,250,500,500,750,750,2,0,1,0.25,0.25,0.25,0.25,0.25,0.25,0.25,-0.5,-0.5,-0.5,-0.5,-0.5,-0.5,-0.5,-0.5,linear,0.025,TRUE,25,FALSE,2,2,NA,914,EQ,H1,5,splines,0.848,0,1000
7,250,0,250,250,500,500,750,750,2,0,1,0.25,0.25,0.25,0.25,0.25,0.25,0.25,-0.5,-0.5,-0.5,-0.5,-0.5,-0.5,-0.5,-0.5,linear,0.025,TRUE,25,FALSE,2,2,NA,914,EQ,H1,5,splines_cal,0.843,0,1000
7,250,0,250,250,500,500,750,750,2,0,1,0.25,0.25,0.25,0.25,0.25,0.25,0.25,-0.5,-0.5,-0.5,-0.5,-0.5,-0.5,-0.5,-0.5,linear,0.025,TRUE,25,FALSE,2,2,NA,914,EQ,H1,6,fixmodel,0.841,0,1000
7,250,0,250,250,500,500,750,750,2,0,1,0.25,0.25,0.25,0.25,0.25,0.25,0.25,-0.5,-0.5,-0.5,-0.5,-0.5,-0.5,-0.5,-0.5,linear,0.025,TRUE,25,FALSE,2,2,NA,914,EQ,H1,6,fixmodel_cal,0.845,0,1000
7,250,0,250,250,500,500,750,750,2,0,1,0.25,0.25,0.25,0.25,0.25,0.25,0.25,-0.5,-0.5,-0.5,-0.5,-0.5,-0.5,-0.5,-0.5,linear,0.025,TRUE,25,FALSE,2,2,NA,914,EQ,H1,6,mixmodel,0.769,0,1000
7,250,0,250,250,500,500,750,750,2,0,1,0.25,0.25,0.25,0.25,0.25,0.25,0.25,-0.5,-0.5,-0.5,-0.5,-0.5,-0.5,-0.5,-0.5,linear,0.025,TRUE,25,FALSE,2,2,NA,914,EQ,H1,6,mixmodel_AR1,0.793,0,1000
7,250,0,250,250,500,500,750,750,2,0,1,0.25,0.25,0.25,0.25,0.25,0.25,0.25,-0.5,-0.5,-0.5,-0.5,-0.5,-0.5,-0.5,-0.5,linear,0.025,TRUE,25,FALSE,2,2,NA,914,EQ,H1,6,mixmodel_AR1_cal,0.776,0,1000
7,250,0,250,250,500,500,750,750,2,0,1,0.25,0.25,0.25,0.25,0.25,0.25,0.25,-0.5,-0.5,-0.5,-0.5,-0.5,-0.5,-0.5,-0.5,linear,0.025,TRUE,25,FALSE,2,2,NA,914,EQ,H1,6,mixmodel_cal,0.388,0,1000
7,250,0,250,250,500,500,750,750,2,0,1,0.25,0.25,0.25,0.25,0.25,0.25,0.25,-0.5,-0.5,-0.5,-0.5,-0.5,-0.5,-0.5,-0.5,linear,0.025,TRUE,25,FALSE,2,2,NA,914,EQ,H1,6,piecewise,0.841,0,1000
7,250,0,250,250,500,500,750,750,2,0,1,0.25,0.25,0.25,0.25,0.25,0.25,0.25,-0.5,-0.5,-0.5,-0.5,-0.5,-0.5,-0.5,-0.5,linear,0.025,TRUE,25,FALSE,2,2,NA,914,EQ,H1,6,piecewise_cal,0.826,0,1000
7,250,0,250,250,500,500,750,750,2,0,1,0.25,0.25,0.25,0.25,0.25,0.25,0.25,-0.5,-0.5,-0.5,-0.5,-0.5,-0.5,-0.5,-0.5,linear,0.025,TRUE,25,FALSE,2,2,NA,914,EQ,H1,6,poolmodel,0.302,0,1000
7,250,0,250,250,500,500,750,750,2,0,1,0.25,0.25,0.25,0.25,0.25,0.25,0.25,-0.5,-0.5,-0.5,-0.5,-0.5,-0.5,-0.5,-0.5,linear,0.025,TRUE,25,FALSE,2,2,NA,914,EQ,H1,6,sepmodel,0.8,0,1000
7,250,0,250,250,500,500,750,750,2,0,1,0.25,0.25,0.25,0.25,0.25,0.25,0.25,-0.5,-0.5,-0.5,-0.5,-0.5,-0.5,-0.5,-0.5,linear,0.025,TRUE,25,FALSE,2,2,NA,914,EQ,H1,6,splines,0.839,0,1000
7,250,0,250,250,500,500,750,750,2,0,1,0.25,0.25,0.25,0.25,0.25,0.25,0.25,-0.5,-0.5,-0.5,-0.5,-0.5,-0.5,-0.5,-0.5,linear,0.025,TRUE,25,FALSE,2,2,NA,914,EQ,H1,6,splines_cal,0.842,0,1000
7,250,0,250,250,500,500,750,750,2,0,1,0.25,0.25,0.25,0.25,0.25,0.25,0.25,-0.5,-0.5,-0.5,-0.5,-0.5,-0.5,-0.5,-0.5,linear,0.025,TRUE,25,FALSE,2,2,NA,914,EQ,H1,7,fixmodel,0.842,0,1000
7,250,0,250,250,500,500,750,750,2,0,1,0.25,0.25,0.25,0.25,0.25,0.25,0.25,-0.5,-0.5,-0.5,-0.5,-0.5,-0.5,-0.5,-0.5,linear,0.025,TRUE,25,FALSE,2,2,NA,914,EQ,H1,7,fixmodel_cal,0.843,0,1000
7,250,0,250,250,500,500,750,750,2,0,1,0.25,0.25,0.25,0.25,0.25,0.25,0.25,-0.5,-0.5,-0.5,-0.5,-0.5,-0.5,-0.5,-0.5,linear,0.025,TRUE,25,FALSE,2,2,NA,914,EQ,H1,7,mixmodel,0.74,0,1000
7,250,0,250,250,500,500,750,750,2,0,1,0.25,0.25,0.25,0.25,0.25,0.25,0.25,-0.5,-0.5,-0.5,-0.5,-0.5,-0.5,-0.5,-0.5,linear,0.025,TRUE,25,FALSE,2,2,NA,914,EQ,H1,7,mixmodel_AR1,0.771,0,1000
7,250,0,250,250,500,500,750,750,2,0,1,0.25,0.25,0.25,0.25,0.25,0.25,0.25,-0.5,-0.5,-0.5,-0.5,-0.5,-0.5,-0.5,-0.5,linear,0.025,TRUE,25,FALSE,2,2,NA,914,EQ,H1,7,mixmodel_AR1_cal,0.764,0,1000
7,250,0,250,250,500,500,750,750,2,0,1,0.25,0.25,0.25,0.25,0.25,0.25,0.25,-0.5,-0.5,-0.5,-0.5,-0.5,-0.5,-0.5,-0.5,linear,0.025,TRUE,25,FALSE,2,2,NA,914,EQ,H1,7,mixmodel_cal,0.36,0,1000
7,250,0,250,250,500,500,750,750,2,0,1,0.25,0.25,0.25,0.25,0.25,0.25,0.25,-0.5,-0.5,-0.5,-0.5,-0.5,-0.5,-0.5,-0.5,linear,0.025,TRUE,25,FALSE,2,2,NA,914,EQ,H1,7,piecewise,0.843,0,1000
7,250,0,250,250,500,500,750,750,2,0,1,0.25,0.25,0.25,0.25,0.25,0.25,0.25,-0.5,-0.5,-0.5,-0.5,-0.5,-0.5,-0.5,-0.5,linear,0.025,TRUE,25,FALSE,2,2,NA,914,EQ,H1,7,piecewise_cal,0.818,0,1000
7,250,0,250,250,500,500,750,750,2,0,1,0.25,0.25,0.25,0.25,0.25,0.25,0.25,-0.5,-0.5,-0.5,-0.5,-0.5,-0.5,-0.5,-0.5,linear,0.025,TRUE,25,FALSE,2,2,NA,914,EQ,H1,7,poolmodel,0.281,0,1000
7,250,0,250,250,500,500,750,750,2,0,1,0.25,0.25,0.25,0.25,0.25,0.25,0.25,-0.5,-0.5,-0.5,-0.5,-0.5,-0.5,-0.5,-0.5,linear,0.025,TRUE,25,FALSE,2,2,NA,914,EQ,H1,7,sepmodel,0.775,0,1000
7,250,0,250,250,500,500,750,750,2,0,1,0.25,0.25,0.25,0.25,0.25,0.25,0.25,-0.5,-0.5,-0.5,-0.5,-0.5,-0.5,-0.5,-0.5,linear,0.025,TRUE,25,FALSE,2,2,NA,914,EQ,H1,7,splines,0.851,0,1000
7,250,0,250,250,500,500,750,750,2,0,1,0.25,0.25,0.25,0.25,0.25,0.25,0.25,-0.5,-0.5,-0.5,-0.5,-0.5,-0.5,-0.5,-0.5,linear,0.025,TRUE,25,FALSE,2,2,NA,914,EQ,H1,7,splines_cal,0.845,0,1000
7,250,0,250,250,500,500,750,750,2,0,1,0.25,0.25,0.25,0.25,0.25,0.25,0.25,-0.5,-0.5,-0.5,-0.5,-0.5,-0.5,-0.5,-0.5,linear,0.025,TRUE,25,FALSE,3,3,NA,914,EQ,H1,2,fixmodel,0.808,0,1000
7,250,0,250,250,500,500,750,750,2,0,1,0.25,0.25,0.25,0.25,0.25,0.25,0.25,-0.5,-0.5,-0.5,-0.5,-0.5,-0.5,-0.5,-0.5,linear,0.025,TRUE,25,FALSE,3,3,NA,914,EQ,H1,2,fixmodel_cal,0.796,0,1000
7,250,0,250,250,500,500,750,750,2,0,1,0.25,0.25,0.25,0.25,0.25,0.25,0.25,-0.5,-0.5,-0.5,-0.5,-0.5,-0.5,-0.5,-0.5,linear,0.025,TRUE,25,FALSE,3,3,NA,914,EQ,H1,2,mixmodel,0.765,0,1000
7,250,0,250,250,500,500,750,750,2,0,1,0.25,0.25,0.25,0.25,0.25,0.25,0.25,-0.5,-0.5,-0.5,-0.5,-0.5,-0.5,-0.5,-0.5,linear,0.025,TRUE,25,FALSE,3,3,NA,914,EQ,H1,2,mixmodel_AR1,0.758,0,1000
7,250,0,250,250,500,500,750,750,2,0,1,0.25,0.25,0.25,0.25,0.25,0.25,0.25,-0.5,-0.5,-0.5,-0.5,-0.5,-0.5,-0.5,-0.5,linear,0.025,TRUE,25,FALSE,3,3,NA,914,EQ,H1,2,mixmodel_AR1_cal,0.766,0,1000
7,250,0,250,250,500,500,750,750,2,0,1,0.25,0.25,0.25,0.25,0.25,0.25,0.25,-0.5,-0.5,-0.5,-0.5,-0.5,-0.5,-0.5,-0.5,linear,0.025,TRUE,25,FALSE,3,3,NA,914,EQ,H1,2,mixmodel_cal,0.651,0,1000
7,250,0,250,250,500,500,750,750,2,0,1,0.25,0.25,0.25,0.25,0.25,0.25,0.25,-0.5,-0.5,-0.5,-0.5,-0.5,-0.5,-0.5,-0.5,linear,0.025,TRUE,25,FALSE,3,3,NA,914,EQ,H1,2,piecewise,0.809,0,1000
7,250,0,250,250,500,500,750,750,2,0,1,0.25,0.25,0.25,0.25,0.25,0.25,0.25,-0.5,-0.5,-0.5,-0.5,-0.5,-0.5,-0.5,-0.5,linear,0.025,TRUE,25,FALSE,3,3,NA,914,EQ,H1,2,piecewise_cal,0.768,0,1000
7,250,0,250,250,500,500,750,750,2,0,1,0.25,0.25,0.25,0.25,0.25,0.25,0.25,-0.5,-0.5,-0.5,-0.5,-0.5,-0.5,-0.5,-0.5,linear,0.025,TRUE,25,FALSE,3,3,NA,914,EQ,H1,2,poolmodel,0.62,0,1000
7,250,0,250,250,500,500,750,750,2,0,1,0.25,0.25,0.25,0.25,0.25,0.25,0.25,-0.5,-0.5,-0.5,-0.5,-0.5,-0.5,-0.5,-0.5,linear,0.025,TRUE,25,FALSE,3,3,NA,914,EQ,H1,2,sepmodel,0.775,0,1000
7,250,0,250,250,500,500,750,750,2,0,1,0.25,0.25,0.25,0.25,0.25,0.25,0.25,-0.5,-0.5,-0.5,-0.5,-0.5,-0.5,-0.5,-0.5,linear,0.025,TRUE,25,FALSE,3,3,NA,914,EQ,H1,2,splines,0.814,0,1000
7,250,0,250,250,500,500,750,750,2,0,1,0.25,0.25,0.25,0.25,0.25,0.25,0.25,-0.5,-0.5,-0.5,-0.5,-0.5,-0.5,-0.5,-0.5,linear,0.025,TRUE,25,FALSE,3,3,NA,914,EQ,H1,2,splines_cal,0.806,0,1000
7,250,0,250,250,500,500,750,750,2,0,1,0.25,0.25,0.25,0.25,0.25,0.25,0.25,-0.5,-0.5,-0.5,-0.5,-0.5,-0.5,-0.5,-0.5,linear,0.025,TRUE,25,FALSE,3,3,NA,914,EQ,H1,3,fixmodel,0.807,0,1000
7,250,0,250,250,500,500,750,750,2,0,1,0.25,0.25,0.25,0.25,0.25,0.25,0.25,-0.5,-0.5,-0.5,-0.5,-0.5,-0.5,-0.5,-0.5,linear,0.025,TRUE,25,FALSE,3,3,NA,914,EQ,H1,3,fixmodel_cal,0.808,0,1000
7,250,0,250,250,500,500,750,750,2,0,1,0.25,0.25,0.25,0.25,0.25,0.25,0.25,-0.5,-0.5,-0.5,-0.5,-0.5,-0.5,-0.5,-0.5,linear,0.025,TRUE,25,FALSE,3,3,NA,914,EQ,H1,3,mixmodel,0.76,0,1000
7,250,0,250,250,500,500,750,750,2,0,1,0.25,0.25,0.25,0.25,0.25,0.25,0.25,-0.5,-0.5,-0.5,-0.5,-0.5,-0.5,-0.5,-0.5,linear,0.025,TRUE,25,FALSE,3,3,NA,914,EQ,H1,3,mixmodel_AR1,0.747,0,1000
7,250,0,250,250,500,500,750,750,2,0,1,0.25,0.25,0.25,0.25,0.25,0.25,0.25,-0.5,-0.5,-0.5,-0.5,-0.5,-0.5,-0.5,-0.5,linear,0.025,TRUE,25,FALSE,3,3,NA,914,EQ,H1,3,mixmodel_AR1_cal,0.756,0,1000
7,250,0,250,250,500,500,750,750,2,0,1,0.25,0.25,0.25,0.25,0.25,0.25,0.25,-0.5,-0.5,-0.5,-0.5,-0.5,-0.5,-0.5,-0.5,linear,0.025,TRUE,25,FALSE,3,3,NA,914,EQ,H1,3,mixmodel_cal,0.643,0,1000
7,250,0,250,250,500,500,750,750,2,0,1,0.25,0.25,0.25,0.25,0.25,0.25,0.25,-0.5,-0.5,-0.5,-0.5,-0.5,-0.5,-0.5,-0.5,linear,0.025,TRUE,25,FALSE,3,3,NA,914,EQ,H1,3,piecewise,0.806,0,1000
7,250,0,250,250,500,500,750,750,2,0,1,0.25,0.25,0.25,0.25,0.25,0.25,0.25,-0.5,-0.5,-0.5,-0.5,-0.5,-0.5,-0.5,-0.5,linear,0.025,TRUE,25,FALSE,3,3,NA,914,EQ,H1,3,piecewise_cal,0.772,0,1000
7,250,0,250,250,500,500,750,750,2,0,1,0.25,0.25,0.25,0.25,0.25,0.25,0.25,-0.5,-0.5,-0.5,-0.5,-0.5,-0.5,-0.5,-0.5,linear,0.025,TRUE,25,FALSE,3,3,NA,914,EQ,H1,3,poolmodel,0.615,0,1000
7,250,0,250,250,500,500,750,750,2,0,1,0.25,0.25,0.25,0.25,0.25,0.25,0.25,-0.5,-0.5,-0.5,-0.5,-0.5,-0.5,-0.5,-0.5,linear,0.025,TRUE,25,FALSE,3,3,NA,914,EQ,H1,3,sepmodel,0.774,0,1000
7,250,0,250,250,500,500,750,750,2,0,1,0.25,0.25,0.25,0.25,0.25,0.25,0.25,-0.5,-0.5,-0.5,-0.5,-0.5,-0.5,-0.5,-0.5,linear,0.025,TRUE,25,FALSE,3,3,NA,914,EQ,H1,3,splines,0.82,0,1000
7,250,0,250,250,500,500,750,750,2,0,1,0.25,0.25,0.25,0.25,0.25,0.25,0.25,-0.5,-0.5,-0.5,-0.5,-0.5,-0.5,-0.5,-0.5,linear,0.025,TRUE,25,FALSE,3,3,NA,914,EQ,H1,3,splines_cal,0.815,0,1000
7,250,0,250,250,500,500,750,750,2,0,1,0.25,0.25,0.25,0.25,0.25,0.25,0.25,-0.5,-0.5,-0.5,-0.5,-0.5,-0.5,-0.5,-0.5,linear,0.025,TRUE,25,FALSE,3,3,NA,914,EQ,H1,4,fixmodel,0.834,0,1000
7,250,0,250,250,500,500,750,750,2,0,1,0.25,0.25,0.25,0.25,0.25,0.25,0.25,-0.5,-0.5,-0.5,-0.5,-0.5,-0.5,-0.5,-0.5,linear,0.025,TRUE,25,FALSE,3,3,NA,914,EQ,H1,4,fixmodel_cal,0.84,0,1000
7,250,0,250,250,500,500,750,750,2,0,1,0.25,0.25,0.25,0.25,0.25,0.25,0.25,-0.5,-0.5,-0.5,-0.5,-0.5,-0.5,-0.5,-0.5,linear,0.025,TRUE,25,FALSE,3,3,NA,914,EQ,H1,4,mixmodel,0.755,0,1000
7,250,0,250,250,500,500,750,750,2,0,1,0.25,0.25,0.25,0.25,0.25,0.25,0.25,-0.5,-0.5,-0.5,-0.5,-0.5,-0.5,-0.5,-0.5,linear,0.025,TRUE,25,FALSE,3,3,NA,914,EQ,H1,4,mixmodel_AR1,0.763,0,1000
7,250,0,250,250,500,500,750,750,2,0,1,0.25,0.25,0.25,0.25,0.25,0.25,0.25,-0.5,-0.5,-0.5,-0.5,-0.5,-0.5,-0.5,-0.5,linear,0.025,TRUE,25,FALSE,3,3,NA,914,EQ,H1,4,mixmodel_AR1_cal,0.775,0,1000
7,250,0,250,250,500,500,750,750,2,0,1,0.25,0.25,0.25,0.25,0.25,0.25,0.25,-0.5,-0.5,-0.5,-0.5,-0.5,-0.5,-0.5,-0.5,linear,0.025,TRUE,25,FALSE,3,3,NA,914,EQ,H1,4,mixmodel_cal,0.49,0,1000
7,250,0,250,250,500,500,750,750,2,0,1,0.25,0.25,0.25,0.25,0.25,0.25,0.25,-0.5,-0.5,-0.5,-0.5,-0.5,-0.5,-0.5,-0.5,linear,0.025,TRUE,25,FALSE,3,3,NA,914,EQ,H1,4,piecewise,0.837,0,1000
7,250,0,250,250,500,500,750,750,2,0,1,0.25,0.25,0.25,0.25,0.25,0.25,0.25,-0.5,-0.5,-0.5,-0.5,-0.5,-0.5,-0.5,-0.5,linear,0.025,TRUE,25,FALSE,3,3,NA,914,EQ,H1,4,piecewise_cal,0.798,0,1000
7,250,0,250,250,500,500,750,750,2,0,1,0.25,0.25,0.25,0.25,0.25,0.25,0.25,-0.5,-0.5,-0.5,-0.5,-0.5,-0.5,-0.5,-0.5,linear,0.025,TRUE,25,FALSE,3,3,NA,914,EQ,H1,4,poolmodel,0.41,0,1000
7,250,0,250,250,500,500,750,750,2,0,1,0.25,0.25,0.25,0.25,0.25,0.25,0.25,-0.5,-0.5,-0.5,-0.5,-0.5,-0.5,-0.5,-0.5,linear,0.025,TRUE,25,FALSE,3,3,NA,914,EQ,H1,4,sepmodel,0.792,0,1000
7,250,0,250,250,500,500,750,750,2,0,1,0.25,0.25,0.25,0.25,0.25,0.25,0.25,-0.5,-0.5,-0.5,-0.5,-0.5,-0.5,-0.5,-0.5,linear,0.025,TRUE,25,FALSE,3,3,NA,914,EQ,H1,4,splines,0.842,0,1000
7,250,0,250,250,500,500,750,750,2,0,1,0.25,0.25,0.25,0.25,0.25,0.25,0.25,-0.5,-0.5,-0.5,-0.5,-0.5,-0.5,-0.5,-0.5,linear,0.025,TRUE,25,FALSE,3,3,NA,914,EQ,H1,4,splines_cal,0.838,0,1000
7,250,0,250,250,500,500,750,750,2,0,1,0.25,0.25,0.25,0.25,0.25,0.25,0.25,-0.5,-0.5,-0.5,-0.5,-0.5,-0.5,-0.5,-0.5,linear,0.025,TRUE,25,FALSE,3,3,NA,914,EQ,H1,5,fixmodel,0.85,0,1000
7,250,0,250,250,500,500,750,750,2,0,1,0.25,0.25,0.25,0.25,0.25,0.25,0.25,-0.5,-0.5,-0.5,-0.5,-0.5,-0.5,-0.5,-0.5,linear,0.025,TRUE,25,FALSE,3,3,NA,914,EQ,H1,5,fixmodel_cal,0.839,0,1000
7,250,0,250,250,500,500,750,750,2,0,1,0.25,0.25,0.25,0.25,0.25,0.25,0.25,-0.5,-0.5,-0.5,-0.5,-0.5,-0.5,-0.5,-0.5,linear,0.025,TRUE,25,FALSE,3,3,NA,914,EQ,H1,5,mixmodel,0.775,0,1000
7,250,0,250,250,500,500,750,750,2,0,1,0.25,0.25,0.25,0.25,0.25,0.25,0.25,-0.5,-0.5,-0.5,-0.5,-0.5,-0.5,-0.5,-0.5,linear,0.025,TRUE,25,FALSE,3,3,NA,914,EQ,H1,5,mixmodel_AR1,0.779,0,1000
7,250,0,250,250,500,500,750,750,2,0,1,0.25,0.25,0.25,0.25,0.25,0.25,0.25,-0.5,-0.5,-0.5,-0.5,-0.5,-0.5,-0.5,-0.5,linear,0.025,TRUE,25,FALSE,3,3,NA,914,EQ,H1,5,mixmodel_AR1_cal,0.78,0,1000
7,250,0,250,250,500,500,750,750,2,0,1,0.25,0.25,0.25,0.25,0.25,0.25,0.25,-0.5,-0.5,-0.5,-0.5,-0.5,-0.5,-0.5,-0.5,linear,0.025,TRUE,25,FALSE,3,3,NA,914,EQ,H1,5,mixmodel_cal,0.5,0,1000
7,250,0,250,250,500,500,750,750,2,0,1,0.25,0.25,0.25,0.25,0.25,0.25,0.25,-0.5,-0.5,-0.5,-0.5,-0.5,-0.5,-0.5,-0.5,linear,0.025,TRUE,25,FALSE,3,3,NA,914,EQ,H1,5,piecewise,0.851,0,1000
7,250,0,250,250,500,500,750,750,2,0,1,0.25,0.25,0.25,0.25,0.25,0.25,0.25,-0.5,-0.5,-0.5,-0.5,-0.5,-0.5,-0.5,-0.5,linear,0.025,TRUE,25,FALSE,3,3,NA,914,EQ,H1,5,piecewise_cal,0.823,0,1000
7,250,0,250,250,500,500,750,750,2,0,1,0.25,0.25,0.25,0.25,0.25,0.25,0.25,-0.5,-0.5,-0.5,-0.5,-0.5,-0.5,-0.5,-0.5,linear,0.025,TRUE,25,FALSE,3,3,NA,914,EQ,H1,5,poolmodel,0.419,0,1000
7,250,0,250,250,500,500,750,750,2,0,1,0.25,0.25,0.25,0.25,0.25,0.25,0.25,-0.5,-0.5,-0.5,-0.5,-0.5,-0.5,-0.5,-0.5,linear,0.025,TRUE,25,FALSE,3,3,NA,914,EQ,H1,5,sepmodel,0.788,0,1000
7,250,0,250,250,500,500,750,750,2,0,1,0.25,0.25,0.25,0.25,0.25,0.25,0.25,-0.5,-0.5,-0.5,-0.5,-0.5,-0.5,-0.5,-0.5,linear,0.025,TRUE,25,FALSE,3,3,NA,914,EQ,H1,5,splines,0.852,0,1000
7,250,0,250,250,500,500,750,750,2,0,1,0.25,0.25,0.25,0.25,0.25,0.25,0.25,-0.5,-0.5,-0.5,-0.5,-0.5,-0.5,-0.5,-0.5,linear,0.025,TRUE,25,FALSE,3,3,NA,914,EQ,H1,5,splines_cal,0.848,0,1000
7,250,0,250,250,500,500,750,750,2,0,1,0.25,0.25,0.25,0.25,0.25,0.25,0.25,-0.5,-0.5,-0.5,-0.5,-0.5,-0.5,-0.5,-0.5,linear,0.025,TRUE,25,FALSE,3,3,NA,914,EQ,H1,6,fixmodel,0.839,0,1000
7,250,0,250,250,500,500,750,750,2,0,1,0.25,0.25,0.25,0.25,0.25,0.25,0.25,-0.5,-0.5,-0.5,-0.5,-0.5,-0.5,-0.5,-0.5,linear,0.025,TRUE,25,FALSE,3,3,NA,914,EQ,H1,6,fixmodel_cal,0.84,0,1000
7,250,0,250,250,500,500,750,750,2,0,1,0.25,0.25,0.25,0.25,0.25,0.25,0.25,-0.5,-0.5,-0.5,-0.5,-0.5,-0.5,-0.5,-0.5,linear,0.025,TRUE,25,FALSE,3,3,NA,914,EQ,H1,6,mixmodel,0.745,0,1000
7,250,0,250,250,500,500,750,750,2,0,1,0.25,0.25,0.25,0.25,0.25,0.25,0.25,-0.5,-0.5,-0.5,-0.5,-0.5,-0.5,-0.5,-0.5,linear,0.025,TRUE,25,FALSE,3,3,NA,914,EQ,H1,6,mixmodel_AR1,0.765,0,1000
7,250,0,250,250,500,500,750,750,2,0,1,0.25,0.25,0.25,0.25,0.25,0.25,0.25,-0.5,-0.5,-0.5,-0.5,-0.5,-0.5,-0.5,-0.5,linear,0.025,TRUE,25,FALSE,3,3,NA,914,EQ,H1,6,mixmodel_AR1_cal,0.761,0,1000
7,250,0,250,250,500,500,750,750,2,0,1,0.25,0.25,0.25,0.25,0.25,0.25,0.25,-0.5,-0.5,-0.5,-0.5,-0.5,-0.5,-0.5,-0.5,linear,0.025,TRUE,25,FALSE,3,3,NA,914,EQ,H1,6,mixmodel_cal,0.377,0,1000
7,250,0,250,250,500,500,750,750,2,0,1,0.25,0.25,0.25,0.25,0.25,0.25,0.25,-0.5,-0.5,-0.5,-0.5,-0.5,-0.5,-0.5,-0.5,linear,0.025,TRUE,25,FALSE,3,3,NA,914,EQ,H1,6,piecewise,0.841,0,1000
7,250,0,250,250,500,500,750,750,2,0,1,0.25,0.25,0.25,0.25,0.25,0.25,0.25,-0.5,-0.5,-0.5,-0.5,-0.5,-0.5,-0.5,-0.5,linear,0.025,TRUE,25,FALSE,3,3,NA,914,EQ,H1,6,piecewise_cal,0.818,0,1000
7,250,0,250,250,500,500,750,750,2,0,1,0.25,0.25,0.25,0.25,0.25,0.25,0.25,-0.5,-0.5,-0.5,-0.5,-0.5,-0.5,-0.5,-0.5,linear,0.025,TRUE,25,FALSE,3,3,NA,914,EQ,H1,6,poolmodel,0.297,0,1000
7,250,0,250,250,500,500,750,750,2,0,1,0.25,0.25,0.25,0.25,0.25,0.25,0.25,-0.5,-0.5,-0.5,-0.5,-0.5,-0.5,-0.5,-0.5,linear,0.025,TRUE,25,FALSE,3,3,NA,914,EQ,H1,6,sepmodel,0.79,0,1000
7,250,0,250,250,500,500,750,750,2,0,1,0.25,0.25,0.25,0.25,0.25,0.25,0.25,-0.5,-0.5,-0.5,-0.5,-0.5,-0.5,-0.5,-0.5,linear,0.025,TRUE,25,FALSE,3,3,NA,914,EQ,H1,6,splines,0.846,0,1000
7,250,0,250,250,500,500,750,750,2,0,1,0.25,0.25,0.25,0.25,0.25,0.25,0.25,-0.5,-0.5,-0.5,-0.5,-0.5,-0.5,-0.5,-0.5,linear,0.025,TRUE,25,FALSE,3,3,NA,914,EQ,H1,6,splines_cal,0.843,0,1000
7,250,0,250,250,500,500,750,750,2,0,1,0.25,0.25,0.25,0.25,0.25,0.25,0.25,-0.5,-0.5,-0.5,-0.5,-0.5,-0.5,-0.5,-0.5,linear,0.025,TRUE,25,FALSE,3,3,NA,914,EQ,H1,7,fixmodel,0.861,0,1000
7,250,0,250,250,500,500,750,750,2,0,1,0.25,0.25,0.25,0.25,0.25,0.25,0.25,-0.5,-0.5,-0.5,-0.5,-0.5,-0.5,-0.5,-0.5,linear,0.025,TRUE,25,FALSE,3,3,NA,914,EQ,H1,7,fixmodel_cal,0.853,0,1000
7,250,0,250,250,500,500,750,750,2,0,1,0.25,0.25,0.25,0.25,0.25,0.25,0.25,-0.5,-0.5,-0.5,-0.5,-0.5,-0.5,-0.5,-0.5,linear,0.025,TRUE,25,FALSE,3,3,NA,914,EQ,H1,7,mixmodel,0.766,0,1000
7,250,0,250,250,500,500,750,750,2,0,1,0.25,0.25,0.25,0.25,0.25,0.25,0.25,-0.5,-0.5,-0.5,-0.5,-0.5,-0.5,-0.5,-0.5,linear,0.025,TRUE,25,FALSE,3,3,NA,914,EQ,H1,7,mixmodel_AR1,0.793,0,1000
7,250,0,250,250,500,500,750,750,2,0,1,0.25,0.25,0.25,0.25,0.25,0.25,0.25,-0.5,-0.5,-0.5,-0.5,-0.5,-0.5,-0.5,-0.5,linear,0.025,TRUE,25,FALSE,3,3,NA,914,EQ,H1,7,mixmodel_AR1_cal,0.782,0,1000
7,250,0,250,250,500,500,750,750,2,0,1,0.25,0.25,0.25,0.25,0.25,0.25,0.25,-0.5,-0.5,-0.5,-0.5,-0.5,-0.5,-0.5,-0.5,linear,0.025,TRUE,25,FALSE,3,3,NA,914,EQ,H1,7,mixmodel_cal,0.36,0,1000
7,250,0,250,250,500,500,750,750,2,0,1,0.25,0.25,0.25,0.25,0.25,0.25,0.25,-0.5,-0.5,-0.5,-0.5,-0.5,-0.5,-0.5,-0.5,linear,0.025,TRUE,25,FALSE,3,3,NA,914,EQ,H1,7,piecewise,0.862,0,1000
7,250,0,250,250,500,500,750,750,2,0,1,0.25,0.25,0.25,0.25,0.25,0.25,0.25,-0.5,-0.5,-0.5,-0.5,-0.5,-0.5,-0.5,-0.5,linear,0.025,TRUE,25,FALSE,3,3,NA,914,EQ,H1,7,piecewise_cal,0.836,0,1000
7,250,0,250,250,500,500,750,750,2,0,1,0.25,0.25,0.25,0.25,0.25,0.25,0.25,-0.5,-0.5,-0.5,-0.5,-0.5,-0.5,-0.5,-0.5,linear,0.025,TRUE,25,FALSE,3,3,NA,914,EQ,H1,7,poolmodel,0.279,0,1000
7,250,0,250,250,500,500,750,750,2,0,1,0.25,0.25,0.25,0.25,0.25,0.25,0.25,-0.5,-0.5,-0.5,-0.5,-0.5,-0.5,-0.5,-0.5,linear,0.025,TRUE,25,FALSE,3,3,NA,914,EQ,H1,7,sepmodel,0.787,0,1000
7,250,0,250,250,500,500,750,750,2,0,1,0.25,0.25,0.25,0.25,0.25,0.25,0.25,-0.5,-0.5,-0.5,-0.5,-0.5,-0.5,-0.5,-0.5,linear,0.025,TRUE,25,FALSE,3,3,NA,914,EQ,H1,7,splines,0.865,0,1000
7,250,0,250,250,500,500,750,750,2,0,1,0.25,0.25,0.25,0.25,0.25,0.25,0.25,-0.5,-0.5,-0.5,-0.5,-0.5,-0.5,-0.5,-0.5,linear,0.025,TRUE,25,FALSE,3,3,NA,914,EQ,H1,7,splines_cal,0.864,0,1000
7,250,0,250,250,500,500,750,750,2,0,1,0.25,0.25,0.25,0.25,0.25,0.25,0.25,-0.375,-0.375,-0.375,-0.375,-0.375,-0.375,-0.375,-0.375,linear,0.025,TRUE,25,FALSE,1,1,NA,914,EQ,H1,2,fixmodel,0.817,0,1000
7,250,0,250,250,500,500,750,750,2,0,1,0.25,0.25,0.25,0.25,0.25,0.25,0.25,-0.375,-0.375,-0.375,-0.375,-0.375,-0.375,-0.375,-0.375,linear,0.025,TRUE,25,FALSE,1,1,NA,914,EQ,H1,2,fixmodel_cal,0.817,0,1000
7,250,0,250,250,500,500,750,750,2,0,1,0.25,0.25,0.25,0.25,0.25,0.25,0.25,-0.375,-0.375,-0.375,-0.375,-0.375,-0.375,-0.375,-0.375,linear,0.025,TRUE,25,FALSE,1,1,NA,914,EQ,H1,2,mixmodel,0.773,0,1000
7,250,0,250,250,500,500,750,750,2,0,1,0.25,0.25,0.25,0.25,0.25,0.25,0.25,-0.375,-0.375,-0.375,-0.375,-0.375,-0.375,-0.375,-0.375,linear,0.025,TRUE,25,FALSE,1,1,NA,914,EQ,H1,2,mixmodel_AR1,0.762,0,1000
7,250,0,250,250,500,500,750,750,2,0,1,0.25,0.25,0.25,0.25,0.25,0.25,0.25,-0.375,-0.375,-0.375,-0.375,-0.375,-0.375,-0.375,-0.375,linear,0.025,TRUE,25,FALSE,1,1,NA,914,EQ,H1,2,mixmodel_AR1_cal,0.777,0,1000
7,250,0,250,250,500,500,750,750,2,0,1,0.25,0.25,0.25,0.25,0.25,0.25,0.25,-0.375,-0.375,-0.375,-0.375,-0.375,-0.375,-0.375,-0.375,linear,0.025,TRUE,25,FALSE,1,1,NA,914,EQ,H1,2,mixmodel_cal,0.716,0,1000
7,250,0,250,250,500,500,750,750,2,0,1,0.25,0.25,0.25,0.25,0.25,0.25,0.25,-0.375,-0.375,-0.375,-0.375,-0.375,-0.375,-0.375,-0.375,linear,0.025,TRUE,25,FALSE,1,1,NA,914,EQ,H1,2,piecewise,0.817,0,1000
7,250,0,250,250,500,500,750,750,2,0,1,0.25,0.25,0.25,0.25,0.25,0.25,0.25,-0.375,-0.375,-0.375,-0.375,-0.375,-0.375,-0.375,-0.375,linear,0.025,TRUE,25,FALSE,1,1,NA,914,EQ,H1,2,piecewise_cal,0.807,0,1000
7,250,0,250,250,500,500,750,750,2,0,1,0.25,0.25,0.25,0.25,0.25,0.25,0.25,-0.375,-0.375,-0.375,-0.375,-0.375,-0.375,-0.375,-0.375,linear,0.025,TRUE,25,FALSE,1,1,NA,914,EQ,H1,2,poolmodel,0.698,0,1000
7,250,0,250,250,500,500,750,750,2,0,1,0.25,0.25,0.25,0.25,0.25,0.25,0.25,-0.375,-0.375,-0.375,-0.375,-0.375,-0.375,-0.375,-0.375,linear,0.025,TRUE,25,FALSE,1,1,NA,914,EQ,H1,2,sepmodel,0.783,0,1000
7,250,0,250,250,500,500,750,750,2,0,1,0.25,0.25,0.25,0.25,0.25,0.25,0.25,-0.375,-0.375,-0.375,-0.375,-0.375,-0.375,-0.375,-0.375,linear,0.025,TRUE,25,FALSE,1,1,NA,914,EQ,H1,2,splines,0.824,0,1000
7,250,0,250,250,500,500,750,750,2,0,1,0.25,0.25,0.25,0.25,0.25,0.25,0.25,-0.375,-0.375,-0.375,-0.375,-0.375,-0.375,-0.375,-0.375,linear,0.025,TRUE,25,FALSE,1,1,NA,914,EQ,H1,2,splines_cal,0.816,0,1000
7,250,0,250,250,500,500,750,750,2,0,1,0.25,0.25,0.25,0.25,0.25,0.25,0.25,-0.375,-0.375,-0.375,-0.375,-0.375,-0.375,-0.375,-0.375,linear,0.025,TRUE,25,FALSE,1,1,NA,914,EQ,H1,3,fixmodel,0.816,0,1000
7,250,0,250,250,500,500,750,750,2,0,1,0.25,0.25,0.25,0.25,0.25,0.25,0.25,-0.375,-0.375,-0.375,-0.375,-0.375,-0.375,-0.375,-0.375,linear,0.025,TRUE,25,FALSE,1,1,NA,914,EQ,H1,3,fixmodel_cal,0.813,0,1000
7,250,0,250,250,500,500,750,750,2,0,1,0.25,0.25,0.25,0.25,0.25,0.25,0.25,-0.375,-0.375,-0.375,-0.375,-0.375,-0.375,-0.375,-0.375,linear,0.025,TRUE,25,FALSE,1,1,NA,914,EQ,H1,3,mixmodel,0.774,0,1000
7,250,0,250,250,500,500,750,750,2,0,1,0.25,0.25,0.25,0.25,0.25,0.25,0.25,-0.375,-0.375,-0.375,-0.375,-0.375,-0.375,-0.375,-0.375,linear,0.025,TRUE,25,FALSE,1,1,NA,914,EQ,H1,3,mixmodel_AR1,0.762,0,1000
7,250,0,250,250,500,500,750,750,2,0,1,0.25,0.25,0.25,0.25,0.25,0.25,0.25,-0.375,-0.375,-0.375,-0.375,-0.375,-0.375,-0.375,-0.375,linear,0.025,TRUE,25,FALSE,1,1,NA,914,EQ,H1,3,mixmodel_AR1_cal,0.762,0,1000
7,250,0,250,250,500,500,750,750,2,0,1,0.25,0.25,0.25,0.25,0.25,0.25,0.25,-0.375,-0.375,-0.375,-0.375,-0.375,-0.375,-0.375,-0.375,linear,0.025,TRUE,25,FALSE,1,1,NA,914,EQ,H1,3,mixmodel_cal,0.72,0,1000
7,250,0,250,250,500,500,750,750,2,0,1,0.25,0.25,0.25,0.25,0.25,0.25,0.25,-0.375,-0.375,-0.375,-0.375,-0.375,-0.375,-0.375,-0.375,linear,0.025,TRUE,25,FALSE,1,1,NA,914,EQ,H1,3,piecewise,0.815,0,1000
7,250,0,250,250,500,500,750,750,2,0,1,0.25,0.25,0.25,0.25,0.25,0.25,0.25,-0.375,-0.375,-0.375,-0.375,-0.375,-0.375,-0.375,-0.375,linear,0.025,TRUE,25,FALSE,1,1,NA,914,EQ,H1,3,piecewise_cal,0.813,0,1000
7,250,0,250,250,500,500,750,750,2,0,1,0.25,0.25,0.25,0.25,0.25,0.25,0.25,-0.375,-0.375,-0.375,-0.375,-0.375,-0.375,-0.375,-0.375,linear,0.025,TRUE,25,FALSE,1,1,NA,914,EQ,H1,3,poolmodel,0.699,0,1000
7,250,0,250,250,500,500,750,750,2,0,1,0.25,0.25,0.25,0.25,0.25,0.25,0.25,-0.375,-0.375,-0.375,-0.375,-0.375,-0.375,-0.375,-0.375,linear,0.025,TRUE,25,FALSE,1,1,NA,914,EQ,H1,3,sepmodel,0.776,0,1000
7,250,0,250,250,500,500,750,750,2,0,1,0.25,0.25,0.25,0.25,0.25,0.25,0.25,-0.375,-0.375,-0.375,-0.375,-0.375,-0.375,-0.375,-0.375,linear,0.025,TRUE,25,FALSE,1,1,NA,914,EQ,H1,3,splines,0.82,0,1000
7,250,0,250,250,500,500,750,750,2,0,1,0.25,0.25,0.25,0.25,0.25,0.25,0.25,-0.375,-0.375,-0.375,-0.375,-0.375,-0.375,-0.375,-0.375,linear,0.025,TRUE,25,FALSE,1,1,NA,914,EQ,H1,3,splines_cal,0.812,0,1000
7,250,0,250,250,500,500,750,750,2,0,1,0.25,0.25,0.25,0.25,0.25,0.25,0.25,-0.375,-0.375,-0.375,-0.375,-0.375,-0.375,-0.375,-0.375,linear,0.025,TRUE,25,FALSE,1,1,NA,914,EQ,H1,4,fixmodel,0.834,0,1000
7,250,0,250,250,500,500,750,750,2,0,1,0.25,0.25,0.25,0.25,0.25,0.25,0.25,-0.375,-0.375,-0.375,-0.375,-0.375,-0.375,-0.375,-0.375,linear,0.025,TRUE,25,FALSE,1,1,NA,914,EQ,H1,4,fixmodel_cal,0.829,0,1000
7,250,0,250,250,500,500,750,750,2,0,1,0.25,0.25,0.25,0.25,0.25,0.25,0.25,-0.375,-0.375,-0.375,-0.375,-0.375,-0.375,-0.375,-0.375,linear,0.025,TRUE,25,FALSE,1,1,NA,914,EQ,H1,4,mixmodel,0.755,0,1000
7,250,0,250,250,500,500,750,750,2,0,1,0.25,0.25,0.25,0.25,0.25,0.25,0.25,-0.375,-0.375,-0.375,-0.375,-0.375,-0.375,-0.375,-0.375,linear,0.025,TRUE,25,FALSE,1,1,NA,914,EQ,H1,4,mixmodel_AR1,0.753,0,1000
7,250,0,250,250,500,500,750,750,2,0,1,0.25,0.25,0.25,0.25,0.25,0.25,0.25,-0.375,-0.375,-0.375,-0.375,-0.375,-0.375,-0.375,-0.375,linear,0.025,TRUE,25,FALSE,1,1,NA,914,EQ,H1,4,mixmodel_AR1_cal,0.755,0,1000
7,250,0,250,250,500,500,750,750,2,0,1,0.25,0.25,0.25,0.25,0.25,0.25,0.25,-0.375,-0.375,-0.375,-0.375,-0.375,-0.375,-0.375,-0.375,linear,0.025,TRUE,25,FALSE,1,1,NA,914,EQ,H1,4,mixmodel_cal,0.607,0,1000
7,250,0,250,250,500,500,750,750,2,0,1,0.25,0.25,0.25,0.25,0.25,0.25,0.25,-0.375,-0.375,-0.375,-0.375,-0.375,-0.375,-0.375,-0.375,linear,0.025,TRUE,25,FALSE,1,1,NA,914,EQ,H1,4,piecewise,0.835,0,1000
7,250,0,250,250,500,500,750,750,2,0,1,0.25,0.25,0.25,0.25,0.25,0.25,0.25,-0.375,-0.375,-0.375,-0.375,-0.375,-0.375,-0.375,-0.375,linear,0.025,TRUE,25,FALSE,1,1,NA,914,EQ,H1,4,piecewise_cal,0.823,0,1000
7,250,0,250,250,500,500,750,750,2,0,1,0.25,0.25,0.25,0.25,0.25,0.25,0.25,-0.375,-0.375,-0.375,-0.375,-0.375,-0.375,-0.375,-0.375,linear,0.025,TRUE,25,FALSE,1,1,NA,914,EQ,H1,4,poolmodel,0.561,0,1000
7,250,0,250,250,500,500,750,750,2,0,1,0.25,0.25,0.25,0.25,0.25,0.25,0.25,-0.375,-0.375,-0.375,-0.375,-0.375,-0.375,-0.375,-0.375,linear,0.025,TRUE,25,FALSE,1,1,NA,914,EQ,H1,4,sepmodel,0.803,0,1000
7,250,0,250,250,500,500,750,750,2,0,1,0.25,0.25,0.25,0.25,0.25,0.25,0.25,-0.375,-0.375,-0.375,-0.375,-0.375,-0.375,-0.375,-0.375,linear,0.025,TRUE,25,FALSE,1,1,NA,914,EQ,H1,4,splines,0.839,0,1000
7,250,0,250,250,500,500,750,750,2,0,1,0.25,0.25,0.25,0.25,0.25,0.25,0.25,-0.375,-0.375,-0.375,-0.375,-0.375,-0.375,-0.375,-0.375,linear,0.025,TRUE,25,FALSE,1,1,NA,914,EQ,H1,4,splines_cal,0.837,0,1000
7,250,0,250,250,500,500,750,750,2,0,1,0.25,0.25,0.25,0.25,0.25,0.25,0.25,-0.375,-0.375,-0.375,-0.375,-0.375,-0.375,-0.375,-0.375,linear,0.025,TRUE,25,FALSE,1,1,NA,914,EQ,H1,5,fixmodel,0.85,0,1000
7,250,0,250,250,500,500,750,750,2,0,1,0.25,0.25,0.25,0.25,0.25,0.25,0.25,-0.375,-0.375,-0.375,-0.375,-0.375,-0.375,-0.375,-0.375,linear,0.025,TRUE,25,FALSE,1,1,NA,914,EQ,H1,5,fixmodel_cal,0.851,0,1000
7,250,0,250,250,500,500,750,750,2,0,1,0.25,0.25,0.25,0.25,0.25,0.25,0.25,-0.375,-0.375,-0.375,-0.375,-0.375,-0.375,-0.375,-0.375,linear,0.025,TRUE,25,FALSE,1,1,NA,914,EQ,H1,5,mixmodel,0.77,0,1000
7,250,0,250,250,500,500,750,750,2,0,1,0.25,0.25,0.25,0.25,0.25,0.25,0.25,-0.375,-0.375,-0.375,-0.375,-0.375,-0.375,-0.375,-0.375,linear,0.025,TRUE,25,FALSE,1,1,NA,914,EQ,H1,5,mixmodel_AR1,0.765,0,1000
7,250,0,250,250,500,500,750,750,2,0,1,0.25,0.25,0.25,0.25,0.25,0.25,0.25,-0.375,-0.375,-0.375,-0.375,-0.375,-0.375,-0.375,-0.375,linear,0.025,TRUE,25,FALSE,1,1,NA,914,EQ,H1,5,mixmodel_AR1_cal,0.768,0,1000
7,250,0,250,250,500,500,750,750,2,0,1,0.25,0.25,0.25,0.25,0.25,0.25,0.25,-0.375,-0.375,-0.375,-0.375,-0.375,-0.375,-0.375,-0.375,linear,0.025,TRUE,25,FALSE,1,1,NA,914,EQ,H1,5,mixmodel_cal,0.639,0,1000
7,250,0,250,250,500,500,750,750,2,0,1,0.25,0.25,0.25,0.25,0.25,0.25,0.25,-0.375,-0.375,-0.375,-0.375,-0.375,-0.375,-0.375,-0.375,linear,0.025,TRUE,25,FALSE,1,1,NA,914,EQ,H1,5,piecewise,0.85,0,1000
7,250,0,250,250,500,500,750,750,2,0,1,0.25,0.25,0.25,0.25,0.25,0.25,0.25,-0.375,-0.375,-0.375,-0.375,-0.375,-0.375,-0.375,-0.375,linear,0.025,TRUE,25,FALSE,1,1,NA,914,EQ,H1,5,piecewise_cal,0.846,0,1000
7,250,0,250,250,500,500,750,750,2,0,1,0.25,0.25,0.25,0.25,0.25,0.25,0.25,-0.375,-0.375,-0.375,-0.375,-0.375,-0.375,-0.375,-0.375,linear,0.025,TRUE,25,FALSE,1,1,NA,914,EQ,H1,5,poolmodel,0.592,0,1000
7,250,0,250,250,500,500,750,750,2,0,1,0.25,0.25,0.25,0.25,0.25,0.25,0.25,-0.375,-0.375,-0.375,-0.375,-0.375,-0.375,-0.375,-0.375,linear,0.025,TRUE,25,FALSE,1,1,NA,914,EQ,H1,5,sepmodel,0.807,0,1000
7,250,0,250,250,500,500,750,750,2,0,1,0.25,0.25,0.25,0.25,0.25,0.25,0.25,-0.375,-0.375,-0.375,-0.375,-0.375,-0.375,-0.375,-0.375,linear,0.025,TRUE,25,FALSE,1,1,NA,914,EQ,H1,5,splines,0.854,0,1000
7,250,0,250,250,500,500,750,750,2,0,1,0.25,0.25,0.25,0.25,0.25,0.25,0.25,-0.375,-0.375,-0.375,-0.375,-0.375,-0.375,-0.375,-0.375,linear,0.025,TRUE,25,FALSE,1,1,NA,914,EQ,H1,5,splines_cal,0.853,0,1000
7,250,0,250,250,500,500,750,750,2,0,1,0.25,0.25,0.25,0.25,0.25,0.25,0.25,-0.375,-0.375,-0.375,-0.375,-0.375,-0.375,-0.375,-0.375,linear,0.025,TRUE,25,FALSE,1,1,NA,914,EQ,H1,6,fixmodel,0.848,0,1000
7,250,0,250,250,500,500,750,750,2,0,1,0.25,0.25,0.25,0.25,0.25,0.25,0.25,-0.375,-0.375,-0.375,-0.375,-0.375,-0.375,-0.375,-0.375,linear,0.025,TRUE,25,FALSE,1,1,NA,914,EQ,H1,6,fixmodel_cal,0.85,0,1000
7,250,0,250,250,500,500,750,750,2,0,1,0.25,0.25,0.25,0.25,0.25,0.25,0.25,-0.375,-0.375,-0.375,-0.375,-0.375,-0.375,-0.375,-0.375,linear,0.025,TRUE,25,FALSE,1,1,NA,914,EQ,H1,6,mixmodel,0.741,0,1000
7,250,0,250,250,500,500,750,750,2,0,1,0.25,0.25,0.25,0.25,0.25,0.25,0.25,-0.375,-0.375,-0.375,-0.375,-0.375,-0.375,-0.375,-0.375,linear,0.025,TRUE,25,FALSE,1,1,NA,914,EQ,H1,6,mixmodel_AR1,0.767,0,1000
7,250,0,250,250,500,500,750,750,2,0,1,0.25,0.25,0.25,0.25,0.25,0.25,0.25,-0.375,-0.375,-0.375,-0.375,-0.375,-0.375,-0.375,-0.375,linear,0.025,TRUE,25,FALSE,1,1,NA,914,EQ,H1,6,mixmodel_AR1_cal,0.748,0,1000
7,250,0,250,250,500,500,750,750,2,0,1,0.25,0.25,0.25,0.25,0.25,0.25,0.25,-0.375,-0.375,-0.375,-0.375,-0.375,-0.375,-0.375,-0.375,linear,0.025,TRUE,25,FALSE,1,1,NA,914,EQ,H1,6,mixmodel_cal,0.501,0,1000
7,250,0,250,250,500,500,750,750,2,0,1,0.25,0.25,0.25,0.25,0.25,0.25,0.25,-0.375,-0.375,-0.375,-0.375,-0.375,-0.375,-0.375,-0.375,linear,0.025,TRUE,25,FALSE,1,1,NA,914,EQ,H1,6,piecewise,0.848,0,1000
7,250,0,250,250,500,500,750,750,2,0,1,0.25,0.25,0.25,0.25,0.25,0.25,0.25,-0.375,-0.375,-0.375,-0.375,-0.375,-0.375,-0.375,-0.375,linear,0.025,TRUE,25,FALSE,1,1,NA,914,EQ,H1,6,piecewise_cal,0.851,0,1000
7,250,0,250,250,500,500,750,750,2,0,1,0.25,0.25,0.25,0.25,0.25,0.25,0.25,-0.375,-0.375,-0.375,-0.375,-0.375,-0.375,-0.375,-0.375,linear,0.025,TRUE,25,FALSE,1,1,NA,914,EQ,H1,6,poolmodel,0.457,0,1000
7,250,0,250,250,500,500,750,750,2,0,1,0.25,0.25,0.25,0.25,0.25,0.25,0.25,-0.375,-0.375,-0.375,-0.375,-0.375,-0.375,-0.375,-0.375,linear,0.025,TRUE,25,FALSE,1,1,NA,914,EQ,H1,6,sepmodel,0.786,0,1000
7,250,0,250,250,500,500,750,750,2,0,1,0.25,0.25,0.25,0.25,0.25,0.25,0.25,-0.375,-0.375,-0.375,-0.375,-0.375,-0.375,-0.375,-0.375,linear,0.025,TRUE,25,FALSE,1,1,NA,914,EQ,H1,6,splines,0.853,0,1000
7,250,0,250,250,500,500,750,750,2,0,1,0.25,0.25,0.25,0.25,0.25,0.25,0.25,-0.375,-0.375,-0.375,-0.375,-0.375,-0.375,-0.375,-0.375,linear,0.025,TRUE,25,FALSE,1,1,NA,914,EQ,H1,6,splines_cal,0.852,0,1000
7,250,0,250,250,500,500,750,750,2,0,1,0.25,0.25,0.25,0.25,0.25,0.25,0.25,-0.375,-0.375,-0.375,-0.375,-0.375,-0.375,-0.375,-0.375,linear,0.025,TRUE,25,FALSE,1,1,NA,914,EQ,H1,7,fixmodel,0.854,0,1000
7,250,0,250,250,500,500,750,750,2,0,1,0.25,0.25,0.25,0.25,0.25,0.25,0.25,-0.375,-0.375,-0.375,-0.375,-0.375,-0.375,-0.375,-0.375,linear,0.025,TRUE,25,FALSE,1,1,NA,914,EQ,H1,7,fixmodel_cal,0.849,0,1000
7,250,0,250,250,500,500,750,750,2,0,1,0.25,0.25,0.25,0.25,0.25,0.25,0.25,-0.375,-0.375,-0.375,-0.375,-0.375,-0.375,-0.375,-0.375,linear,0.025,TRUE,25,FALSE,1,1,NA,914,EQ,H1,7,mixmodel,0.742,0,1000
7,250,0,250,250,500,500,750,750,2,0,1,0.25,0.25,0.25,0.25,0.25,0.25,0.25,-0.375,-0.375,-0.375,-0.375,-0.375,-0.375,-0.375,-0.375,linear,0.025,TRUE,25,FALSE,1,1,NA,914,EQ,H1,7,mixmodel_AR1,0.766,0,1000
7,250,0,250,250,500,500,750,750,2,0,1,0.25,0.25,0.25,0.25,0.25,0.25,0.25,-0.375,-0.375,-0.375,-0.375,-0.375,-0.375,-0.375,-0.375,linear,0.025,TRUE,25,FALSE,1,1,NA,914,EQ,H1,7,mixmodel_AR1_cal,0.749,0,1000
7,250,0,250,250,500,500,750,750,2,0,1,0.25,0.25,0.25,0.25,0.25,0.25,0.25,-0.375,-0.375,-0.375,-0.375,-0.375,-0.375,-0.375,-0.375,linear,0.025,TRUE,25,FALSE,1,1,NA,914,EQ,H1,7,mixmodel_cal,0.509,0,1000
7,250,0,250,250,500,500,750,750,2,0,1,0.25,0.25,0.25,0.25,0.25,0.25,0.25,-0.375,-0.375,-0.375,-0.375,-0.375,-0.375,-0.375,-0.375,linear,0.025,TRUE,25,FALSE,1,1,NA,914,EQ,H1,7,piecewise,0.854,0,1000
7,250,0,250,250,500,500,750,750,2,0,1,0.25,0.25,0.25,0.25,0.25,0.25,0.25,-0.375,-0.375,-0.375,-0.375,-0.375,-0.375,-0.375,-0.375,linear,0.025,TRUE,25,FALSE,1,1,NA,914,EQ,H1,7,piecewise_cal,0.842,0,1000
7,250,0,250,250,500,500,750,750,2,0,1,0.25,0.25,0.25,0.25,0.25,0.25,0.25,-0.375,-0.375,-0.375,-0.375,-0.375,-0.375,-0.375,-0.375,linear,0.025,TRUE,25,FALSE,1,1,NA,914,EQ,H1,7,poolmodel,0.459,0,1000
7,250,0,250,250,500,500,750,750,2,0,1,0.25,0.25,0.25,0.25,0.25,0.25,0.25,-0.375,-0.375,-0.375,-0.375,-0.375,-0.375,-0.375,-0.375,linear,0.025,TRUE,25,FALSE,1,1,NA,914,EQ,H1,7,sepmodel,0.799,0,1000
7,250,0,250,250,500,500,750,750,2,0,1,0.25,0.25,0.25,0.25,0.25,0.25,0.25,-0.375,-0.375,-0.375,-0.375,-0.375,-0.375,-0.375,-0.375,linear,0.025,TRUE,25,FALSE,1,1,NA,914,EQ,H1,7,splines,0.856,0,1000
7,250,0,250,250,500,500,750,750,2,0,1,0.25,0.25,0.25,0.25,0.25,0.25,0.25,-0.375,-0.375,-0.375,-0.375,-0.375,-0.375,-0.375,-0.375,linear,0.025,TRUE,25,FALSE,1,1,NA,914,EQ,H1,7,splines_cal,0.853,0,1000
7,250,0,250,250,500,500,750,750,2,0,1,0.25,0.25,0.25,0.25,0.25,0.25,0.25,-0.375,-0.375,-0.375,-0.375,-0.375,-0.375,-0.375,-0.375,linear,0.025,TRUE,25,FALSE,2,2,NA,914,EQ,H1,2,fixmodel,0.861,0,1000
7,250,0,250,250,500,500,750,750,2,0,1,0.25,0.25,0.25,0.25,0.25,0.25,0.25,-0.375,-0.375,-0.375,-0.375,-0.375,-0.375,-0.375,-0.375,linear,0.025,TRUE,25,FALSE,2,2,NA,914,EQ,H1,2,fixmodel_cal,0.861,0,1000
7,250,0,250,250,500,500,750,750,2,0,1,0.25,0.25,0.25,0.25,0.25,0.25,0.25,-0.375,-0.375,-0.375,-0.375,-0.375,-0.375,-0.375,-0.375,linear,0.025,TRUE,25,FALSE,2,2,NA,914,EQ,H1,2,mixmodel,0.814,0,1000
7,250,0,250,250,500,500,750,750,2,0,1,0.25,0.25,0.25,0.25,0.25,0.25,0.25,-0.375,-0.375,-0.375,-0.375,-0.375,-0.375,-0.375,-0.375,linear,0.025,TRUE,25,FALSE,2,2,NA,914,EQ,H1,2,mixmodel_AR1,0.812,0,1000
7,250,0,250,250,500,500,750,750,2,0,1,0.25,0.25,0.25,0.25,0.25,0.25,0.25,-0.375,-0.375,-0.375,-0.375,-0.375,-0.375,-0.375,-0.375,linear,0.025,TRUE,25,FALSE,2,2,NA,914,EQ,H1,2,mixmodel_AR1_cal,0.803,0,1000
7,250,0,250,250,500,500,750,750,2,0,1,0.25,0.25,0.25,0.25,0.25,0.25,0.25,-0.375,-0.375,-0.375,-0.375,-0.375,-0.375,-0.375,-0.375,linear,0.025,TRUE,25,FALSE,2,2,NA,914,EQ,H1,2,mixmodel_cal,0.744,0,1000
7,250,0,250,250,500,500,750,750,2,0,1,0.25,0.25,0.25,0.25,0.25,0.25,0.25,-0.375,-0.375,-0.375,-0.375,-0.375,-0.375,-0.375,-0.375,linear,0.025,TRUE,25,FALSE,2,2,NA,914,EQ,H1,2,piecewise,0.861,0,1000
7,250,0,250,250,500,500,750,750,2,0,1,0.25,0.25,0.25,0.25,0.25,0.25,0.25,-0.375,-0.375,-0.375,-0.375,-0.375,-0.375,-0.375,-0.375,linear,0.025,TRUE,25,FALSE,2,2,NA,914,EQ,H1,2,piecewise_cal,0.848,0,1000
7,250,0,250,250,500,500,750,750,2,0,1,0.25,0.25,0.25,0.25,0.25,0.25,0.25,-0.375,-0.375,-0.375,-0.375,-0.375,-0.375,-0.375,-0.375,linear,0.025,TRUE,25,FALSE,2,2,NA,914,EQ,H1,2,poolmodel,0.733,0,1000
7,250,0,250,250,500,500,750,750,2,0,1,0.25,0.25,0.25,0.25,0.25,0.25,0.25,-0.375,-0.375,-0.375,-0.375,-0.375,-0.375,-0.375,-0.375,linear,0.025,TRUE,25,FALSE,2,2,NA,914,EQ,H1,2,sepmodel,0.816,0,1000
7,250,0,250,250,500,500,750,750,2,0,1,0.25,0.25,0.25,0.25,0.25,0.25,0.25,-0.375,-0.375,-0.375,-0.375,-0.375,-0.375,-0.375,-0.375,linear,0.025,TRUE,25,FALSE,2,2,NA,914,EQ,H1,2,splines,0.86,0,1000
7,250,0,250,250,500,500,750,750,2,0,1,0.25,0.25,0.25,0.25,0.25,0.25,0.25,-0.375,-0.375,-0.375,-0.375,-0.375,-0.375,-0.375,-0.375,linear,0.025,TRUE,25,FALSE,2,2,NA,914,EQ,H1,2,splines_cal,0.862,0,1000
7,250,0,250,250,500,500,750,750,2,0,1,0.25,0.25,0.25,0.25,0.25,0.25,0.25,-0.375,-0.375,-0.375,-0.375,-0.375,-0.375,-0.375,-0.375,linear,0.025,TRUE,25,FALSE,2,2,NA,914,EQ,H1,3,fixmodel,0.819,0,1000
7,250,0,250,250,500,500,750,750,2,0,1,0.25,0.25,0.25,0.25,0.25,0.25,0.25,-0.375,-0.375,-0.375,-0.375,-0.375,-0.375,-0.375,-0.375,linear,0.025,TRUE,25,FALSE,2,2,NA,914,EQ,H1,3,fixmodel_cal,0.816,0,1000
7,250,0,250,250,500,500,750,750,2,0,1,0.25,0.25,0.25,0.25,0.25,0.25,0.25,-0.375,-0.375,-0.375,-0.375,-0.375,-0.375,-0.375,-0.375,linear,0.025,TRUE,25,FALSE,2,2,NA,914,EQ,H1,3,mixmodel,0.774,0,1000
7,250,0,250,250,500,500,750,750,2,0,1,0.25,0.25,0.25,0.25,0.25,0.25,0.25,-0.375,-0.375,-0.375,-0.375,-0.375,-0.375,-0.375,-0.375,linear,0.025,TRUE,25,FALSE,2,2,NA,914,EQ,H1,3,mixmodel_AR1,0.761,0,1000
7,250,0,250,250,500,500,750,750,2,0,1,0.25,0.25,0.25,0.25,0.25,0.25,0.25,-0.375,-0.375,-0.375,-0.375,-0.375,-0.375,-0.375,-0.375,linear,0.025,TRUE,25,FALSE,2,2,NA,914,EQ,H1,3,mixmodel_AR1_cal,0.757,0,1000
7,250,0,250,250,500,500,750,750,2,0,1,0.25,0.25,0.25,0.25,0.25,0.25,0.25,-0.375,-0.375,-0.375,-0.375,-0.375,-0.375,-0.375,-0.375,linear,0.025,TRUE,25,FALSE,2,2,NA,914,EQ,H1,3,mixmodel_cal,0.702,0,1000
7,250,0,250,250,500,500,750,750,2,0,1,0.25,0.25,0.25,0.25,0.25,0.25,0.25,-0.375,-0.375,-0.375,-0.375,-0.375,-0.375,-0.375,-0.375,linear,0.025,TRUE,25,FALSE,2,2,NA,914,EQ,H1,3,piecewise,0.82,0,1000
7,250,0,250,250,500,500,750,750,2,0,1,0.25,0.25,0.25,0.25,0.25,0.25,0.25,-0.375,-0.375,-0.375,-0.375,-0.375,-0.375,-0.375,-0.375,linear,0.025,TRUE,25,FALSE,2,2,NA,914,EQ,H1,3,piecewise_cal,0.8,0,1000
7,250,0,250,250,500,500,750,750,2,0,1,0.25,0.25,0.25,0.25,0.25,0.25,0.25,-0.375,-0.375,-0.375,-0.375,-0.375,-0.375,-0.375,-0.375,linear,0.025,TRUE,25,FALSE,2,2,NA,914,EQ,H1,3,poolmodel,0.688,0,1000
7,250,0,250,250,500,500,750,750,2,0,1,0.25,0.25,0.25,0.25,0.25,0.25,0.25,-0.375,-0.375,-0.375,-0.375,-0.375,-0.375,-0.375,-0.375,linear,0.025,TRUE,25,FALSE,2,2,NA,914,EQ,H1,3,sepmodel,0.796,0,1000
7,250,0,250,250,500,500,750,750,2,0,1,0.25,0.25,0.25,0.25,0.25,0.25,0.25,-0.375,-0.375,-0.375,-0.375,-0.375,-0.375,-0.375,-0.375,linear,0.025,TRUE,25,FALSE,2,2,NA,914,EQ,H1,3,splines,0.822,0,1000
7,250,0,250,250,500,500,750,750,2,0,1,0.25,0.25,0.25,0.25,0.25,0.25,0.25,-0.375,-0.375,-0.375,-0.375,-0.375,-0.375,-0.375,-0.375,linear,0.025,TRUE,25,FALSE,2,2,NA,914,EQ,H1,3,splines_cal,0.814,0,1000
7,250,0,250,250,500,500,750,750,2,0,1,0.25,0.25,0.25,0.25,0.25,0.25,0.25,-0.375,-0.375,-0.375,-0.375,-0.375,-0.375,-0.375,-0.375,linear,0.025,TRUE,25,FALSE,2,2,NA,914,EQ,H1,4,fixmodel,0.844,0,1000
7,250,0,250,250,500,500,750,750,2,0,1,0.25,0.25,0.25,0.25,0.25,0.25,0.25,-0.375,-0.375,-0.375,-0.375,-0.375,-0.375,-0.375,-0.375,linear,0.025,TRUE,25,FALSE,2,2,NA,914,EQ,H1,4,fixmodel_cal,0.84,0,1000
7,250,0,250,250,500,500,750,750,2,0,1,0.25,0.25,0.25,0.25,0.25,0.25,0.25,-0.375,-0.375,-0.375,-0.375,-0.375,-0.375,-0.375,-0.375,linear,0.025,TRUE,25,FALSE,2,2,NA,914,EQ,H1,4,mixmodel,0.765,0,1000
7,250,0,250,250,500,500,750,750,2,0,1,0.25,0.25,0.25,0.25,0.25,0.25,0.25,-0.375,-0.375,-0.375,-0.375,-0.375,-0.375,-0.375,-0.375,linear,0.025,TRUE,25,FALSE,2,2,NA,914,EQ,H1,4,mixmodel_AR1,0.759,0,1000
7,250,0,250,250,500,500,750,750,2,0,1,0.25,0.25,0.25,0.25,0.25,0.25,0.25,-0.375,-0.375,-0.375,-0.375,-0.375,-0.375,-0.375,-0.375,linear,0.025,TRUE,25,FALSE,2,2,NA,914,EQ,H1,4,mixmodel_AR1_cal,0.757,0,1000
7,250,0,250,250,500,500,750,750,2,0,1,0.25,0.25,0.25,0.25,0.25,0.25,0.25,-0.375,-0.375,-0.375,-0.375,-0.375,-0.375,-0.375,-0.375,linear,0.025,TRUE,25,FALSE,2,2,NA,914,EQ,H1,4,mixmodel_cal,0.603,0,1000
7,250,0,250,250,500,500,750,750,2,0,1,0.25,0.25,0.25,0.25,0.25,0.25,0.25,-0.375,-0.375,-0.375,-0.375,-0.375,-0.375,-0.375,-0.375,linear,0.025,TRUE,25,FALSE,2,2,NA,914,EQ,H1,4,piecewise,0.844,0,1000
7,250,0,250,250,500,500,750,750,2,0,1,0.25,0.25,0.25,0.25,0.25,0.25,0.25,-0.375,-0.375,-0.375,-0.375,-0.375,-0.375,-0.375,-0.375,linear,0.025,TRUE,25,FALSE,2,2,NA,914,EQ,H1,4,piecewise_cal,0.825,0,1000
7,250,0,250,250,500,500,750,750,2,0,1,0.25,0.25,0.25,0.25,0.25,0.25,0.25,-0.375,-0.375,-0.375,-0.375,-0.375,-0.375,-0.375,-0.375,linear,0.025,TRUE,25,FALSE,2,2,NA,914,EQ,H1,4,poolmodel,0.565,0,1000
7,250,0,250,250,500,500,750,750,2,0,1,0.25,0.25,0.25,0.25,0.25,0.25,0.25,-0.375,-0.375,-0.375,-0.375,-0.375,-0.375,-0.375,-0.375,linear,0.025,TRUE,25,FALSE,2,2,NA,914,EQ,H1,4,sepmodel,0.797,0,1000
7,250,0,250,250,500,500,750,750,2,0,1,0.25,0.25,0.25,0.25,0.25,0.25,0.25,-0.375,-0.375,-0.375,-0.375,-0.375,-0.375,-0.375,-0.375,linear,0.025,TRUE,25,FALSE,2,2,NA,914,EQ,H1,4,splines,0.846,0,1000
7,250,0,250,250,500,500,750,750,2,0,1,0.25,0.25,0.25,0.25,0.25,0.25,0.25,-0.375,-0.375,-0.375,-0.375,-0.375,-0.375,-0.375,-0.375,linear,0.025,TRUE,25,FALSE,2,2,NA,914,EQ,H1,4,splines_cal,0.844,0,1000
7,250,0,250,250,500,500,750,750,2,0,1,0.25,0.25,0.25,0.25,0.25,0.25,0.25,-0.375,-0.375,-0.375,-0.375,-0.375,-0.375,-0.375,-0.375,linear,0.025,TRUE,25,FALSE,2,2,NA,914,EQ,H1,5,fixmodel,0.846,0,1000
7,250,0,250,250,500,500,750,750,2,0,1,0.25,0.25,0.25,0.25,0.25,0.25,0.25,-0.375,-0.375,-0.375,-0.375,-0.375,-0.375,-0.375,-0.375,linear,0.025,TRUE,25,FALSE,2,2,NA,914,EQ,H1,5,fixmodel_cal,0.848,0,1000
7,250,0,250,250,500,500,750,750,2,0,1,0.25,0.25,0.25,0.25,0.25,0.25,0.25,-0.375,-0.375,-0.375,-0.375,-0.375,-0.375,-0.375,-0.375,linear,0.025,TRUE,25,FALSE,2,2,NA,914,EQ,H1,5,mixmodel,0.763,0,1000
7,250,0,250,250,500,500,750,750,2,0,1,0.25,0.25,0.25,0.25,0.25,0.25,0.25,-0.375,-0.375,-0.375,-0.375,-0.375,-0.375,-0.375,-0.375,linear,0.025,TRUE,25,FALSE,2,2,NA,914,EQ,H1,5,mixmodel_AR1,0.761,0,1000
7,250,0,250,250,500,500,750,750,2,0,1,0.25,0.25,0.25,0.25,0.25,0.25,0.25,-0.375,-0.375,-0.375,-0.375,-0.375,-0.375,-0.375,-0.375,linear,0.025,TRUE,25,FALSE,2,2,NA,914,EQ,H1,5,mixmodel_AR1_cal,0.769,0,1000
7,250,0,250,250,500,500,750,750,2,0,1,0.25,0.25,0.25,0.25,0.25,0.25,0.25,-0.375,-0.375,-0.375,-0.375,-0.375,-0.375,-0.375,-0.375,linear,0.025,TRUE,25,FALSE,2,2,NA,914,EQ,H1,5,mixmodel_cal,0.6,0,1000
7,250,0,250,250,500,500,750,750,2,0,1,0.25,0.25,0.25,0.25,0.25,0.25,0.25,-0.375,-0.375,-0.375,-0.375,-0.375,-0.375,-0.375,-0.375,linear,0.025,TRUE,25,FALSE,2,2,NA,914,EQ,H1,5,piecewise,0.846,0,1000
7,250,0,250,250,500,500,750,750,2,0,1,0.25,0.25,0.25,0.25,0.25,0.25,0.25,-0.375,-0.375,-0.375,-0.375,-0.375,-0.375,-0.375,-0.375,linear,0.025,TRUE,25,FALSE,2,2,NA,914,EQ,H1,5,piecewise_cal,0.83,0,1000
7,250,0,250,250,500,500,750,750,2,0,1,0.25,0.25,0.25,0.25,0.25,0.25,0.25,-0.375,-0.375,-0.375,-0.375,-0.375,-0.375,-0.375,-0.375,linear,0.025,TRUE,25,FALSE,2,2,NA,914,EQ,H1,5,poolmodel,0.564,0,1000
7,250,0,250,250,500,500,750,750,2,0,1,0.25,0.25,0.25,0.25,0.25,0.25,0.25,-0.375,-0.375,-0.375,-0.375,-0.375,-0.375,-0.375,-0.375,linear,0.025,TRUE,25,FALSE,2,2,NA,914,EQ,H1,5,sepmodel,0.792,0,1000
7,250,0,250,250,500,500,750,750,2,0,1,0.25,0.25,0.25,0.25,0.25,0.25,0.25,-0.375,-0.375,-0.375,-0.375,-0.375,-0.375,-0.375,-0.375,linear,0.025,TRUE,25,FALSE,2,2,NA,914,EQ,H1,5,splines,0.853,0,1000
7,250,0,250,250,500,500,750,750,2,0,1,0.25,0.25,0.25,0.25,0.25,0.25,0.25,-0.375,-0.375,-0.375,-0.375,-0.375,-0.375,-0.375,-0.375,linear,0.025,TRUE,25,FALSE,2,2,NA,914,EQ,H1,5,splines_cal,0.845,0,1000
7,250,0,250,250,500,500,750,750,2,0,1,0.25,0.25,0.25,0.25,0.25,0.25,0.25,-0.375,-0.375,-0.375,-0.375,-0.375,-0.375,-0.375,-0.375,linear,0.025,TRUE,25,FALSE,2,2,NA,914,EQ,H1,6,fixmodel,0.828,0,1000
7,250,0,250,250,500,500,750,750,2,0,1,0.25,0.25,0.25,0.25,0.25,0.25,0.25,-0.375,-0.375,-0.375,-0.375,-0.375,-0.375,-0.375,-0.375,linear,0.025,TRUE,25,FALSE,2,2,NA,914,EQ,H1,6,fixmodel_cal,0.821,0,1000
7,250,0,250,250,500,500,750,750,2,0,1,0.25,0.25,0.25,0.25,0.25,0.25,0.25,-0.375,-0.375,-0.375,-0.375,-0.375,-0.375,-0.375,-0.375,linear,0.025,TRUE,25,FALSE,2,2,NA,914,EQ,H1,6,mixmodel,0.712,0,1000
7,250,0,250,250,500,500,750,750,2,0,1,0.25,0.25,0.25,0.25,0.25,0.25,0.25,-0.375,-0.375,-0.375,-0.375,-0.375,-0.375,-0.375,-0.375,linear,0.025,TRUE,25,FALSE,2,2,NA,914,EQ,H1,6,mixmodel_AR1,0.732,0,1000
7,250,0,250,250,500,500,750,750,2,0,1,0.25,0.25,0.25,0.25,0.25,0.25,0.25,-0.375,-0.375,-0.375,-0.375,-0.375,-0.375,-0.375,-0.375,linear,0.025,TRUE,25,FALSE,2,2,NA,914,EQ,H1,6,mixmodel_AR1_cal,0.715,0,1000
7,250,0,250,250,500,500,750,750,2,0,1,0.25,0.25,0.25,0.25,0.25,0.25,0.25,-0.375,-0.375,-0.375,-0.375,-0.375,-0.375,-0.375,-0.375,linear,0.025,TRUE,25,FALSE,2,2,NA,914,EQ,H1,6,mixmodel_cal,0.504,0,1000
7,250,0,250,250,500,500,750,750,2,0,1,0.25,0.25,0.25,0.25,0.25,0.25,0.25,-0.375,-0.375,-0.375,-0.375,-0.375,-0.375,-0.375,-0.375,linear,0.025,TRUE,25,FALSE,2,2,NA,914,EQ,H1,6,piecewise,0.827,0,1000
7,250,0,250,250,500,500,750,750,2,0,1,0.25,0.25,0.25,0.25,0.25,0.25,0.25,-0.375,-0.375,-0.375,-0.375,-0.375,-0.375,-0.375,-0.375,linear,0.025,TRUE,25,FALSE,2,2,NA,914,EQ,H1,6,piecewise_cal,0.805,0,1000
7,250,0,250,250,500,500,750,750,2,0,1,0.25,0.25,0.25,0.25,0.25,0.25,0.25,-0.375,-0.375,-0.375,-0.375,-0.375,-0.375,-0.375,-0.375,linear,0.025,TRUE,25,FALSE,2,2,NA,914,EQ,H1,6,poolmodel,0.459,0,1000
7,250,0,250,250,500,500,750,750,2,0,1,0.25,0.25,0.25,0.25,0.25,0.25,0.25,-0.375,-0.375,-0.375,-0.375,-0.375,-0.375,-0.375,-0.375,linear,0.025,TRUE,25,FALSE,2,2,NA,914,EQ,H1,6,sepmodel,0.778,0,1000
7,250,0,250,250,500,500,750,750,2,0,1,0.25,0.25,0.25,0.25,0.25,0.25,0.25,-0.375,-0.375,-0.375,-0.375,-0.375,-0.375,-0.375,-0.375,linear,0.025,TRUE,25,FALSE,2,2,NA,914,EQ,H1,6,splines,0.828,0,1000
7,250,0,250,250,500,500,750,750,2,0,1,0.25,0.25,0.25,0.25,0.25,0.25,0.25,-0.375,-0.375,-0.375,-0.375,-0.375,-0.375,-0.375,-0.375,linear,0.025,TRUE,25,FALSE,2,2,NA,914,EQ,H1,6,splines_cal,0.829,0,1000
7,250,0,250,250,500,500,750,750,2,0,1,0.25,0.25,0.25,0.25,0.25,0.25,0.25,-0.375,-0.375,-0.375,-0.375,-0.375,-0.375,-0.375,-0.375,linear,0.025,TRUE,25,FALSE,2,2,NA,914,EQ,H1,7,fixmodel,0.839,0,1000
7,250,0,250,250,500,500,750,750,2,0,1,0.25,0.25,0.25,0.25,0.25,0.25,0.25,-0.375,-0.375,-0.375,-0.375,-0.375,-0.375,-0.375,-0.375,linear,0.025,TRUE,25,FALSE,2,2,NA,914,EQ,H1,7,fixmodel_cal,0.835,0,1000
7,250,0,250,250,500,500,750,750,2,0,1,0.25,0.25,0.25,0.25,0.25,0.25,0.25,-0.375,-0.375,-0.375,-0.375,-0.375,-0.375,-0.375,-0.375,linear,0.025,TRUE,25,FALSE,2,2,NA,914,EQ,H1,7,mixmodel,0.713,0,1000
7,250,0,250,250,500,500,750,750,2,0,1,0.25,0.25,0.25,0.25,0.25,0.25,0.25,-0.375,-0.375,-0.375,-0.375,-0.375,-0.375,-0.375,-0.375,linear,0.025,TRUE,25,FALSE,2,2,NA,914,EQ,H1,7,mixmodel_AR1,0.733,0,1000
7,250,0,250,250,500,500,750,750,2,0,1,0.25,0.25,0.25,0.25,0.25,0.25,0.25,-0.375,-0.375,-0.375,-0.375,-0.375,-0.375,-0.375,-0.375,linear,0.025,TRUE,25,FALSE,2,2,NA,914,EQ,H1,7,mixmodel_AR1_cal,0.724,0,1000
7,250,0,250,250,500,500,750,750,2,0,1,0.25,0.25,0.25,0.25,0.25,0.25,0.25,-0.375,-0.375,-0.375,-0.375,-0.375,-0.375,-0.375,-0.375,linear,0.025,TRUE,25,FALSE,2,2,NA,914,EQ,H1,7,mixmodel_cal,0.476,0,1000
7,250,0,250,250,500,500,750,750,2,0,1,0.25,0.25,0.25,0.25,0.25,0.25,0.25,-0.375,-0.375,-0.375,-0.375,-0.375,-0.375,-0.375,-0.375,linear,0.025,TRUE,25,FALSE,2,2,NA,914,EQ,H1,7,piecewise,0.84,0,1000
7,250,0,250,250,500,500,750,750,2,0,1,0.25,0.25,0.25,0.25,0.25,0.25,0.25,-0.375,-0.375,-0.375,-0.375,-0.375,-0.375,-0.375,-0.375,linear,0.025,TRUE,25,FALSE,2,2,NA,914,EQ,H1,7,piecewise_cal,0.82,0,1000
7,250,0,250,250,500,500,750,750,2,0,1,0.25,0.25,0.25,0.25,0.25,0.25,0.25,-0.375,-0.375,-0.375,-0.375,-0.375,-0.375,-0.375,-0.375,linear,0.025,TRUE,25,FALSE,2,2,NA,914,EQ,H1,7,poolmodel,0.425,0,1000
7,250,0,250,250,500,500,750,750,2,0,1,0.25,0.25,0.25,0.25,0.25,0.25,0.25,-0.375,-0.375,-0.375,-0.375,-0.375,-0.375,-0.375,-0.375,linear,0.025,TRUE,25,FALSE,2,2,NA,914,EQ,H1,7,sepmodel,0.793,0,1000
7,250,0,250,250,500,500,750,750,2,0,1,0.25,0.25,0.25,0.25,0.25,0.25,0.25,-0.375,-0.375,-0.375,-0.375,-0.375,-0.375,-0.375,-0.375,linear,0.025,TRUE,25,FALSE,2,2,NA,914,EQ,H1,7,splines,0.843,0,1000
7,250,0,250,250,500,500,750,750,2,0,1,0.25,0.25,0.25,0.25,0.25,0.25,0.25,-0.375,-0.375,-0.375,-0.375,-0.375,-0.375,-0.375,-0.375,linear,0.025,TRUE,25,FALSE,2,2,NA,914,EQ,H1,7,splines_cal,0.841,0,1000
7,250,0,250,250,500,500,750,750,2,0,1,0.25,0.25,0.25,0.25,0.25,0.25,0.25,-0.375,-0.375,-0.375,-0.375,-0.375,-0.375,-0.375,-0.375,linear,0.025,TRUE,25,FALSE,3,3,NA,914,EQ,H1,2,fixmodel,0.822,0,1000
7,250,0,250,250,500,500,750,750,2,0,1,0.25,0.25,0.25,0.25,0.25,0.25,0.25,-0.375,-0.375,-0.375,-0.375,-0.375,-0.375,-0.375,-0.375,linear,0.025,TRUE,25,FALSE,3,3,NA,914,EQ,H1,2,fixmodel_cal,0.819,0,1000
7,250,0,250,250,500,500,750,750,2,0,1,0.25,0.25,0.25,0.25,0.25,0.25,0.25,-0.375,-0.375,-0.375,-0.375,-0.375,-0.375,-0.375,-0.375,linear,0.025,TRUE,25,FALSE,3,3,NA,914,EQ,H1,2,mixmodel,0.784,0,1000
7,250,0,250,250,500,500,750,750,2,0,1,0.25,0.25,0.25,0.25,0.25,0.25,0.25,-0.375,-0.375,-0.375,-0.375,-0.375,-0.375,-0.375,-0.375,linear,0.025,TRUE,25,FALSE,3,3,NA,914,EQ,H1,2,mixmodel_AR1,0.769,0,1000
7,250,0,250,250,500,500,750,750,2,0,1,0.25,0.25,0.25,0.25,0.25,0.25,0.25,-0.375,-0.375,-0.375,-0.375,-0.375,-0.375,-0.375,-0.375,linear,0.025,TRUE,25,FALSE,3,3,NA,914,EQ,H1,2,mixmodel_AR1_cal,0.771,0,1000
7,250,0,250,250,500,500,750,750,2,0,1,0.25,0.25,0.25,0.25,0.25,0.25,0.25,-0.375,-0.375,-0.375,-0.375,-0.375,-0.375,-0.375,-0.375,linear,0.025,TRUE,25,FALSE,3,3,NA,914,EQ,H1,2,mixmodel_cal,0.713,0,1000
7,250,0,250,250,500,500,750,750,2,0,1,0.25,0.25,0.25,0.25,0.25,0.25,0.25,-0.375,-0.375,-0.375,-0.375,-0.375,-0.375,-0.375,-0.375,linear,0.025,TRUE,25,FALSE,3,3,NA,914,EQ,H1,2,piecewise,0.82,0,1000
7,250,0,250,250,500,500,750,750,2,0,1,0.25,0.25,0.25,0.25,0.25,0.25,0.25,-0.375,-0.375,-0.375,-0.375,-0.375,-0.375,-0.375,-0.375,linear,0.025,TRUE,25,FALSE,3,3,NA,914,EQ,H1,2,piecewise_cal,0.804,0,1000
7,250,0,250,250,500,500,750,750,2,0,1,0.25,0.25,0.25,0.25,0.25,0.25,0.25,-0.375,-0.375,-0.375,-0.375,-0.375,-0.375,-0.375,-0.375,linear,0.025,TRUE,25,FALSE,3,3,NA,914,EQ,H1,2,poolmodel,0.69,0,1000
7,250,0,250,250,500,500,750,750,2,0,1,0.25,0.25,0.25,0.25,0.25,0.25,0.25,-0.375,-0.375,-0.375,-0.375,-0.375,-0.375,-0.375,-0.375,linear,0.025,TRUE,25,FALSE,3,3,NA,914,EQ,H1,2,sepmodel,0.792,0,1000
7,250,0,250,250,500,500,750,750,2,0,1,0.25,0.25,0.25,0.25,0.25,0.25,0.25,-0.375,-0.375,-0.375,-0.375,-0.375,-0.375,-0.375,-0.375,linear,0.025,TRUE,25,FALSE,3,3,NA,914,EQ,H1,2,splines,0.826,0,1000
7,250,0,250,250,500,500,750,750,2,0,1,0.25,0.25,0.25,0.25,0.25,0.25,0.25,-0.375,-0.375,-0.375,-0.375,-0.375,-0.375,-0.375,-0.375,linear,0.025,TRUE,25,FALSE,3,3,NA,914,EQ,H1,2,splines_cal,0.825,0,1000
7,250,0,250,250,500,500,750,750,2,0,1,0.25,0.25,0.25,0.25,0.25,0.25,0.25,-0.375,-0.375,-0.375,-0.375,-0.375,-0.375,-0.375,-0.375,linear,0.025,TRUE,25,FALSE,3,3,NA,914,EQ,H1,3,fixmodel,0.799,0,1000
7,250,0,250,250,500,500,750,750,2,0,1,0.25,0.25,0.25,0.25,0.25,0.25,0.25,-0.375,-0.375,-0.375,-0.375,-0.375,-0.375,-0.375,-0.375,linear,0.025,TRUE,25,FALSE,3,3,NA,914,EQ,H1,3,fixmodel_cal,0.795,0,1000
7,250,0,250,250,500,500,750,750,2,0,1,0.25,0.25,0.25,0.25,0.25,0.25,0.25,-0.375,-0.375,-0.375,-0.375,-0.375,-0.375,-0.375,-0.375,linear,0.025,TRUE,25,FALSE,3,3,NA,914,EQ,H1,3,mixmodel,0.747,0,1000
7,250,0,250,250,500,500,750,750,2,0,1,0.25,0.25,0.25,0.25,0.25,0.25,0.25,-0.375,-0.375,-0.375,-0.375,-0.375,-0.375,-0.375,-0.375,linear,0.025,TRUE,25,FALSE,3,3,NA,914,EQ,H1,3,mixmodel_AR1,0.732,0,1000
7,250,0,250,250,500,500,750,750,2,0,1,0.25,0.25,0.25,0.25,0.25,0.25,0.25,-0.375,-0.375,-0.375,-0.375,-0.375,-0.375,-0.375,-0.375,linear,0.025,TRUE,25,FALSE,3,3,NA,914,EQ,H1,3,mixmodel_AR1_cal,0.735,0,1000
7,250,0,250,250,500,500,750,750,2,0,1,0.25,0.25,0.25,0.25,0.25,0.25,0.25,-0.375,-0.375,-0.375,-0.375,-0.375,-0.375,-0.375,-0.375,linear,0.025,TRUE,25,FALSE,3,3,NA,914,EQ,H1,3,mixmodel_cal,0.673,0,1000
7,250,0,250,250,500,500,750,750,2,0,1,0.25,0.25,0.25,0.25,0.25,0.25,0.25,-0.375,-0.375,-0.375,-0.375,-0.375,-0.375,-0.375,-0.375,linear,0.025,TRUE,25,FALSE,3,3,NA,914,EQ,H1,3,piecewise,0.796,0,1000
7,250,0,250,250,500,500,750,750,2,0,1,0.25,0.25,0.25,0.25,0.25,0.25,0.25,-0.375,-0.375,-0.375,-0.375,-0.375,-0.375,-0.375,-0.375,linear,0.025,TRUE,25,FALSE,3,3,NA,914,EQ,H1,3,piecewise_cal,0.757,0,1000
7,250,0,250,250,500,500,750,750,2,0,1,0.25,0.25,0.25,0.25,0.25,0.25,0.25,-0.375,-0.375,-0.375,-0.375,-0.375,-0.375,-0.375,-0.375,linear,0.025,TRUE,25,FALSE,3,3,NA,914,EQ,H1,3,poolmodel,0.653,0,1000
7,250,0,250,250,500,500,750,750,2,0,1,0.25,0.25,0.25,0.25,0.25,0.25,0.25,-0.375,-0.375,-0.375,-0.375,-0.375,-0.375,-0.375,-0.375,linear,0.025,TRUE,25,FALSE,3,3,NA,914,EQ,H1,3,sepmodel,0.775,0,1000
7,250,0,250,250,500,500,750,750,2,0,1,0.25,0.25,0.25,0.25,0.25,0.25,0.25,-0.375,-0.375,-0.375,-0.375,-0.375,-0.375,-0.375,-0.375,linear,0.025,TRUE,25,FALSE,3,3,NA,914,EQ,H1,3,splines,0.805,0,1000
7,250,0,250,250,500,500,750,750,2,0,1,0.25,0.25,0.25,0.25,0.25,0.25,0.25,-0.375,-0.375,-0.375,-0.375,-0.375,-0.375,-0.375,-0.375,linear,0.025,TRUE,25,FALSE,3,3,NA,914,EQ,H1,3,splines_cal,0.793,0,1000
7,250,0,250,250,500,500,750,750,2,0,1,0.25,0.25,0.25,0.25,0.25,0.25,0.25,-0.375,-0.375,-0.375,-0.375,-0.375,-0.375,-0.375,-0.375,linear,0.025,TRUE,25,FALSE,3,3,NA,914,EQ,H1,4,fixmodel,0.832,0,1000
7,250,0,250,250,500,500,750,750,2,0,1,0.25,0.25,0.25,0.25,0.25,0.25,0.25,-0.375,-0.375,-0.375,-0.375,-0.375,-0.375,-0.375,-0.375,linear,0.025,TRUE,25,FALSE,3,3,NA,914,EQ,H1,4,fixmodel_cal,0.835,0,1000
7,250,0,250,250,500,500,750,750,2,0,1,0.25,0.25,0.25,0.25,0.25,0.25,0.25,-0.375,-0.375,-0.375,-0.375,-0.375,-0.375,-0.375,-0.375,linear,0.025,TRUE,25,FALSE,3,3,NA,914,EQ,H1,4,mixmodel,0.751,0,1000
7,250,0,250,250,500,500,750,750,2,0,1,0.25,0.25,0.25,0.25,0.25,0.25,0.25,-0.375,-0.375,-0.375,-0.375,-0.375,-0.375,-0.375,-0.375,linear,0.025,TRUE,25,FALSE,3,3,NA,914,EQ,H1,4,mixmodel_AR1,0.745,0,1000
7,250,0,250,250,500,500,750,750,2,0,1,0.25,0.25,0.25,0.25,0.25,0.25,0.25,-0.375,-0.375,-0.375,-0.375,-0.375,-0.375,-0.375,-0.375,linear,0.025,TRUE,25,FALSE,3,3,NA,914,EQ,H1,4,mixmodel_AR1_cal,0.748,0,1000
7,250,0,250,250,500,500,750,750,2,0,1,0.25,0.25,0.25,0.25,0.25,0.25,0.25,-0.375,-0.375,-0.375,-0.375,-0.375,-0.375,-0.375,-0.375,linear,0.025,TRUE,25,FALSE,3,3,NA,914,EQ,H1,4,mixmodel_cal,0.574,0,1000
7,250,0,250,250,500,500,750,750,2,0,1,0.25,0.25,0.25,0.25,0.25,0.25,0.25,-0.375,-0.375,-0.375,-0.375,-0.375,-0.375,-0.375,-0.375,linear,0.025,TRUE,25,FALSE,3,3,NA,914,EQ,H1,4,piecewise,0.835,0,1000
7,250,0,250,250,500,500,750,750,2,0,1,0.25,0.25,0.25,0.25,0.25,0.25,0.25,-0.375,-0.375,-0.375,-0.375,-0.375,-0.375,-0.375,-0.375,linear,0.025,TRUE,25,FALSE,3,3,NA,914,EQ,H1,4,piecewise_cal,0.808,0,1000
7,250,0,250,250,500,500,750,750,2,0,1,0.25,0.25,0.25,0.25,0.25,0.25,0.25,-0.375,-0.375,-0.375,-0.375,-0.375,-0.375,-0.375,-0.375,linear,0.025,TRUE,25,FALSE,3,3,NA,914,EQ,H1,4,poolmodel,0.536,0,1000
7,250,0,250,250,500,500,750,750,2,0,1,0.25,0.25,0.25,0.25,0.25,0.25,0.25,-0.375,-0.375,-0.375,-0.375,-0.375,-0.375,-0.375,-0.375,linear,0.025,TRUE,25,FALSE,3,3,NA,914,EQ,H1,4,sepmodel,0.782,0,1000
7,250,0,250,250,500,500,750,750,2,0,1,0.25,0.25,0.25,0.25,0.25,0.25,0.25,-0.375,-0.375,-0.375,-0.375,-0.375,-0.375,-0.375,-0.375,linear,0.025,TRUE,25,FALSE,3,3,NA,914,EQ,H1,4,splines,0.839,0,1000
7,250,0,250,250,500,500,750,750,2,0,1,0.25,0.25,0.25,0.25,0.25,0.25,0.25,-0.375,-0.375,-0.375,-0.375,-0.375,-0.375,-0.375,-0.375,linear,0.025,TRUE,25,FALSE,3,3,NA,914,EQ,H1,4,splines_cal,0.841,0,1000
7,250,0,250,250,500,500,750,750,2,0,1,0.25,0.25,0.25,0.25,0.25,0.25,0.25,-0.375,-0.375,-0.375,-0.375,-0.375,-0.375,-0.375,-0.375,linear,0.025,TRUE,25,FALSE,3,3,NA,914,EQ,H1,5,fixmodel,0.848,0,1000
7,250,0,250,250,500,500,750,750,2,0,1,0.25,0.25,0.25,0.25,0.25,0.25,0.25,-0.375,-0.375,-0.375,-0.375,-0.375,-0.375,-0.375,-0.375,linear,0.025,TRUE,25,FALSE,3,3,NA,914,EQ,H1,5,fixmodel_cal,0.847,0,1000
7,250,0,250,250,500,500,750,750,2,0,1,0.25,0.25,0.25,0.25,0.25,0.25,0.25,-0.375,-0.375,-0.375,-0.375,-0.375,-0.375,-0.375,-0.375,linear,0.025,TRUE,25,FALSE,3,3,NA,914,EQ,H1,5,mixmodel,0.758,0,1000
7,250,0,250,250,500,500,750,750,2,0,1,0.25,0.25,0.25,0.25,0.25,0.25,0.25,-0.375,-0.375,-0.375,-0.375,-0.375,-0.375,-0.375,-0.375,linear,0.025,TRUE,25,FALSE,3,3,NA,914,EQ,H1,5,mixmodel_AR1,0.753,0,1000
7,250,0,250,250,500,500,750,750,2,0,1,0.25,0.25,0.25,0.25,0.25,0.25,0.25,-0.375,-0.375,-0.375,-0.375,-0.375,-0.375,-0.375,-0.375,linear,0.025,TRUE,25,FALSE,3,3,NA,914,EQ,H1,5,mixmodel_AR1_cal,0.76,0,1000
7,250,0,250,250,500,500,750,750,2,0,1,0.25,0.25,0.25,0.25,0.25,0.25,0.25,-0.375,-0.375,-0.375,-0.375,-0.375,-0.375,-0.375,-0.375,linear,0.025,TRUE,25,FALSE,3,3,NA,914,EQ,H1,5,mixmodel_cal,0.602,0,1000
7,250,0,250,250,500,500,750,750,2,0,1,0.25,0.25,0.25,0.25,0.25,0.25,0.25,-0.375,-0.375,-0.375,-0.375,-0.375,-0.375,-0.375,-0.375,linear,0.025,TRUE,25,FALSE,3,3,NA,914,EQ,H1,5,piecewise,0.848,0,1000
7,250,0,250,250,500,500,750,750,2,0,1,0.25,0.25,0.25,0.25,0.25,0.25,0.25,-0.375,-0.375,-0.375,-0.375,-0.375,-0.375,-0.375,-0.375,linear,0.025,TRUE,25,FALSE,3,3,NA,914,EQ,H1,5,piecewise_cal,0.81,0,1000
7,250,0,250,250,500,500,750,750,2,0,1,0.25,0.25,0.25,0.25,0.25,0.25,0.25,-0.375,-0.375,-0.375,-0.375,-0.375,-0.375,-0.375,-0.375,linear,0.025,TRUE,25,FALSE,3,3,NA,914,EQ,H1,5,poolmodel,0.57,0,1000
7,250,0,250,250,500,500,750,750,2,0,1,0.25,0.25,0.25,0.25,0.25,0.25,0.25,-0.375,-0.375,-0.375,-0.375,-0.375,-0.375,-0.375,-0.375,linear,0.025,TRUE,25,FALSE,3,3,NA,914,EQ,H1,5,sepmodel,0.786,0,1000
7,250,0,250,250,500,500,750,750,2,0,1,0.25,0.25,0.25,0.25,0.25,0.25,0.25,-0.375,-0.375,-0.375,-0.375,-0.375,-0.375,-0.375,-0.375,linear,0.025,TRUE,25,FALSE,3,3,NA,914,EQ,H1,5,splines,0.852,0,1000
7,250,0,250,250,500,500,750,750,2,0,1,0.25,0.25,0.25,0.25,0.25,0.25,0.25,-0.375,-0.375,-0.375,-0.375,-0.375,-0.375,-0.375,-0.375,linear,0.025,TRUE,25,FALSE,3,3,NA,914,EQ,H1,5,splines_cal,0.844,0,1000
7,250,0,250,250,500,500,750,750,2,0,1,0.25,0.25,0.25,0.25,0.25,0.25,0.25,-0.375,-0.375,-0.375,-0.375,-0.375,-0.375,-0.375,-0.375,linear,0.025,TRUE,25,FALSE,3,3,NA,914,EQ,H1,6,fixmodel,0.821,0,1000
7,250,0,250,250,500,500,750,750,2,0,1,0.25,0.25,0.25,0.25,0.25,0.25,0.25,-0.375,-0.375,-0.375,-0.375,-0.375,-0.375,-0.375,-0.375,linear,0.025,TRUE,25,FALSE,3,3,NA,914,EQ,H1,6,fixmodel_cal,0.816,0,1000
7,250,0,250,250,500,500,750,750,2,0,1,0.25,0.25,0.25,0.25,0.25,0.25,0.25,-0.375,-0.375,-0.375,-0.375,-0.375,-0.375,-0.375,-0.375,linear,0.025,TRUE,25,FALSE,3,3,NA,914,EQ,H1,6,mixmodel,0.712,0,1000
7,250,0,250,250,500,500,750,750,2,0,1,0.25,0.25,0.25,0.25,0.25,0.25,0.25,-0.375,-0.375,-0.375,-0.375,-0.375,-0.375,-0.375,-0.375,linear,0.025,TRUE,25,FALSE,3,3,NA,914,EQ,H1,6,mixmodel_AR1,0.732,0,1000
7,250,0,250,250,500,500,750,750,2,0,1,0.25,0.25,0.25,0.25,0.25,0.25,0.25,-0.375,-0.375,-0.375,-0.375,-0.375,-0.375,-0.375,-0.375,linear,0.025,TRUE,25,FALSE,3,3,NA,914,EQ,H1,6,mixmodel_AR1_cal,0.719,0,1000
7,250,0,250,250,500,500,750,750,2,0,1,0.25,0.25,0.25,0.25,0.25,0.25,0.25,-0.375,-0.375,-0.375,-0.375,-0.375,-0.375,-0.375,-0.375,linear,0.025,TRUE,25,FALSE,3,3,NA,914,EQ,H1,6,mixmodel_cal,0.464,0,1000
7,250,0,250,250,500,500,750,750,2,0,1,0.25,0.25,0.25,0.25,0.25,0.25,0.25,-0.375,-0.375,-0.375,-0.375,-0.375,-0.375,-0.375,-0.375,linear,0.025,TRUE,25,FALSE,3,3,NA,914,EQ,H1,6,piecewise,0.822,0,1000
7,250,0,250,250,500,500,750,750,2,0,1,0.25,0.25,0.25,0.25,0.25,0.25,0.25,-0.375,-0.375,-0.375,-0.375,-0.375,-0.375,-0.375,-0.375,linear,0.025,TRUE,25,FALSE,3,3,NA,914,EQ,H1,6,piecewise_cal,0.802,0,1000
7,250,0,250,250,500,500,750,750,2,0,1,0.25,0.25,0.25,0.25,0.25,0.25,0.25,-0.375,-0.375,-0.375,-0.375,-0.375,-0.375,-0.375,-0.375,linear,0.025,TRUE,25,FALSE,3,3,NA,914,EQ,H1,6,poolmodel,0.417,0,1000
7,250,0,250,250,500,500,750,750,2,0,1,0.25,0.25,0.25,0.25,0.25,0.25,0.25,-0.375,-0.375,-0.375,-0.375,-0.375,-0.375,-0.375,-0.375,linear,0.025,TRUE,25,FALSE,3,3,NA,914,EQ,H1,6,sepmodel,0.757,0,1000
7,250,0,250,250,500,500,750,750,2,0,1,0.25,0.25,0.25,0.25,0.25,0.25,0.25,-0.375,-0.375,-0.375,-0.375,-0.375,-0.375,-0.375,-0.375,linear,0.025,TRUE,25,FALSE,3,3,NA,914,EQ,H1,6,splines,0.824,0,1000
7,250,0,250,250,500,500,750,750,2,0,1,0.25,0.25,0.25,0.25,0.25,0.25,0.25,-0.375,-0.375,-0.375,-0.375,-0.375,-0.375,-0.375,-0.375,linear,0.025,TRUE,25,FALSE,3,3,NA,914,EQ,H1,6,splines_cal,0.829,0,1000
7,250,0,250,250,500,500,750,750,2,0,1,0.25,0.25,0.25,0.25,0.25,0.25,0.25,-0.375,-0.375,-0.375,-0.375,-0.375,-0.375,-0.375,-0.375,linear,0.025,TRUE,25,FALSE,3,3,NA,914,EQ,H1,7,fixmodel,0.835,0,1000
7,250,0,250,250,500,500,750,750,2,0,1,0.25,0.25,0.25,0.25,0.25,0.25,0.25,-0.375,-0.375,-0.375,-0.375,-0.375,-0.375,-0.375,-0.375,linear,0.025,TRUE,25,FALSE,3,3,NA,914,EQ,H1,7,fixmodel_cal,0.826,0,1000
7,250,0,250,250,500,500,750,750,2,0,1,0.25,0.25,0.25,0.25,0.25,0.25,0.25,-0.375,-0.375,-0.375,-0.375,-0.375,-0.375,-0.375,-0.375,linear,0.025,TRUE,25,FALSE,3,3,NA,914,EQ,H1,7,mixmodel,0.723,0,1000
7,250,0,250,250,500,500,750,750,2,0,1,0.25,0.25,0.25,0.25,0.25,0.25,0.25,-0.375,-0.375,-0.375,-0.375,-0.375,-0.375,-0.375,-0.375,linear,0.025,TRUE,25,FALSE,3,3,NA,914,EQ,H1,7,mixmodel_AR1,0.741,0,1000
7,250,0,250,250,500,500,750,750,2,0,1,0.25,0.25,0.25,0.25,0.25,0.25,0.25,-0.375,-0.375,-0.375,-0.375,-0.375,-0.375,-0.375,-0.375,linear,0.025,TRUE,25,FALSE,3,3,NA,914,EQ,H1,7,mixmodel_AR1_cal,0.736,0,1000
7,250,0,250,250,500,500,750,750,2,0,1,0.25,0.25,0.25,0.25,0.25,0.25,0.25,-0.375,-0.375,-0.375,-0.375,-0.375,-0.375,-0.375,-0.375,linear,0.025,TRUE,25,FALSE,3,3,NA,914,EQ,H1,7,mixmodel_cal,0.49,0,1000
7,250,0,250,250,500,500,750,750,2,0,1,0.25,0.25,0.25,0.25,0.25,0.25,0.25,-0.375,-0.375,-0.375,-0.375,-0.375,-0.375,-0.375,-0.375,linear,0.025,TRUE,25,FALSE,3,3,NA,914,EQ,H1,7,piecewise,0.834,0,1000
7,250,0,250,250,500,500,750,750,2,0,1,0.25,0.25,0.25,0.25,0.25,0.25,0.25,-0.375,-0.375,-0.375,-0.375,-0.375,-0.375,-0.375,-0.375,linear,0.025,TRUE,25,FALSE,3,3,NA,914,EQ,H1,7,piecewise_cal,0.804,0,1000
7,250,0,250,250,500,500,750,750,2,0,1,0.25,0.25,0.25,0.25,0.25,0.25,0.25,-0.375,-0.375,-0.375,-0.375,-0.375,-0.375,-0.375,-0.375,linear,0.025,TRUE,25,FALSE,3,3,NA,914,EQ,H1,7,poolmodel,0.442,0,1000
7,250,0,250,250,500,500,750,750,2,0,1,0.25,0.25,0.25,0.25,0.25,0.25,0.25,-0.375,-0.375,-0.375,-0.375,-0.375,-0.375,-0.375,-0.375,linear,0.025,TRUE,25,FALSE,3,3,NA,914,EQ,H1,7,sepmodel,0.788,0,1000
7,250,0,250,250,500,500,750,750,2,0,1,0.25,0.25,0.25,0.25,0.25,0.25,0.25,-0.375,-0.375,-0.375,-0.375,-0.375,-0.375,-0.375,-0.375,linear,0.025,TRUE,25,FALSE,3,3,NA,914,EQ,H1,7,splines,0.84,0,1000
7,250,0,250,250,500,500,750,750,2,0,1,0.25,0.25,0.25,0.25,0.25,0.25,0.25,-0.375,-0.375,-0.375,-0.375,-0.375,-0.375,-0.375,-0.375,linear,0.025,TRUE,25,FALSE,3,3,NA,914,EQ,H1,7,splines_cal,0.834,0,1000
7,250,0,250,250,500,500,750,750,2,0,1,0.25,0.25,0.25,0.25,0.25,0.25,0.25,-0.25,-0.25,-0.25,-0.25,-0.25,-0.25,-0.25,-0.25,linear,0.025,TRUE,25,FALSE,1,1,NA,914,EQ,H1,2,fixmodel,0.843,0,1000
7,250,0,250,250,500,500,750,750,2,0,1,0.25,0.25,0.25,0.25,0.25,0.25,0.25,-0.25,-0.25,-0.25,-0.25,-0.25,-0.25,-0.25,-0.25,linear,0.025,TRUE,25,FALSE,1,1,NA,914,EQ,H1,2,fixmodel_cal,0.841,0,1000
7,250,0,250,250,500,500,750,750,2,0,1,0.25,0.25,0.25,0.25,0.25,0.25,0.25,-0.25,-0.25,-0.25,-0.25,-0.25,-0.25,-0.25,-0.25,linear,0.025,TRUE,25,FALSE,1,1,NA,914,EQ,H1,2,mixmodel,0.817,0,1000
7,250,0,250,250,500,500,750,750,2,0,1,0.25,0.25,0.25,0.25,0.25,0.25,0.25,-0.25,-0.25,-0.25,-0.25,-0.25,-0.25,-0.25,-0.25,linear,0.025,TRUE,25,FALSE,1,1,NA,914,EQ,H1,2,mixmodel_AR1,0.807,0,1000
7,250,0,250,250,500,500,750,750,2,0,1,0.25,0.25,0.25,0.25,0.25,0.25,0.25,-0.25,-0.25,-0.25,-0.25,-0.25,-0.25,-0.25,-0.25,linear,0.025,TRUE,25,FALSE,1,1,NA,914,EQ,H1,2,mixmodel_AR1_cal,0.807,0,1000
7,250,0,250,250,500,500,750,750,2,0,1,0.25,0.25,0.25,0.25,0.25,0.25,0.25,-0.25,-0.25,-0.25,-0.25,-0.25,-0.25,-0.25,-0.25,linear,0.025,TRUE,25,FALSE,1,1,NA,914,EQ,H1,2,mixmodel_cal,0.789,0,1000
7,250,0,250,250,500,500,750,750,2,0,1,0.25,0.25,0.25,0.25,0.25,0.25,0.25,-0.25,-0.25,-0.25,-0.25,-0.25,-0.25,-0.25,-0.25,linear,0.025,TRUE,25,FALSE,1,1,NA,914,EQ,H1,2,piecewise,0.843,0,1000
7,250,0,250,250,500,500,750,750,2,0,1,0.25,0.25,0.25,0.25,0.25,0.25,0.25,-0.25,-0.25,-0.25,-0.25,-0.25,-0.25,-0.25,-0.25,linear,0.025,TRUE,25,FALSE,1,1,NA,914,EQ,H1,2,piecewise_cal,0.835,0,1000
7,250,0,250,250,500,500,750,750,2,0,1,0.25,0.25,0.25,0.25,0.25,0.25,0.25,-0.25,-0.25,-0.25,-0.25,-0.25,-0.25,-0.25,-0.25,linear,0.025,TRUE,25,FALSE,1,1,NA,914,EQ,H1,2,poolmodel,0.786,0,1000
7,250,0,250,250,500,500,750,750,2,0,1,0.25,0.25,0.25,0.25,0.25,0.25,0.25,-0.25,-0.25,-0.25,-0.25,-0.25,-0.25,-0.25,-0.25,linear,0.025,TRUE,25,FALSE,1,1,NA,914,EQ,H1,2,sepmodel,0.817,0,1000
7,250,0,250,250,500,500,750,750,2,0,1,0.25,0.25,0.25,0.25,0.25,0.25,0.25,-0.25,-0.25,-0.25,-0.25,-0.25,-0.25,-0.25,-0.25,linear,0.025,TRUE,25,FALSE,1,1,NA,914,EQ,H1,2,splines,0.85,0,1000
7,250,0,250,250,500,500,750,750,2,0,1,0.25,0.25,0.25,0.25,0.25,0.25,0.25,-0.25,-0.25,-0.25,-0.25,-0.25,-0.25,-0.25,-0.25,linear,0.025,TRUE,25,FALSE,1,1,NA,914,EQ,H1,2,splines_cal,0.85,0,1000
7,250,0,250,250,500,500,750,750,2,0,1,0.25,0.25,0.25,0.25,0.25,0.25,0.25,-0.25,-0.25,-0.25,-0.25,-0.25,-0.25,-0.25,-0.25,linear,0.025,TRUE,25,FALSE,1,1,NA,914,EQ,H1,3,fixmodel,0.813,0,1000
7,250,0,250,250,500,500,750,750,2,0,1,0.25,0.25,0.25,0.25,0.25,0.25,0.25,-0.25,-0.25,-0.25,-0.25,-0.25,-0.25,-0.25,-0.25,linear,0.025,TRUE,25,FALSE,1,1,NA,914,EQ,H1,3,fixmodel_cal,0.805,0,1000
7,250,0,250,250,500,500,750,750,2,0,1,0.25,0.25,0.25,0.25,0.25,0.25,0.25,-0.25,-0.25,-0.25,-0.25,-0.25,-0.25,-0.25,-0.25,linear,0.025,TRUE,25,FALSE,1,1,NA,914,EQ,H1,3,mixmodel,0.787,0,1000
7,250,0,250,250,500,500,750,750,2,0,1,0.25,0.25,0.25,0.25,0.25,0.25,0.25,-0.25,-0.25,-0.25,-0.25,-0.25,-0.25,-0.25,-0.25,linear,0.025,TRUE,25,FALSE,1,1,NA,914,EQ,H1,3,mixmodel_AR1,0.772,0,1000
7,250,0,250,250,500,500,750,750,2,0,1,0.25,0.25,0.25,0.25,0.25,0.25,0.25,-0.25,-0.25,-0.25,-0.25,-0.25,-0.25,-0.25,-0.25,linear,0.025,TRUE,25,FALSE,1,1,NA,914,EQ,H1,3,mixmodel_AR1_cal,0.766,0,1000
7,250,0,250,250,500,500,750,750,2,0,1,0.25,0.25,0.25,0.25,0.25,0.25,0.25,-0.25,-0.25,-0.25,-0.25,-0.25,-0.25,-0.25,-0.25,linear,0.025,TRUE,25,FALSE,1,1,NA,914,EQ,H1,3,mixmodel_cal,0.745,0,1000
7,250,0,250,250,500,500,750,750,2,0,1,0.25,0.25,0.25,0.25,0.25,0.25,0.25,-0.25,-0.25,-0.25,-0.25,-0.25,-0.25,-0.25,-0.25,linear,0.025,TRUE,25,FALSE,1,1,NA,914,EQ,H1,3,piecewise,0.812,0,1000
7,250,0,250,250,500,500,750,750,2,0,1,0.25,0.25,0.25,0.25,0.25,0.25,0.25,-0.25,-0.25,-0.25,-0.25,-0.25,-0.25,-0.25,-0.25,linear,0.025,TRUE,25,FALSE,1,1,NA,914,EQ,H1,3,piecewise_cal,0.794,0,1000
7,250,0,250,250,500,500,750,750,2,0,1,0.25,0.25,0.25,0.25,0.25,0.25,0.25,-0.25,-0.25,-0.25,-0.25,-0.25,-0.25,-0.25,-0.25,linear,0.025,TRUE,25,FALSE,1,1,NA,914,EQ,H1,3,poolmodel,0.737,0,1000
7,250,0,250,250,500,500,750,750,2,0,1,0.25,0.25,0.25,0.25,0.25,0.25,0.25,-0.25,-0.25,-0.25,-0.25,-0.25,-0.25,-0.25,-0.25,linear,0.025,TRUE,25,FALSE,1,1,NA,914,EQ,H1,3,sepmodel,0.79,0,1000
7,250,0,250,250,500,500,750,750,2,0,1,0.25,0.25,0.25,0.25,0.25,0.25,0.25,-0.25,-0.25,-0.25,-0.25,-0.25,-0.25,-0.25,-0.25,linear,0.025,TRUE,25,FALSE,1,1,NA,914,EQ,H1,3,splines,0.818,0,1000
7,250,0,250,250,500,500,750,750,2,0,1,0.25,0.25,0.25,0.25,0.25,0.25,0.25,-0.25,-0.25,-0.25,-0.25,-0.25,-0.25,-0.25,-0.25,linear,0.025,TRUE,25,FALSE,1,1,NA,914,EQ,H1,3,splines_cal,0.817,0,1000
7,250,0,250,250,500,500,750,750,2,0,1,0.25,0.25,0.25,0.25,0.25,0.25,0.25,-0.25,-0.25,-0.25,-0.25,-0.25,-0.25,-0.25,-0.25,linear,0.025,TRUE,25,FALSE,1,1,NA,914,EQ,H1,4,fixmodel,0.807,0,1000
7,250,0,250,250,500,500,750,750,2,0,1,0.25,0.25,0.25,0.25,0.25,0.25,0.25,-0.25,-0.25,-0.25,-0.25,-0.25,-0.25,-0.25,-0.25,linear,0.025,TRUE,25,FALSE,1,1,NA,914,EQ,H1,4,fixmodel_cal,0.79,0,1000
7,250,0,250,250,500,500,750,750,2,0,1,0.25,0.25,0.25,0.25,0.25,0.25,0.25,-0.25,-0.25,-0.25,-0.25,-0.25,-0.25,-0.25,-0.25,linear,0.025,TRUE,25,FALSE,1,1,NA,914,EQ,H1,4,mixmodel,0.73,0,1000
7,250,0,250,250,500,500,750,750,2,0,1,0.25,0.25,0.25,0.25,0.25,0.25,0.25,-0.25,-0.25,-0.25,-0.25,-0.25,-0.25,-0.25,-0.25,linear,0.025,TRUE,25,FALSE,1,1,NA,914,EQ,H1,4,mixmodel_AR1,0.727,0,1000
7,250,0,250,250,500,500,750,750,2,0,1,0.25,0.25,0.25,0.25,0.25,0.25,0.25,-0.25,-0.25,-0.25,-0.25,-0.25,-0.25,-0.25,-0.25,linear,0.025,TRUE,25,FALSE,1,1,NA,914,EQ,H1,4,mixmodel_AR1_cal,0.735,0,1000
7,250,0,250,250,500,500,750,750,2,0,1,0.25,0.25,0.25,0.25,0.25,0.25,0.25,-0.25,-0.25,-0.25,-0.25,-0.25,-0.25,-0.25,-0.25,linear,0.025,TRUE,25,FALSE,1,1,NA,914,EQ,H1,4,mixmodel_cal,0.693,0,1000
7,250,0,250,250,500,500,750,750,2,0,1,0.25,0.25,0.25,0.25,0.25,0.25,0.25,-0.25,-0.25,-0.25,-0.25,-0.25,-0.25,-0.25,-0.25,linear,0.025,TRUE,25,FALSE,1,1,NA,914,EQ,H1,4,piecewise,0.804,0,1000
7,250,0,250,250,500,500,750,750,2,0,1,0.25,0.25,0.25,0.25,0.25,0.25,0.25,-0.25,-0.25,-0.25,-0.25,-0.25,-0.25,-0.25,-0.25,linear,0.025,TRUE,25,FALSE,1,1,NA,914,EQ,H1,4,piecewise_cal,0.798,0,1000
7,250,0,250,250,500,500,750,750,2,0,1,0.25,0.25,0.25,0.25,0.25,0.25,0.25,-0.25,-0.25,-0.25,-0.25,-0.25,-0.25,-0.25,-0.25,linear,0.025,TRUE,25,FALSE,1,1,NA,914,EQ,H1,4,poolmodel,0.673,0,1000
7,250,0,250,250,500,500,750,750,2,0,1,0.25,0.25,0.25,0.25,0.25,0.25,0.25,-0.25,-0.25,-0.25,-0.25,-0.25,-0.25,-0.25,-0.25,linear,0.025,TRUE,25,FALSE,1,1,NA,914,EQ,H1,4,sepmodel,0.774,0,1000
7,250,0,250,250,500,500,750,750,2,0,1,0.25,0.25,0.25,0.25,0.25,0.25,0.25,-0.25,-0.25,-0.25,-0.25,-0.25,-0.25,-0.25,-0.25,linear,0.025,TRUE,25,FALSE,1,1,NA,914,EQ,H1,4,splines,0.813,0,1000
7,250,0,250,250,500,500,750,750,2,0,1,0.25,0.25,0.25,0.25,0.25,0.25,0.25,-0.25,-0.25,-0.25,-0.25,-0.25,-0.25,-0.25,-0.25,linear,0.025,TRUE,25,FALSE,1,1,NA,914,EQ,H1,4,splines_cal,0.808,0,1000
7,250,0,250,250,500,500,750,750,2,0,1,0.25,0.25,0.25,0.25,0.25,0.25,0.25,-0.25,-0.25,-0.25,-0.25,-0.25,-0.25,-0.25,-0.25,linear,0.025,TRUE,25,FALSE,1,1,NA,914,EQ,H1,5,fixmodel,0.843,0,1000
7,250,0,250,250,500,500,750,750,2,0,1,0.25,0.25,0.25,0.25,0.25,0.25,0.25,-0.25,-0.25,-0.25,-0.25,-0.25,-0.25,-0.25,-0.25,linear,0.025,TRUE,25,FALSE,1,1,NA,914,EQ,H1,5,fixmodel_cal,0.843,0,1000
7,250,0,250,250,500,500,750,750,2,0,1,0.25,0.25,0.25,0.25,0.25,0.25,0.25,-0.25,-0.25,-0.25,-0.25,-0.25,-0.25,-0.25,-0.25,linear,0.025,TRUE,25,FALSE,1,1,NA,914,EQ,H1,5,mixmodel,0.768,0,1000
7,250,0,250,250,500,500,750,750,2,0,1,0.25,0.25,0.25,0.25,0.25,0.25,0.25,-0.25,-0.25,-0.25,-0.25,-0.25,-0.25,-0.25,-0.25,linear,0.025,TRUE,25,FALSE,1,1,NA,914,EQ,H1,5,mixmodel_AR1,0.757,0,1000
7,250,0,250,250,500,500,750,750,2,0,1,0.25,0.25,0.25,0.25,0.25,0.25,0.25,-0.25,-0.25,-0.25,-0.25,-0.25,-0.25,-0.25,-0.25,linear,0.025,TRUE,25,FALSE,1,1,NA,914,EQ,H1,5,mixmodel_AR1_cal,0.767,0,1000
7,250,0,250,250,500,500,750,750,2,0,1,0.25,0.25,0.25,0.25,0.25,0.25,0.25,-0.25,-0.25,-0.25,-0.25,-0.25,-0.25,-0.25,-0.25,linear,0.025,TRUE,25,FALSE,1,1,NA,914,EQ,H1,5,mixmodel_cal,0.71,0,1000
7,250,0,250,250,500,500,750,750,2,0,1,0.25,0.25,0.25,0.25,0.25,0.25,0.25,-0.25,-0.25,-0.25,-0.25,-0.25,-0.25,-0.25,-0.25,linear,0.025,TRUE,25,FALSE,1,1,NA,914,EQ,H1,5,piecewise,0.843,0,1000
7,250,0,250,250,500,500,750,750,2,0,1,0.25,0.25,0.25,0.25,0.25,0.25,0.25,-0.25,-0.25,-0.25,-0.25,-0.25,-0.25,-0.25,-0.25,linear,0.025,TRUE,25,FALSE,1,1,NA,914,EQ,H1,5,piecewise_cal,0.832,0,1000
7,250,0,250,250,500,500,750,750,2,0,1,0.25,0.25,0.25,0.25,0.25,0.25,0.25,-0.25,-0.25,-0.25,-0.25,-0.25,-0.25,-0.25,-0.25,linear,0.025,TRUE,25,FALSE,1,1,NA,914,EQ,H1,5,poolmodel,0.675,0,1000
7,250,0,250,250,500,500,750,750,2,0,1,0.25,0.25,0.25,0.25,0.25,0.25,0.25,-0.25,-0.25,-0.25,-0.25,-0.25,-0.25,-0.25,-0.25,linear,0.025,TRUE,25,FALSE,1,1,NA,914,EQ,H1,5,sepmodel,0.799,0,1000
7,250,0,250,250,500,500,750,750,2,0,1,0.25,0.25,0.25,0.25,0.25,0.25,0.25,-0.25,-0.25,-0.25,-0.25,-0.25,-0.25,-0.25,-0.25,linear,0.025,TRUE,25,FALSE,1,1,NA,914,EQ,H1,5,splines,0.85,0,1000
7,250,0,250,250,500,500,750,750,2,0,1,0.25,0.25,0.25,0.25,0.25,0.25,0.25,-0.25,-0.25,-0.25,-0.25,-0.25,-0.25,-0.25,-0.25,linear,0.025,TRUE,25,FALSE,1,1,NA,914,EQ,H1,5,splines_cal,0.842,0,1000
7,250,0,250,250,500,500,750,750,2,0,1,0.25,0.25,0.25,0.25,0.25,0.25,0.25,-0.25,-0.25,-0.25,-0.25,-0.25,-0.25,-0.25,-0.25,linear,0.025,TRUE,25,FALSE,1,1,NA,914,EQ,H1,6,fixmodel,0.815,0,1000
7,250,0,250,250,500,500,750,750,2,0,1,0.25,0.25,0.25,0.25,0.25,0.25,0.25,-0.25,-0.25,-0.25,-0.25,-0.25,-0.25,-0.25,-0.25,linear,0.025,TRUE,25,FALSE,1,1,NA,914,EQ,H1,6,fixmodel_cal,0.817,0,1000
7,250,0,250,250,500,500,750,750,2,0,1,0.25,0.25,0.25,0.25,0.25,0.25,0.25,-0.25,-0.25,-0.25,-0.25,-0.25,-0.25,-0.25,-0.25,linear,0.025,TRUE,25,FALSE,1,1,NA,914,EQ,H1,6,mixmodel,0.709,0,1000
7,250,0,250,250,500,500,750,750,2,0,1,0.25,0.25,0.25,0.25,0.25,0.25,0.25,-0.25,-0.25,-0.25,-0.25,-0.25,-0.25,-0.25,-0.25,linear,0.025,TRUE,25,FALSE,1,1,NA,914,EQ,H1,6,mixmodel_AR1,0.707,0,1000
7,250,0,250,250,500,500,750,750,2,0,1,0.25,0.25,0.25,0.25,0.25,0.25,0.25,-0.25,-0.25,-0.25,-0.25,-0.25,-0.25,-0.25,-0.25,linear,0.025,TRUE,25,FALSE,1,1,NA,914,EQ,H1,6,mixmodel_AR1_cal,0.704,0,1000
7,250,0,250,250,500,500,750,750,2,0,1,0.25,0.25,0.25,0.25,0.25,0.25,0.25,-0.25,-0.25,-0.25,-0.25,-0.25,-0.25,-0.25,-0.25,linear,0.025,TRUE,25,FALSE,1,1,NA,914,EQ,H1,6,mixmodel_cal,0.61,0,1000
7,250,0,250,250,500,500,750,750,2,0,1,0.25,0.25,0.25,0.25,0.25,0.25,0.25,-0.25,-0.25,-0.25,-0.25,-0.25,-0.25,-0.25,-0.25,linear,0.025,TRUE,25,FALSE,1,1,NA,914,EQ,H1,6,piecewise,0.815,0,1000
7,250,0,250,250,500,500,750,750,2,0,1,0.25,0.25,0.25,0.25,0.25,0.25,0.25,-0.25,-0.25,-0.25,-0.25,-0.25,-0.25,-0.25,-0.25,linear,0.025,TRUE,25,FALSE,1,1,NA,914,EQ,H1,6,piecewise_cal,0.812,0,1000
7,250,0,250,250,500,500,750,750,2,0,1,0.25,0.25,0.25,0.25,0.25,0.25,0.25,-0.25,-0.25,-0.25,-0.25,-0.25,-0.25,-0.25,-0.25,linear,0.025,TRUE,25,FALSE,1,1,NA,914,EQ,H1,6,poolmodel,0.589,0,1000
7,250,0,250,250,500,500,750,750,2,0,1,0.25,0.25,0.25,0.25,0.25,0.25,0.25,-0.25,-0.25,-0.25,-0.25,-0.25,-0.25,-0.25,-0.25,linear,0.025,TRUE,25,FALSE,1,1,NA,914,EQ,H1,6,sepmodel,0.763,0,1000
7,250,0,250,250,500,500,750,750,2,0,1,0.25,0.25,0.25,0.25,0.25,0.25,0.25,-0.25,-0.25,-0.25,-0.25,-0.25,-0.25,-0.25,-0.25,linear,0.025,TRUE,25,FALSE,1,1,NA,914,EQ,H1,6,splines,0.819,0,1000
7,250,0,250,250,500,500,750,750,2,0,1,0.25,0.25,0.25,0.25,0.25,0.25,0.25,-0.25,-0.25,-0.25,-0.25,-0.25,-0.25,-0.25,-0.25,linear,0.025,TRUE,25,FALSE,1,1,NA,914,EQ,H1,6,splines_cal,0.813,0,1000
7,250,0,250,250,500,500,750,750,2,0,1,0.25,0.25,0.25,0.25,0.25,0.25,0.25,-0.25,-0.25,-0.25,-0.25,-0.25,-0.25,-0.25,-0.25,linear,0.025,TRUE,25,FALSE,1,1,NA,914,EQ,H1,7,fixmodel,0.857,0,1000
7,250,0,250,250,500,500,750,750,2,0,1,0.25,0.25,0.25,0.25,0.25,0.25,0.25,-0.25,-0.25,-0.25,-0.25,-0.25,-0.25,-0.25,-0.25,linear,0.025,TRUE,25,FALSE,1,1,NA,914,EQ,H1,7,fixmodel_cal,0.853,0,1000
7,250,0,250,250,500,500,750,750,2,0,1,0.25,0.25,0.25,0.25,0.25,0.25,0.25,-0.25,-0.25,-0.25,-0.25,-0.25,-0.25,-0.25,-0.25,linear,0.025,TRUE,25,FALSE,1,1,NA,914,EQ,H1,7,mixmodel,0.753,0,1000
7,250,0,250,250,500,500,750,750,2,0,1,0.25,0.25,0.25,0.25,0.25,0.25,0.25,-0.25,-0.25,-0.25,-0.25,-0.25,-0.25,-0.25,-0.25,linear,0.025,TRUE,25,FALSE,1,1,NA,914,EQ,H1,7,mixmodel_AR1,0.757,0,1000
7,250,0,250,250,500,500,750,750,2,0,1,0.25,0.25,0.25,0.25,0.25,0.25,0.25,-0.25,-0.25,-0.25,-0.25,-0.25,-0.25,-0.25,-0.25,linear,0.025,TRUE,25,FALSE,1,1,NA,914,EQ,H1,7,mixmodel_AR1_cal,0.75,0,1000
7,250,0,250,250,500,500,750,750,2,0,1,0.25,0.25,0.25,0.25,0.25,0.25,0.25,-0.25,-0.25,-0.25,-0.25,-0.25,-0.25,-0.25,-0.25,linear,0.025,TRUE,25,FALSE,1,1,NA,914,EQ,H1,7,mixmodel_cal,0.666,0,1000
7,250,0,250,250,500,500,750,750,2,0,1,0.25,0.25,0.25,0.25,0.25,0.25,0.25,-0.25,-0.25,-0.25,-0.25,-0.25,-0.25,-0.25,-0.25,linear,0.025,TRUE,25,FALSE,1,1,NA,914,EQ,H1,7,piecewise,0.856,0,1000
7,250,0,250,250,500,500,750,750,2,0,1,0.25,0.25,0.25,0.25,0.25,0.25,0.25,-0.25,-0.25,-0.25,-0.25,-0.25,-0.25,-0.25,-0.25,linear,0.025,TRUE,25,FALSE,1,1,NA,914,EQ,H1,7,piecewise_cal,0.845,0,1000
7,250,0,250,250,500,500,750,750,2,0,1,0.25,0.25,0.25,0.25,0.25,0.25,0.25,-0.25,-0.25,-0.25,-0.25,-0.25,-0.25,-0.25,-0.25,linear,0.025,TRUE,25,FALSE,1,1,NA,914,EQ,H1,7,poolmodel,0.642,0,1000
7,250,0,250,250,500,500,750,750,2,0,1,0.25,0.25,0.25,0.25,0.25,0.25,0.25,-0.25,-0.25,-0.25,-0.25,-0.25,-0.25,-0.25,-0.25,linear,0.025,TRUE,25,FALSE,1,1,NA,914,EQ,H1,7,sepmodel,0.798,0,1000
7,250,0,250,250,500,500,750,750,2,0,1,0.25,0.25,0.25,0.25,0.25,0.25,0.25,-0.25,-0.25,-0.25,-0.25,-0.25,-0.25,-0.25,-0.25,linear,0.025,TRUE,25,FALSE,1,1,NA,914,EQ,H1,7,splines,0.854,0,1000
7,250,0,250,250,500,500,750,750,2,0,1,0.25,0.25,0.25,0.25,0.25,0.25,0.25,-0.25,-0.25,-0.25,-0.25,-0.25,-0.25,-0.25,-0.25,linear,0.025,TRUE,25,FALSE,1,1,NA,914,EQ,H1,7,splines_cal,0.851,0,1000
7,250,0,250,250,500,500,750,750,2,0,1,0.25,0.25,0.25,0.25,0.25,0.25,0.25,-0.25,-0.25,-0.25,-0.25,-0.25,-0.25,-0.25,-0.25,linear,0.025,TRUE,25,FALSE,2,2,NA,914,EQ,H1,2,fixmodel,0.803,0,1000
7,250,0,250,250,500,500,750,750,2,0,1,0.25,0.25,0.25,0.25,0.25,0.25,0.25,-0.25,-0.25,-0.25,-0.25,-0.25,-0.25,-0.25,-0.25,linear,0.025,TRUE,25,FALSE,2,2,NA,914,EQ,H1,2,fixmodel_cal,0.803,0,1000
7,250,0,250,250,500,500,750,750,2,0,1,0.25,0.25,0.25,0.25,0.25,0.25,0.25,-0.25,-0.25,-0.25,-0.25,-0.25,-0.25,-0.25,-0.25,linear,0.025,TRUE,25,FALSE,2,2,NA,914,EQ,H1,2,mixmodel,0.773,0,1000
7,250,0,250,250,500,500,750,750,2,0,1,0.25,0.25,0.25,0.25,0.25,0.25,0.25,-0.25,-0.25,-0.25,-0.25,-0.25,-0.25,-0.25,-0.25,linear,0.025,TRUE,25,FALSE,2,2,NA,914,EQ,H1,2,mixmodel_AR1,0.757,0,1000
7,250,0,250,250,500,500,750,750,2,0,1,0.25,0.25,0.25,0.25,0.25,0.25,0.25,-0.25,-0.25,-0.25,-0.25,-0.25,-0.25,-0.25,-0.25,linear,0.025,TRUE,25,FALSE,2,2,NA,914,EQ,H1,2,mixmodel_AR1_cal,0.765,0,1000
7,250,0,250,250,500,500,750,750,2,0,1,0.25,0.25,0.25,0.25,0.25,0.25,0.25,-0.25,-0.25,-0.25,-0.25,-0.25,-0.25,-0.25,-0.25,linear,0.025,TRUE,25,FALSE,2,2,NA,914,EQ,H1,2,mixmodel_cal,0.749,0,1000
7,250,0,250,250,500,500,750,750,2,0,1,0.25,0.25,0.25,0.25,0.25,0.25,0.25,-0.25,-0.25,-0.25,-0.25,-0.25,-0.25,-0.25,-0.25,linear,0.025,TRUE,25,FALSE,2,2,NA,914,EQ,H1,2,piecewise,0.802,0,1000
7,250,0,250,250,500,500,750,750,2,0,1,0.25,0.25,0.25,0.25,0.25,0.25,0.25,-0.25,-0.25,-0.25,-0.25,-0.25,-0.25,-0.25,-0.25,linear,0.025,TRUE,25,FALSE,2,2,NA,914,EQ,H1,2,piecewise_cal,0.795,0,1000
7,250,0,250,250,500,500,750,750,2,0,1,0.25,0.25,0.25,0.25,0.25,0.25,0.25,-0.25,-0.25,-0.25,-0.25,-0.25,-0.25,-0.25,-0.25,linear,0.025,TRUE,25,FALSE,2,2,NA,914,EQ,H1,2,poolmodel,0.741,0,1000
7,250,0,250,250,500,500,750,750,2,0,1,0.25,0.25,0.25,0.25,0.25,0.25,0.25,-0.25,-0.25,-0.25,-0.25,-0.25,-0.25,-0.25,-0.25,linear,0.025,TRUE,25,FALSE,2,2,NA,914,EQ,H1,2,sepmodel,0.773,0,1000
7,250,0,250,250,500,500,750,750,2,0,1,0.25,0.25,0.25,0.25,0.25,0.25,0.25,-0.25,-0.25,-0.25,-0.25,-0.25,-0.25,-0.25,-0.25,linear,0.025,TRUE,25,FALSE,2,2,NA,914,EQ,H1,2,splines,0.807,0,1000
7,250,0,250,250,500,500,750,750,2,0,1,0.25,0.25,0.25,0.25,0.25,0.25,0.25,-0.25,-0.25,-0.25,-0.25,-0.25,-0.25,-0.25,-0.25,linear,0.025,TRUE,25,FALSE,2,2,NA,914,EQ,H1,2,splines_cal,0.81,0,1000
7,250,0,250,250,500,500,750,750,2,0,1,0.25,0.25,0.25,0.25,0.25,0.25,0.25,-0.25,-0.25,-0.25,-0.25,-0.25,-0.25,-0.25,-0.25,linear,0.025,TRUE,25,FALSE,2,2,NA,914,EQ,H1,3,fixmodel,0.803,0,1000
7,250,0,250,250,500,500,750,750,2,0,1,0.25,0.25,0.25,0.25,0.25,0.25,0.25,-0.25,-0.25,-0.25,-0.25,-0.25,-0.25,-0.25,-0.25,linear,0.025,TRUE,25,FALSE,2,2,NA,914,EQ,H1,3,fixmodel_cal,0.8,0,1000
7,250,0,250,250,500,500,750,750,2,0,1,0.25,0.25,0.25,0.25,0.25,0.25,0.25,-0.25,-0.25,-0.25,-0.25,-0.25,-0.25,-0.25,-0.25,linear,0.025,TRUE,25,FALSE,2,2,NA,914,EQ,H1,3,mixmodel,0.779,0,1000
7,250,0,250,250,500,500,750,750,2,0,1,0.25,0.25,0.25,0.25,0.25,0.25,0.25,-0.25,-0.25,-0.25,-0.25,-0.25,-0.25,-0.25,-0.25,linear,0.025,TRUE,25,FALSE,2,2,NA,914,EQ,H1,3,mixmodel_AR1,0.769,0,1000
7,250,0,250,250,500,500,750,750,2,0,1,0.25,0.25,0.25,0.25,0.25,0.25,0.25,-0.25,-0.25,-0.25,-0.25,-0.25,-0.25,-0.25,-0.25,linear,0.025,TRUE,25,FALSE,2,2,NA,914,EQ,H1,3,mixmodel_AR1_cal,0.772,0,1000
