pavlakrotka/MASTERARBEIT/simulations_12_2022/results/results_iv_eq_alpha.csv
num_arms,n_arm,d1,d2,d3,d4,d5,d6,d7,period_blocks,mu0,sigma,theta1,theta2,theta3,theta4,theta5,theta6,theta7,lambda0,lambda1,lambda2,lambda3,lambda4,lambda5,lambda6,lambda7,trend,alpha,ncc,unit_size,ci,bs_degree,poly_degree,n_wave,N_peak,timetrend,hypothesis,study_arm,model,reject_h0,failed,nsim
7,250,0,250,250,500,500,750,750,2,0,1,0,0,0,0,0,0,0,-0.5,-0.5,-0.5,-0.5,-0.5,-0.5,-0.5,-0.5,linear,0.025,TRUE,25,FALSE,1,1,NA,914,EQ,H0,2,fixmodel,0.0239,0,10000
7,250,0,250,250,500,500,750,750,2,0,1,0,0,0,0,0,0,0,-0.5,-0.5,-0.5,-0.5,-0.5,-0.5,-0.5,-0.5,linear,0.025,TRUE,25,FALSE,1,1,NA,914,EQ,H0,2,fixmodel_cal,0.0249,0,10000
7,250,0,250,250,500,500,750,750,2,0,1,0,0,0,0,0,0,0,-0.5,-0.5,-0.5,-0.5,-0.5,-0.5,-0.5,-0.5,linear,0.025,TRUE,25,FALSE,1,1,NA,914,EQ,H0,2,mixmodel,0.0155,0,10000
7,250,0,250,250,500,500,750,750,2,0,1,0,0,0,0,0,0,0,-0.5,-0.5,-0.5,-0.5,-0.5,-0.5,-0.5,-0.5,linear,0.025,TRUE,25,FALSE,1,1,NA,914,EQ,H0,2,mixmodel_AR1,0.0142,0,10000
7,250,0,250,250,500,500,750,750,2,0,1,0,0,0,0,0,0,0,-0.5,-0.5,-0.5,-0.5,-0.5,-0.5,-0.5,-0.5,linear,0.025,TRUE,25,FALSE,1,1,NA,914,EQ,H0,2,mixmodel_AR1_cal,0.0146,0,10000
7,250,0,250,250,500,500,750,750,2,0,1,0,0,0,0,0,0,0,-0.5,-0.5,-0.5,-0.5,-0.5,-0.5,-0.5,-0.5,linear,0.025,TRUE,25,FALSE,1,1,NA,914,EQ,H0,2,mixmodel_cal,0.0044,0,10000
7,250,0,250,250,500,500,750,750,2,0,1,0,0,0,0,0,0,0,-0.5,-0.5,-0.5,-0.5,-0.5,-0.5,-0.5,-0.5,linear,0.025,TRUE,25,FALSE,1,1,NA,914,EQ,H0,2,piecewise,0.0242,0,10000
7,250,0,250,250,500,500,750,750,2,0,1,0,0,0,0,0,0,0,-0.5,-0.5,-0.5,-0.5,-0.5,-0.5,-0.5,-0.5,linear,0.025,TRUE,25,FALSE,1,1,NA,914,EQ,H0,2,piecewise_cal,0.025,0,10000
7,250,0,250,250,500,500,750,750,2,0,1,0,0,0,0,0,0,0,-0.5,-0.5,-0.5,-0.5,-0.5,-0.5,-0.5,-0.5,linear,0.025,TRUE,25,FALSE,1,1,NA,914,EQ,H0,2,poolmodel,0.0035,0,10000
7,250,0,250,250,500,500,750,750,2,0,1,0,0,0,0,0,0,0,-0.5,-0.5,-0.5,-0.5,-0.5,-0.5,-0.5,-0.5,linear,0.025,TRUE,25,FALSE,1,1,NA,914,EQ,H0,2,sepmodel,0.0236,0,10000
7,250,0,250,250,500,500,750,750,2,0,1,0,0,0,0,0,0,0,-0.5,-0.5,-0.5,-0.5,-0.5,-0.5,-0.5,-0.5,linear,0.025,TRUE,25,FALSE,1,1,NA,914,EQ,H0,2,splines,0.0241,0,10000
7,250,0,250,250,500,500,750,750,2,0,1,0,0,0,0,0,0,0,-0.5,-0.5,-0.5,-0.5,-0.5,-0.5,-0.5,-0.5,linear,0.025,TRUE,25,FALSE,1,1,NA,914,EQ,H0,2,splines_cal,0.025,0,10000
7,250,0,250,250,500,500,750,750,2,0,1,0,0,0,0,0,0,0,-0.5,-0.5,-0.5,-0.5,-0.5,-0.5,-0.5,-0.5,linear,0.025,TRUE,25,FALSE,1,1,NA,914,EQ,H0,3,fixmodel,0.0247,0,10000
7,250,0,250,250,500,500,750,750,2,0,1,0,0,0,0,0,0,0,-0.5,-0.5,-0.5,-0.5,-0.5,-0.5,-0.5,-0.5,linear,0.025,TRUE,25,FALSE,1,1,NA,914,EQ,H0,3,fixmodel_cal,0.0251,0,10000
7,250,0,250,250,500,500,750,750,2,0,1,0,0,0,0,0,0,0,-0.5,-0.5,-0.5,-0.5,-0.5,-0.5,-0.5,-0.5,linear,0.025,TRUE,25,FALSE,1,1,NA,914,EQ,H0,3,mixmodel,0.015,0,10000
7,250,0,250,250,500,500,750,750,2,0,1,0,0,0,0,0,0,0,-0.5,-0.5,-0.5,-0.5,-0.5,-0.5,-0.5,-0.5,linear,0.025,TRUE,25,FALSE,1,1,NA,914,EQ,H0,3,mixmodel_AR1,0.0136,0,10000
7,250,0,250,250,500,500,750,750,2,0,1,0,0,0,0,0,0,0,-0.5,-0.5,-0.5,-0.5,-0.5,-0.5,-0.5,-0.5,linear,0.025,TRUE,25,FALSE,1,1,NA,914,EQ,H0,3,mixmodel_AR1_cal,0.0142,0,10000
7,250,0,250,250,500,500,750,750,2,0,1,0,0,0,0,0,0,0,-0.5,-0.5,-0.5,-0.5,-0.5,-0.5,-0.5,-0.5,linear,0.025,TRUE,25,FALSE,1,1,NA,914,EQ,H0,3,mixmodel_cal,0.004,0,10000
7,250,0,250,250,500,500,750,750,2,0,1,0,0,0,0,0,0,0,-0.5,-0.5,-0.5,-0.5,-0.5,-0.5,-0.5,-0.5,linear,0.025,TRUE,25,FALSE,1,1,NA,914,EQ,H0,3,piecewise,0.0248,0,10000
7,250,0,250,250,500,500,750,750,2,0,1,0,0,0,0,0,0,0,-0.5,-0.5,-0.5,-0.5,-0.5,-0.5,-0.5,-0.5,linear,0.025,TRUE,25,FALSE,1,1,NA,914,EQ,H0,3,piecewise_cal,0.025,0,10000
7,250,0,250,250,500,500,750,750,2,0,1,0,0,0,0,0,0,0,-0.5,-0.5,-0.5,-0.5,-0.5,-0.5,-0.5,-0.5,linear,0.025,TRUE,25,FALSE,1,1,NA,914,EQ,H0,3,poolmodel,0.0035,0,10000
7,250,0,250,250,500,500,750,750,2,0,1,0,0,0,0,0,0,0,-0.5,-0.5,-0.5,-0.5,-0.5,-0.5,-0.5,-0.5,linear,0.025,TRUE,25,FALSE,1,1,NA,914,EQ,H0,3,sepmodel,0.0237,0,10000
7,250,0,250,250,500,500,750,750,2,0,1,0,0,0,0,0,0,0,-0.5,-0.5,-0.5,-0.5,-0.5,-0.5,-0.5,-0.5,linear,0.025,TRUE,25,FALSE,1,1,NA,914,EQ,H0,3,splines,0.0244,0,10000
7,250,0,250,250,500,500,750,750,2,0,1,0,0,0,0,0,0,0,-0.5,-0.5,-0.5,-0.5,-0.5,-0.5,-0.5,-0.5,linear,0.025,TRUE,25,FALSE,1,1,NA,914,EQ,H0,3,splines_cal,0.0251,0,10000
7,250,0,250,250,500,500,750,750,2,0,1,0,0,0,0,0,0,0,-0.5,-0.5,-0.5,-0.5,-0.5,-0.5,-0.5,-0.5,linear,0.025,TRUE,25,FALSE,1,1,NA,914,EQ,H0,4,fixmodel,0.025,0,10000
7,250,0,250,250,500,500,750,750,2,0,1,0,0,0,0,0,0,0,-0.5,-0.5,-0.5,-0.5,-0.5,-0.5,-0.5,-0.5,linear,0.025,TRUE,25,FALSE,1,1,NA,914,EQ,H0,4,fixmodel_cal,0.0251,0,10000
7,250,0,250,250,500,500,750,750,2,0,1,0,0,0,0,0,0,0,-0.5,-0.5,-0.5,-0.5,-0.5,-0.5,-0.5,-0.5,linear,0.025,TRUE,25,FALSE,1,1,NA,914,EQ,H0,4,mixmodel,0.0143,0,10000
7,250,0,250,250,500,500,750,750,2,0,1,0,0,0,0,0,0,0,-0.5,-0.5,-0.5,-0.5,-0.5,-0.5,-0.5,-0.5,linear,0.025,TRUE,25,FALSE,1,1,NA,914,EQ,H0,4,mixmodel_AR1,0.0151,0,10000
7,250,0,250,250,500,500,750,750,2,0,1,0,0,0,0,0,0,0,-0.5,-0.5,-0.5,-0.5,-0.5,-0.5,-0.5,-0.5,linear,0.025,TRUE,25,FALSE,1,1,NA,914,EQ,H0,4,mixmodel_AR1_cal,0.0149,0,10000
7,250,0,250,250,500,500,750,750,2,0,1,0,0,0,0,0,0,0,-0.5,-0.5,-0.5,-0.5,-0.5,-0.5,-0.5,-0.5,linear,0.025,TRUE,25,FALSE,1,1,NA,914,EQ,H0,4,mixmodel_cal,9e-4,0,10000
7,250,0,250,250,500,500,750,750,2,0,1,0,0,0,0,0,0,0,-0.5,-0.5,-0.5,-0.5,-0.5,-0.5,-0.5,-0.5,linear,0.025,TRUE,25,FALSE,1,1,NA,914,EQ,H0,4,piecewise,0.0251,0,10000
7,250,0,250,250,500,500,750,750,2,0,1,0,0,0,0,0,0,0,-0.5,-0.5,-0.5,-0.5,-0.5,-0.5,-0.5,-0.5,linear,0.025,TRUE,25,FALSE,1,1,NA,914,EQ,H0,4,piecewise_cal,0.0251,0,10000
7,250,0,250,250,500,500,750,750,2,0,1,0,0,0,0,0,0,0,-0.5,-0.5,-0.5,-0.5,-0.5,-0.5,-0.5,-0.5,linear,0.025,TRUE,25,FALSE,1,1,NA,914,EQ,H0,4,poolmodel,5e-4,0,10000
7,250,0,250,250,500,500,750,750,2,0,1,0,0,0,0,0,0,0,-0.5,-0.5,-0.5,-0.5,-0.5,-0.5,-0.5,-0.5,linear,0.025,TRUE,25,FALSE,1,1,NA,914,EQ,H0,4,sepmodel,0.0259,0,10000
7,250,0,250,250,500,500,750,750,2,0,1,0,0,0,0,0,0,0,-0.5,-0.5,-0.5,-0.5,-0.5,-0.5,-0.5,-0.5,linear,0.025,TRUE,25,FALSE,1,1,NA,914,EQ,H0,4,splines,0.0252,0,10000
7,250,0,250,250,500,500,750,750,2,0,1,0,0,0,0,0,0,0,-0.5,-0.5,-0.5,-0.5,-0.5,-0.5,-0.5,-0.5,linear,0.025,TRUE,25,FALSE,1,1,NA,914,EQ,H0,4,splines_cal,0.0244,0,10000
7,250,0,250,250,500,500,750,750,2,0,1,0,0,0,0,0,0,0,-0.5,-0.5,-0.5,-0.5,-0.5,-0.5,-0.5,-0.5,linear,0.025,TRUE,25,FALSE,1,1,NA,914,EQ,H0,5,fixmodel,0.0248,0,10000
7,250,0,250,250,500,500,750,750,2,0,1,0,0,0,0,0,0,0,-0.5,-0.5,-0.5,-0.5,-0.5,-0.5,-0.5,-0.5,linear,0.025,TRUE,25,FALSE,1,1,NA,914,EQ,H0,5,fixmodel_cal,0.0246,0,10000
7,250,0,250,250,500,500,750,750,2,0,1,0,0,0,0,0,0,0,-0.5,-0.5,-0.5,-0.5,-0.5,-0.5,-0.5,-0.5,linear,0.025,TRUE,25,FALSE,1,1,NA,914,EQ,H0,5,mixmodel,0.0142,0,10000
7,250,0,250,250,500,500,750,750,2,0,1,0,0,0,0,0,0,0,-0.5,-0.5,-0.5,-0.5,-0.5,-0.5,-0.5,-0.5,linear,0.025,TRUE,25,FALSE,1,1,NA,914,EQ,H0,5,mixmodel_AR1,0.015,0,10000
7,250,0,250,250,500,500,750,750,2,0,1,0,0,0,0,0,0,0,-0.5,-0.5,-0.5,-0.5,-0.5,-0.5,-0.5,-0.5,linear,0.025,TRUE,25,FALSE,1,1,NA,914,EQ,H0,5,mixmodel_AR1_cal,0.015,0,10000
7,250,0,250,250,500,500,750,750,2,0,1,0,0,0,0,0,0,0,-0.5,-0.5,-0.5,-0.5,-0.5,-0.5,-0.5,-0.5,linear,0.025,TRUE,25,FALSE,1,1,NA,914,EQ,H0,5,mixmodel_cal,9e-4,0,10000
7,250,0,250,250,500,500,750,750,2,0,1,0,0,0,0,0,0,0,-0.5,-0.5,-0.5,-0.5,-0.5,-0.5,-0.5,-0.5,linear,0.025,TRUE,25,FALSE,1,1,NA,914,EQ,H0,5,piecewise,0.025,0,10000
7,250,0,250,250,500,500,750,750,2,0,1,0,0,0,0,0,0,0,-0.5,-0.5,-0.5,-0.5,-0.5,-0.5,-0.5,-0.5,linear,0.025,TRUE,25,FALSE,1,1,NA,914,EQ,H0,5,piecewise_cal,0.0245,0,10000
7,250,0,250,250,500,500,750,750,2,0,1,0,0,0,0,0,0,0,-0.5,-0.5,-0.5,-0.5,-0.5,-0.5,-0.5,-0.5,linear,0.025,TRUE,25,FALSE,1,1,NA,914,EQ,H0,5,poolmodel,7e-4,0,10000
7,250,0,250,250,500,500,750,750,2,0,1,0,0,0,0,0,0,0,-0.5,-0.5,-0.5,-0.5,-0.5,-0.5,-0.5,-0.5,linear,0.025,TRUE,25,FALSE,1,1,NA,914,EQ,H0,5,sepmodel,0.0243,0,10000
7,250,0,250,250,500,500,750,750,2,0,1,0,0,0,0,0,0,0,-0.5,-0.5,-0.5,-0.5,-0.5,-0.5,-0.5,-0.5,linear,0.025,TRUE,25,FALSE,1,1,NA,914,EQ,H0,5,splines,0.0243,0,10000
7,250,0,250,250,500,500,750,750,2,0,1,0,0,0,0,0,0,0,-0.5,-0.5,-0.5,-0.5,-0.5,-0.5,-0.5,-0.5,linear,0.025,TRUE,25,FALSE,1,1,NA,914,EQ,H0,5,splines_cal,0.025,0,10000
7,250,0,250,250,500,500,750,750,2,0,1,0,0,0,0,0,0,0,-0.5,-0.5,-0.5,-0.5,-0.5,-0.5,-0.5,-0.5,linear,0.025,TRUE,25,FALSE,1,1,NA,914,EQ,H0,6,fixmodel,0.0234,0,10000
7,250,0,250,250,500,500,750,750,2,0,1,0,0,0,0,0,0,0,-0.5,-0.5,-0.5,-0.5,-0.5,-0.5,-0.5,-0.5,linear,0.025,TRUE,25,FALSE,1,1,NA,914,EQ,H0,6,fixmodel_cal,0.0243,0,10000
7,250,0,250,250,500,500,750,750,2,0,1,0,0,0,0,0,0,0,-0.5,-0.5,-0.5,-0.5,-0.5,-0.5,-0.5,-0.5,linear,0.025,TRUE,25,FALSE,1,1,NA,914,EQ,H0,6,mixmodel,0.0104,0,10000
7,250,0,250,250,500,500,750,750,2,0,1,0,0,0,0,0,0,0,-0.5,-0.5,-0.5,-0.5,-0.5,-0.5,-0.5,-0.5,linear,0.025,TRUE,25,FALSE,1,1,NA,914,EQ,H0,6,mixmodel_AR1,0.0122,0,10000
7,250,0,250,250,500,500,750,750,2,0,1,0,0,0,0,0,0,0,-0.5,-0.5,-0.5,-0.5,-0.5,-0.5,-0.5,-0.5,linear,0.025,TRUE,25,FALSE,1,1,NA,914,EQ,H0,6,mixmodel_AR1_cal,0.0117,0,10000
7,250,0,250,250,500,500,750,750,2,0,1,0,0,0,0,0,0,0,-0.5,-0.5,-0.5,-0.5,-0.5,-0.5,-0.5,-0.5,linear,0.025,TRUE,25,FALSE,1,1,NA,914,EQ,H0,6,mixmodel_cal,4e-4,0,10000
7,250,0,250,250,500,500,750,750,2,0,1,0,0,0,0,0,0,0,-0.5,-0.5,-0.5,-0.5,-0.5,-0.5,-0.5,-0.5,linear,0.025,TRUE,25,FALSE,1,1,NA,914,EQ,H0,6,piecewise,0.0236,0,10000
7,250,0,250,250,500,500,750,750,2,0,1,0,0,0,0,0,0,0,-0.5,-0.5,-0.5,-0.5,-0.5,-0.5,-0.5,-0.5,linear,0.025,TRUE,25,FALSE,1,1,NA,914,EQ,H0,6,piecewise_cal,0.0226,0,10000
7,250,0,250,250,500,500,750,750,2,0,1,0,0,0,0,0,0,0,-0.5,-0.5,-0.5,-0.5,-0.5,-0.5,-0.5,-0.5,linear,0.025,TRUE,25,FALSE,1,1,NA,914,EQ,H0,6,poolmodel,1e-4,0,10000
7,250,0,250,250,500,500,750,750,2,0,1,0,0,0,0,0,0,0,-0.5,-0.5,-0.5,-0.5,-0.5,-0.5,-0.5,-0.5,linear,0.025,TRUE,25,FALSE,1,1,NA,914,EQ,H0,6,sepmodel,0.0225,0,10000
7,250,0,250,250,500,500,750,750,2,0,1,0,0,0,0,0,0,0,-0.5,-0.5,-0.5,-0.5,-0.5,-0.5,-0.5,-0.5,linear,0.025,TRUE,25,FALSE,1,1,NA,914,EQ,H0,6,splines,0.0229,0,10000
7,250,0,250,250,500,500,750,750,2,0,1,0,0,0,0,0,0,0,-0.5,-0.5,-0.5,-0.5,-0.5,-0.5,-0.5,-0.5,linear,0.025,TRUE,25,FALSE,1,1,NA,914,EQ,H0,6,splines_cal,0.0234,0,10000
7,250,0,250,250,500,500,750,750,2,0,1,0,0,0,0,0,0,0,-0.5,-0.5,-0.5,-0.5,-0.5,-0.5,-0.5,-0.5,linear,0.025,TRUE,25,FALSE,1,1,NA,914,EQ,H0,7,fixmodel,0.0249,0,10000
7,250,0,250,250,500,500,750,750,2,0,1,0,0,0,0,0,0,0,-0.5,-0.5,-0.5,-0.5,-0.5,-0.5,-0.5,-0.5,linear,0.025,TRUE,25,FALSE,1,1,NA,914,EQ,H0,7,fixmodel_cal,0.0241,0,10000
7,250,0,250,250,500,500,750,750,2,0,1,0,0,0,0,0,0,0,-0.5,-0.5,-0.5,-0.5,-0.5,-0.5,-0.5,-0.5,linear,0.025,TRUE,25,FALSE,1,1,NA,914,EQ,H0,7,mixmodel,0.0122,0,10000
7,250,0,250,250,500,500,750,750,2,0,1,0,0,0,0,0,0,0,-0.5,-0.5,-0.5,-0.5,-0.5,-0.5,-0.5,-0.5,linear,0.025,TRUE,25,FALSE,1,1,NA,914,EQ,H0,7,mixmodel_AR1,0.0145,0,10000
7,250,0,250,250,500,500,750,750,2,0,1,0,0,0,0,0,0,0,-0.5,-0.5,-0.5,-0.5,-0.5,-0.5,-0.5,-0.5,linear,0.025,TRUE,25,FALSE,1,1,NA,914,EQ,H0,7,mixmodel_AR1_cal,0.0136,0,10000
7,250,0,250,250,500,500,750,750,2,0,1,0,0,0,0,0,0,0,-0.5,-0.5,-0.5,-0.5,-0.5,-0.5,-0.5,-0.5,linear,0.025,TRUE,25,FALSE,1,1,NA,914,EQ,H0,7,mixmodel_cal,0,0,10000
7,250,0,250,250,500,500,750,750,2,0,1,0,0,0,0,0,0,0,-0.5,-0.5,-0.5,-0.5,-0.5,-0.5,-0.5,-0.5,linear,0.025,TRUE,25,FALSE,1,1,NA,914,EQ,H0,7,piecewise,0.025,0,10000
7,250,0,250,250,500,500,750,750,2,0,1,0,0,0,0,0,0,0,-0.5,-0.5,-0.5,-0.5,-0.5,-0.5,-0.5,-0.5,linear,0.025,TRUE,25,FALSE,1,1,NA,914,EQ,H0,7,piecewise_cal,0.0257,0,10000
7,250,0,250,250,500,500,750,750,2,0,1,0,0,0,0,0,0,0,-0.5,-0.5,-0.5,-0.5,-0.5,-0.5,-0.5,-0.5,linear,0.025,TRUE,25,FALSE,1,1,NA,914,EQ,H0,7,poolmodel,0,0,10000
7,250,0,250,250,500,500,750,750,2,0,1,0,0,0,0,0,0,0,-0.5,-0.5,-0.5,-0.5,-0.5,-0.5,-0.5,-0.5,linear,0.025,TRUE,25,FALSE,1,1,NA,914,EQ,H0,7,sepmodel,0.0245,0,10000
7,250,0,250,250,500,500,750,750,2,0,1,0,0,0,0,0,0,0,-0.5,-0.5,-0.5,-0.5,-0.5,-0.5,-0.5,-0.5,linear,0.025,TRUE,25,FALSE,1,1,NA,914,EQ,H0,7,splines,0.0259,0,10000
7,250,0,250,250,500,500,750,750,2,0,1,0,0,0,0,0,0,0,-0.5,-0.5,-0.5,-0.5,-0.5,-0.5,-0.5,-0.5,linear,0.025,TRUE,25,FALSE,1,1,NA,914,EQ,H0,7,splines_cal,0.0246,0,10000
7,250,0,250,250,500,500,750,750,2,0,1,0,0,0,0,0,0,0,-0.5,-0.5,-0.5,-0.5,-0.5,-0.5,-0.5,-0.5,linear,0.025,TRUE,25,FALSE,2,2,NA,914,EQ,H0,2,fixmodel,0.0233,0,10000
7,250,0,250,250,500,500,750,750,2,0,1,0,0,0,0,0,0,0,-0.5,-0.5,-0.5,-0.5,-0.5,-0.5,-0.5,-0.5,linear,0.025,TRUE,25,FALSE,2,2,NA,914,EQ,H0,2,fixmodel_cal,0.0225,0,10000
7,250,0,250,250,500,500,750,750,2,0,1,0,0,0,0,0,0,0,-0.5,-0.5,-0.5,-0.5,-0.5,-0.5,-0.5,-0.5,linear,0.025,TRUE,25,FALSE,2,2,NA,914,EQ,H0,2,mixmodel,0.013,0,10000
7,250,0,250,250,500,500,750,750,2,0,1,0,0,0,0,0,0,0,-0.5,-0.5,-0.5,-0.5,-0.5,-0.5,-0.5,-0.5,linear,0.025,TRUE,25,FALSE,2,2,NA,914,EQ,H0,2,mixmodel_AR1,0.0119,0,10000
7,250,0,250,250,500,500,750,750,2,0,1,0,0,0,0,0,0,0,-0.5,-0.5,-0.5,-0.5,-0.5,-0.5,-0.5,-0.5,linear,0.025,TRUE,25,FALSE,2,2,NA,914,EQ,H0,2,mixmodel_AR1_cal,0.0127,0,10000
7,250,0,250,250,500,500,750,750,2,0,1,0,0,0,0,0,0,0,-0.5,-0.5,-0.5,-0.5,-0.5,-0.5,-0.5,-0.5,linear,0.025,TRUE,25,FALSE,2,2,NA,914,EQ,H0,2,mixmodel_cal,0.0028,0,10000
7,250,0,250,250,500,500,750,750,2,0,1,0,0,0,0,0,0,0,-0.5,-0.5,-0.5,-0.5,-0.5,-0.5,-0.5,-0.5,linear,0.025,TRUE,25,FALSE,2,2,NA,914,EQ,H0,2,piecewise,0.0234,0,10000
7,250,0,250,250,500,500,750,750,2,0,1,0,0,0,0,0,0,0,-0.5,-0.5,-0.5,-0.5,-0.5,-0.5,-0.5,-0.5,linear,0.025,TRUE,25,FALSE,2,2,NA,914,EQ,H0,2,piecewise_cal,0.0217,0,10000
7,250,0,250,250,500,500,750,750,2,0,1,0,0,0,0,0,0,0,-0.5,-0.5,-0.5,-0.5,-0.5,-0.5,-0.5,-0.5,linear,0.025,TRUE,25,FALSE,2,2,NA,914,EQ,H0,2,poolmodel,0.0023,0,10000
7,250,0,250,250,500,500,750,750,2,0,1,0,0,0,0,0,0,0,-0.5,-0.5,-0.5,-0.5,-0.5,-0.5,-0.5,-0.5,linear,0.025,TRUE,25,FALSE,2,2,NA,914,EQ,H0,2,sepmodel,0.0195,0,10000
7,250,0,250,250,500,500,750,750,2,0,1,0,0,0,0,0,0,0,-0.5,-0.5,-0.5,-0.5,-0.5,-0.5,-0.5,-0.5,linear,0.025,TRUE,25,FALSE,2,2,NA,914,EQ,H0,2,splines,0.0231,0,10000
7,250,0,250,250,500,500,750,750,2,0,1,0,0,0,0,0,0,0,-0.5,-0.5,-0.5,-0.5,-0.5,-0.5,-0.5,-0.5,linear,0.025,TRUE,25,FALSE,2,2,NA,914,EQ,H0,2,splines_cal,0.0232,0,10000
7,250,0,250,250,500,500,750,750,2,0,1,0,0,0,0,0,0,0,-0.5,-0.5,-0.5,-0.5,-0.5,-0.5,-0.5,-0.5,linear,0.025,TRUE,25,FALSE,2,2,NA,914,EQ,H0,3,fixmodel,0.0245,0,10000
7,250,0,250,250,500,500,750,750,2,0,1,0,0,0,0,0,0,0,-0.5,-0.5,-0.5,-0.5,-0.5,-0.5,-0.5,-0.5,linear,0.025,TRUE,25,FALSE,2,2,NA,914,EQ,H0,3,fixmodel_cal,0.0242,0,10000
7,250,0,250,250,500,500,750,750,2,0,1,0,0,0,0,0,0,0,-0.5,-0.5,-0.5,-0.5,-0.5,-0.5,-0.5,-0.5,linear,0.025,TRUE,25,FALSE,2,2,NA,914,EQ,H0,3,mixmodel,0.0139,0,10000
7,250,0,250,250,500,500,750,750,2,0,1,0,0,0,0,0,0,0,-0.5,-0.5,-0.5,-0.5,-0.5,-0.5,-0.5,-0.5,linear,0.025,TRUE,25,FALSE,2,2,NA,914,EQ,H0,3,mixmodel_AR1,0.0127,0,10000
7,250,0,250,250,500,500,750,750,2,0,1,0,0,0,0,0,0,0,-0.5,-0.5,-0.5,-0.5,-0.5,-0.5,-0.5,-0.5,linear,0.025,TRUE,25,FALSE,2,2,NA,914,EQ,H0,3,mixmodel_AR1_cal,0.0134,0,10000
7,250,0,250,250,500,500,750,750,2,0,1,0,0,0,0,0,0,0,-0.5,-0.5,-0.5,-0.5,-0.5,-0.5,-0.5,-0.5,linear,0.025,TRUE,25,FALSE,2,2,NA,914,EQ,H0,3,mixmodel_cal,0.0041,0,10000
7,250,0,250,250,500,500,750,750,2,0,1,0,0,0,0,0,0,0,-0.5,-0.5,-0.5,-0.5,-0.5,-0.5,-0.5,-0.5,linear,0.025,TRUE,25,FALSE,2,2,NA,914,EQ,H0,3,piecewise,0.0245,0,10000
7,250,0,250,250,500,500,750,750,2,0,1,0,0,0,0,0,0,0,-0.5,-0.5,-0.5,-0.5,-0.5,-0.5,-0.5,-0.5,linear,0.025,TRUE,25,FALSE,2,2,NA,914,EQ,H0,3,piecewise_cal,0.0236,0,10000
7,250,0,250,250,500,500,750,750,2,0,1,0,0,0,0,0,0,0,-0.5,-0.5,-0.5,-0.5,-0.5,-0.5,-0.5,-0.5,linear,0.025,TRUE,25,FALSE,2,2,NA,914,EQ,H0,3,poolmodel,0.003,0,10000
7,250,0,250,250,500,500,750,750,2,0,1,0,0,0,0,0,0,0,-0.5,-0.5,-0.5,-0.5,-0.5,-0.5,-0.5,-0.5,linear,0.025,TRUE,25,FALSE,2,2,NA,914,EQ,H0,3,sepmodel,0.023,0,10000
7,250,0,250,250,500,500,750,750,2,0,1,0,0,0,0,0,0,0,-0.5,-0.5,-0.5,-0.5,-0.5,-0.5,-0.5,-0.5,linear,0.025,TRUE,25,FALSE,2,2,NA,914,EQ,H0,3,splines,0.0243,0,10000
7,250,0,250,250,500,500,750,750,2,0,1,0,0,0,0,0,0,0,-0.5,-0.5,-0.5,-0.5,-0.5,-0.5,-0.5,-0.5,linear,0.025,TRUE,25,FALSE,2,2,NA,914,EQ,H0,3,splines_cal,0.0236,0,10000
7,250,0,250,250,500,500,750,750,2,0,1,0,0,0,0,0,0,0,-0.5,-0.5,-0.5,-0.5,-0.5,-0.5,-0.5,-0.5,linear,0.025,TRUE,25,FALSE,2,2,NA,914,EQ,H0,4,fixmodel,0.0256,0,10000
7,250,0,250,250,500,500,750,750,2,0,1,0,0,0,0,0,0,0,-0.5,-0.5,-0.5,-0.5,-0.5,-0.5,-0.5,-0.5,linear,0.025,TRUE,25,FALSE,2,2,NA,914,EQ,H0,4,fixmodel_cal,0.0258,0,10000
7,250,0,250,250,500,500,750,750,2,0,1,0,0,0,0,0,0,0,-0.5,-0.5,-0.5,-0.5,-0.5,-0.5,-0.5,-0.5,linear,0.025,TRUE,25,FALSE,2,2,NA,914,EQ,H0,4,mixmodel,0.0126,0,10000
7,250,0,250,250,500,500,750,750,2,0,1,0,0,0,0,0,0,0,-0.5,-0.5,-0.5,-0.5,-0.5,-0.5,-0.5,-0.5,linear,0.025,TRUE,25,FALSE,2,2,NA,914,EQ,H0,4,mixmodel_AR1,0.0137,0,10000
7,250,0,250,250,500,500,750,750,2,0,1,0,0,0,0,0,0,0,-0.5,-0.5,-0.5,-0.5,-0.5,-0.5,-0.5,-0.5,linear,0.025,TRUE,25,FALSE,2,2,NA,914,EQ,H0,4,mixmodel_AR1_cal,0.0141,0,10000
7,250,0,250,250,500,500,750,750,2,0,1,0,0,0,0,0,0,0,-0.5,-0.5,-0.5,-0.5,-0.5,-0.5,-0.5,-0.5,linear,0.025,TRUE,25,FALSE,2,2,NA,914,EQ,H0,4,mixmodel_cal,5e-4,0,10000
7,250,0,250,250,500,500,750,750,2,0,1,0,0,0,0,0,0,0,-0.5,-0.5,-0.5,-0.5,-0.5,-0.5,-0.5,-0.5,linear,0.025,TRUE,25,FALSE,2,2,NA,914,EQ,H0,4,piecewise,0.0254,0,10000
7,250,0,250,250,500,500,750,750,2,0,1,0,0,0,0,0,0,0,-0.5,-0.5,-0.5,-0.5,-0.5,-0.5,-0.5,-0.5,linear,0.025,TRUE,25,FALSE,2,2,NA,914,EQ,H0,4,piecewise_cal,0.0252,0,10000
7,250,0,250,250,500,500,750,750,2,0,1,0,0,0,0,0,0,0,-0.5,-0.5,-0.5,-0.5,-0.5,-0.5,-0.5,-0.5,linear,0.025,TRUE,25,FALSE,2,2,NA,914,EQ,H0,4,poolmodel,3e-4,0,10000
7,250,0,250,250,500,500,750,750,2,0,1,0,0,0,0,0,0,0,-0.5,-0.5,-0.5,-0.5,-0.5,-0.5,-0.5,-0.5,linear,0.025,TRUE,25,FALSE,2,2,NA,914,EQ,H0,4,sepmodel,0.0236,0,10000
7,250,0,250,250,500,500,750,750,2,0,1,0,0,0,0,0,0,0,-0.5,-0.5,-0.5,-0.5,-0.5,-0.5,-0.5,-0.5,linear,0.025,TRUE,25,FALSE,2,2,NA,914,EQ,H0,4,splines,0.0256,0,10000
7,250,0,250,250,500,500,750,750,2,0,1,0,0,0,0,0,0,0,-0.5,-0.5,-0.5,-0.5,-0.5,-0.5,-0.5,-0.5,linear,0.025,TRUE,25,FALSE,2,2,NA,914,EQ,H0,4,splines_cal,0.0253,0,10000
7,250,0,250,250,500,500,750,750,2,0,1,0,0,0,0,0,0,0,-0.5,-0.5,-0.5,-0.5,-0.5,-0.5,-0.5,-0.5,linear,0.025,TRUE,25,FALSE,2,2,NA,914,EQ,H0,5,fixmodel,0.0246,0,10000
7,250,0,250,250,500,500,750,750,2,0,1,0,0,0,0,0,0,0,-0.5,-0.5,-0.5,-0.5,-0.5,-0.5,-0.5,-0.5,linear,0.025,TRUE,25,FALSE,2,2,NA,914,EQ,H0,5,fixmodel_cal,0.0255,0,10000
7,250,0,250,250,500,500,750,750,2,0,1,0,0,0,0,0,0,0,-0.5,-0.5,-0.5,-0.5,-0.5,-0.5,-0.5,-0.5,linear,0.025,TRUE,25,FALSE,2,2,NA,914,EQ,H0,5,mixmodel,0.0132,0,10000
7,250,0,250,250,500,500,750,750,2,0,1,0,0,0,0,0,0,0,-0.5,-0.5,-0.5,-0.5,-0.5,-0.5,-0.5,-0.5,linear,0.025,TRUE,25,FALSE,2,2,NA,914,EQ,H0,5,mixmodel_AR1,0.0138,0,10000
7,250,0,250,250,500,500,750,750,2,0,1,0,0,0,0,0,0,0,-0.5,-0.5,-0.5,-0.5,-0.5,-0.5,-0.5,-0.5,linear,0.025,TRUE,25,FALSE,2,2,NA,914,EQ,H0,5,mixmodel_AR1_cal,0.0135,0,10000
7,250,0,250,250,500,500,750,750,2,0,1,0,0,0,0,0,0,0,-0.5,-0.5,-0.5,-0.5,-0.5,-0.5,-0.5,-0.5,linear,0.025,TRUE,25,FALSE,2,2,NA,914,EQ,H0,5,mixmodel_cal,8e-4,0,10000
7,250,0,250,250,500,500,750,750,2,0,1,0,0,0,0,0,0,0,-0.5,-0.5,-0.5,-0.5,-0.5,-0.5,-0.5,-0.5,linear,0.025,TRUE,25,FALSE,2,2,NA,914,EQ,H0,5,piecewise,0.0246,0,10000
7,250,0,250,250,500,500,750,750,2,0,1,0,0,0,0,0,0,0,-0.5,-0.5,-0.5,-0.5,-0.5,-0.5,-0.5,-0.5,linear,0.025,TRUE,25,FALSE,2,2,NA,914,EQ,H0,5,piecewise_cal,0.0253,0,10000
7,250,0,250,250,500,500,750,750,2,0,1,0,0,0,0,0,0,0,-0.5,-0.5,-0.5,-0.5,-0.5,-0.5,-0.5,-0.5,linear,0.025,TRUE,25,FALSE,2,2,NA,914,EQ,H0,5,poolmodel,5e-4,0,10000
7,250,0,250,250,500,500,750,750,2,0,1,0,0,0,0,0,0,0,-0.5,-0.5,-0.5,-0.5,-0.5,-0.5,-0.5,-0.5,linear,0.025,TRUE,25,FALSE,2,2,NA,914,EQ,H0,5,sepmodel,0.0247,0,10000
7,250,0,250,250,500,500,750,750,2,0,1,0,0,0,0,0,0,0,-0.5,-0.5,-0.5,-0.5,-0.5,-0.5,-0.5,-0.5,linear,0.025,TRUE,25,FALSE,2,2,NA,914,EQ,H0,5,splines,0.024,0,10000
7,250,0,250,250,500,500,750,750,2,0,1,0,0,0,0,0,0,0,-0.5,-0.5,-0.5,-0.5,-0.5,-0.5,-0.5,-0.5,linear,0.025,TRUE,25,FALSE,2,2,NA,914,EQ,H0,5,splines_cal,0.0247,0,10000
7,250,0,250,250,500,500,750,750,2,0,1,0,0,0,0,0,0,0,-0.5,-0.5,-0.5,-0.5,-0.5,-0.5,-0.5,-0.5,linear,0.025,TRUE,25,FALSE,2,2,NA,914,EQ,H0,6,fixmodel,0.0267,0,10000
7,250,0,250,250,500,500,750,750,2,0,1,0,0,0,0,0,0,0,-0.5,-0.5,-0.5,-0.5,-0.5,-0.5,-0.5,-0.5,linear,0.025,TRUE,25,FALSE,2,2,NA,914,EQ,H0,6,fixmodel_cal,0.027,0,10000
7,250,0,250,250,500,500,750,750,2,0,1,0,0,0,0,0,0,0,-0.5,-0.5,-0.5,-0.5,-0.5,-0.5,-0.5,-0.5,linear,0.025,TRUE,25,FALSE,2,2,NA,914,EQ,H0,6,mixmodel,0.0124,0,10000
7,250,0,250,250,500,500,750,750,2,0,1,0,0,0,0,0,0,0,-0.5,-0.5,-0.5,-0.5,-0.5,-0.5,-0.5,-0.5,linear,0.025,TRUE,25,FALSE,2,2,NA,914,EQ,H0,6,mixmodel_AR1,0.0152,0,10000
7,250,0,250,250,500,500,750,750,2,0,1,0,0,0,0,0,0,0,-0.5,-0.5,-0.5,-0.5,-0.5,-0.5,-0.5,-0.5,linear,0.025,TRUE,25,FALSE,2,2,NA,914,EQ,H0,6,mixmodel_AR1_cal,0.0139,0,10000
7,250,0,250,250,500,500,750,750,2,0,1,0,0,0,0,0,0,0,-0.5,-0.5,-0.5,-0.5,-0.5,-0.5,-0.5,-0.5,linear,0.025,TRUE,25,FALSE,2,2,NA,914,EQ,H0,6,mixmodel_cal,2e-4,0,10000
7,250,0,250,250,500,500,750,750,2,0,1,0,0,0,0,0,0,0,-0.5,-0.5,-0.5,-0.5,-0.5,-0.5,-0.5,-0.5,linear,0.025,TRUE,25,FALSE,2,2,NA,914,EQ,H0,6,piecewise,0.0267,0,10000
7,250,0,250,250,500,500,750,750,2,0,1,0,0,0,0,0,0,0,-0.5,-0.5,-0.5,-0.5,-0.5,-0.5,-0.5,-0.5,linear,0.025,TRUE,25,FALSE,2,2,NA,914,EQ,H0,6,piecewise_cal,0.0265,0,10000
7,250,0,250,250,500,500,750,750,2,0,1,0,0,0,0,0,0,0,-0.5,-0.5,-0.5,-0.5,-0.5,-0.5,-0.5,-0.5,linear,0.025,TRUE,25,FALSE,2,2,NA,914,EQ,H0,6,poolmodel,0,0,10000
7,250,0,250,250,500,500,750,750,2,0,1,0,0,0,0,0,0,0,-0.5,-0.5,-0.5,-0.5,-0.5,-0.5,-0.5,-0.5,linear,0.025,TRUE,25,FALSE,2,2,NA,914,EQ,H0,6,sepmodel,0.0242,0,10000
7,250,0,250,250,500,500,750,750,2,0,1,0,0,0,0,0,0,0,-0.5,-0.5,-0.5,-0.5,-0.5,-0.5,-0.5,-0.5,linear,0.025,TRUE,25,FALSE,2,2,NA,914,EQ,H0,6,splines,0.0266,0,10000
7,250,0,250,250,500,500,750,750,2,0,1,0,0,0,0,0,0,0,-0.5,-0.5,-0.5,-0.5,-0.5,-0.5,-0.5,-0.5,linear,0.025,TRUE,25,FALSE,2,2,NA,914,EQ,H0,6,splines_cal,0.0269,0,10000
7,250,0,250,250,500,500,750,750,2,0,1,0,0,0,0,0,0,0,-0.5,-0.5,-0.5,-0.5,-0.5,-0.5,-0.5,-0.5,linear,0.025,TRUE,25,FALSE,2,2,NA,914,EQ,H0,7,fixmodel,0.0246,0,10000
7,250,0,250,250,500,500,750,750,2,0,1,0,0,0,0,0,0,0,-0.5,-0.5,-0.5,-0.5,-0.5,-0.5,-0.5,-0.5,linear,0.025,TRUE,25,FALSE,2,2,NA,914,EQ,H0,7,fixmodel_cal,0.0241,0,10000
7,250,0,250,250,500,500,750,750,2,0,1,0,0,0,0,0,0,0,-0.5,-0.5,-0.5,-0.5,-0.5,-0.5,-0.5,-0.5,linear,0.025,TRUE,25,FALSE,2,2,NA,914,EQ,H0,7,mixmodel,0.0126,0,10000
7,250,0,250,250,500,500,750,750,2,0,1,0,0,0,0,0,0,0,-0.5,-0.5,-0.5,-0.5,-0.5,-0.5,-0.5,-0.5,linear,0.025,TRUE,25,FALSE,2,2,NA,914,EQ,H0,7,mixmodel_AR1,0.0138,0,10000
7,250,0,250,250,500,500,750,750,2,0,1,0,0,0,0,0,0,0,-0.5,-0.5,-0.5,-0.5,-0.5,-0.5,-0.5,-0.5,linear,0.025,TRUE,25,FALSE,2,2,NA,914,EQ,H0,7,mixmodel_AR1_cal,0.014,0,10000
7,250,0,250,250,500,500,750,750,2,0,1,0,0,0,0,0,0,0,-0.5,-0.5,-0.5,-0.5,-0.5,-0.5,-0.5,-0.5,linear,0.025,TRUE,25,FALSE,2,2,NA,914,EQ,H0,7,mixmodel_cal,2e-4,0,10000
7,250,0,250,250,500,500,750,750,2,0,1,0,0,0,0,0,0,0,-0.5,-0.5,-0.5,-0.5,-0.5,-0.5,-0.5,-0.5,linear,0.025,TRUE,25,FALSE,2,2,NA,914,EQ,H0,7,piecewise,0.0249,0,10000
7,250,0,250,250,500,500,750,750,2,0,1,0,0,0,0,0,0,0,-0.5,-0.5,-0.5,-0.5,-0.5,-0.5,-0.5,-0.5,linear,0.025,TRUE,25,FALSE,2,2,NA,914,EQ,H0,7,piecewise_cal,0.0234,0,10000
7,250,0,250,250,500,500,750,750,2,0,1,0,0,0,0,0,0,0,-0.5,-0.5,-0.5,-0.5,-0.5,-0.5,-0.5,-0.5,linear,0.025,TRUE,25,FALSE,2,2,NA,914,EQ,H0,7,poolmodel,1e-4,0,10000
7,250,0,250,250,500,500,750,750,2,0,1,0,0,0,0,0,0,0,-0.5,-0.5,-0.5,-0.5,-0.5,-0.5,-0.5,-0.5,linear,0.025,TRUE,25,FALSE,2,2,NA,914,EQ,H0,7,sepmodel,0.0231,0,10000
7,250,0,250,250,500,500,750,750,2,0,1,0,0,0,0,0,0,0,-0.5,-0.5,-0.5,-0.5,-0.5,-0.5,-0.5,-0.5,linear,0.025,TRUE,25,FALSE,2,2,NA,914,EQ,H0,7,splines,0.0251,0,10000
7,250,0,250,250,500,500,750,750,2,0,1,0,0,0,0,0,0,0,-0.5,-0.5,-0.5,-0.5,-0.5,-0.5,-0.5,-0.5,linear,0.025,TRUE,25,FALSE,2,2,NA,914,EQ,H0,7,splines_cal,0.0243,0,10000
7,250,0,250,250,500,500,750,750,2,0,1,0,0,0,0,0,0,0,-0.5,-0.5,-0.5,-0.5,-0.5,-0.5,-0.5,-0.5,linear,0.025,TRUE,25,FALSE,3,3,NA,914,EQ,H0,2,fixmodel,0.029,0,10000
7,250,0,250,250,500,500,750,750,2,0,1,0,0,0,0,0,0,0,-0.5,-0.5,-0.5,-0.5,-0.5,-0.5,-0.5,-0.5,linear,0.025,TRUE,25,FALSE,3,3,NA,914,EQ,H0,2,fixmodel_cal,0.03,0,10000
7,250,0,250,250,500,500,750,750,2,0,1,0,0,0,0,0,0,0,-0.5,-0.5,-0.5,-0.5,-0.5,-0.5,-0.5,-0.5,linear,0.025,TRUE,25,FALSE,3,3,NA,914,EQ,H0,2,mixmodel,0.0169,0,10000
7,250,0,250,250,500,500,750,750,2,0,1,0,0,0,0,0,0,0,-0.5,-0.5,-0.5,-0.5,-0.5,-0.5,-0.5,-0.5,linear,0.025,TRUE,25,FALSE,3,3,NA,914,EQ,H0,2,mixmodel_AR1,0.0152,0,10000
7,250,0,250,250,500,500,750,750,2,0,1,0,0,0,0,0,0,0,-0.5,-0.5,-0.5,-0.5,-0.5,-0.5,-0.5,-0.5,linear,0.025,TRUE,25,FALSE,3,3,NA,914,EQ,H0,2,mixmodel_AR1_cal,0.0161,0,10000
7,250,0,250,250,500,500,750,750,2,0,1,0,0,0,0,0,0,0,-0.5,-0.5,-0.5,-0.5,-0.5,-0.5,-0.5,-0.5,linear,0.025,TRUE,25,FALSE,3,3,NA,914,EQ,H0,2,mixmodel_cal,0.0048,0,10000
7,250,0,250,250,500,500,750,750,2,0,1,0,0,0,0,0,0,0,-0.5,-0.5,-0.5,-0.5,-0.5,-0.5,-0.5,-0.5,linear,0.025,TRUE,25,FALSE,3,3,NA,914,EQ,H0,2,piecewise,0.0287,0,10000
7,250,0,250,250,500,500,750,750,2,0,1,0,0,0,0,0,0,0,-0.5,-0.5,-0.5,-0.5,-0.5,-0.5,-0.5,-0.5,linear,0.025,TRUE,25,FALSE,3,3,NA,914,EQ,H0,2,piecewise_cal,0.0283,0,10000
7,250,0,250,250,500,500,750,750,2,0,1,0,0,0,0,0,0,0,-0.5,-0.5,-0.5,-0.5,-0.5,-0.5,-0.5,-0.5,linear,0.025,TRUE,25,FALSE,3,3,NA,914,EQ,H0,2,poolmodel,0.0038,0,10000
7,250,0,250,250,500,500,750,750,2,0,1,0,0,0,0,0,0,0,-0.5,-0.5,-0.5,-0.5,-0.5,-0.5,-0.5,-0.5,linear,0.025,TRUE,25,FALSE,3,3,NA,914,EQ,H0,2,sepmodel,0.0271,0,10000
7,250,0,250,250,500,500,750,750,2,0,1,0,0,0,0,0,0,0,-0.5,-0.5,-0.5,-0.5,-0.5,-0.5,-0.5,-0.5,linear,0.025,TRUE,25,FALSE,3,3,NA,914,EQ,H0,2,splines,0.0287,0,10000
7,250,0,250,250,500,500,750,750,2,0,1,0,0,0,0,0,0,0,-0.5,-0.5,-0.5,-0.5,-0.5,-0.5,-0.5,-0.5,linear,0.025,TRUE,25,FALSE,3,3,NA,914,EQ,H0,2,splines_cal,0.0292,0,10000
7,250,0,250,250,500,500,750,750,2,0,1,0,0,0,0,0,0,0,-0.5,-0.5,-0.5,-0.5,-0.5,-0.5,-0.5,-0.5,linear,0.025,TRUE,25,FALSE,3,3,NA,914,EQ,H0,3,fixmodel,0.0253,0,10000
7,250,0,250,250,500,500,750,750,2,0,1,0,0,0,0,0,0,0,-0.5,-0.5,-0.5,-0.5,-0.5,-0.5,-0.5,-0.5,linear,0.025,TRUE,25,FALSE,3,3,NA,914,EQ,H0,3,fixmodel_cal,0.0256,0,10000
7,250,0,250,250,500,500,750,750,2,0,1,0,0,0,0,0,0,0,-0.5,-0.5,-0.5,-0.5,-0.5,-0.5,-0.5,-0.5,linear,0.025,TRUE,25,FALSE,3,3,NA,914,EQ,H0,3,mixmodel,0.0156,0,10000
7,250,0,250,250,500,500,750,750,2,0,1,0,0,0,0,0,0,0,-0.5,-0.5,-0.5,-0.5,-0.5,-0.5,-0.5,-0.5,linear,0.025,TRUE,25,FALSE,3,3,NA,914,EQ,H0,3,mixmodel_AR1,0.0146,0,10000
7,250,0,250,250,500,500,750,750,2,0,1,0,0,0,0,0,0,0,-0.5,-0.5,-0.5,-0.5,-0.5,-0.5,-0.5,-0.5,linear,0.025,TRUE,25,FALSE,3,3,NA,914,EQ,H0,3,mixmodel_AR1_cal,0.0144,0,10000
7,250,0,250,250,500,500,750,750,2,0,1,0,0,0,0,0,0,0,-0.5,-0.5,-0.5,-0.5,-0.5,-0.5,-0.5,-0.5,linear,0.025,TRUE,25,FALSE,3,3,NA,914,EQ,H0,3,mixmodel_cal,0.0043,0,10000
7,250,0,250,250,500,500,750,750,2,0,1,0,0,0,0,0,0,0,-0.5,-0.5,-0.5,-0.5,-0.5,-0.5,-0.5,-0.5,linear,0.025,TRUE,25,FALSE,3,3,NA,914,EQ,H0,3,piecewise,0.0256,0,10000
7,250,0,250,250,500,500,750,750,2,0,1,0,0,0,0,0,0,0,-0.5,-0.5,-0.5,-0.5,-0.5,-0.5,-0.5,-0.5,linear,0.025,TRUE,25,FALSE,3,3,NA,914,EQ,H0,3,piecewise_cal,0.0247,0,10000
7,250,0,250,250,500,500,750,750,2,0,1,0,0,0,0,0,0,0,-0.5,-0.5,-0.5,-0.5,-0.5,-0.5,-0.5,-0.5,linear,0.025,TRUE,25,FALSE,3,3,NA,914,EQ,H0,3,poolmodel,0.0028,0,10000
7,250,0,250,250,500,500,750,750,2,0,1,0,0,0,0,0,0,0,-0.5,-0.5,-0.5,-0.5,-0.5,-0.5,-0.5,-0.5,linear,0.025,TRUE,25,FALSE,3,3,NA,914,EQ,H0,3,sepmodel,0.0255,0,10000
7,250,0,250,250,500,500,750,750,2,0,1,0,0,0,0,0,0,0,-0.5,-0.5,-0.5,-0.5,-0.5,-0.5,-0.5,-0.5,linear,0.025,TRUE,25,FALSE,3,3,NA,914,EQ,H0,3,splines,0.0257,0,10000
7,250,0,250,250,500,500,750,750,2,0,1,0,0,0,0,0,0,0,-0.5,-0.5,-0.5,-0.5,-0.5,-0.5,-0.5,-0.5,linear,0.025,TRUE,25,FALSE,3,3,NA,914,EQ,H0,3,splines_cal,0.0258,0,10000
7,250,0,250,250,500,500,750,750,2,0,1,0,0,0,0,0,0,0,-0.5,-0.5,-0.5,-0.5,-0.5,-0.5,-0.5,-0.5,linear,0.025,TRUE,25,FALSE,3,3,NA,914,EQ,H0,4,fixmodel,0.028,0,10000
7,250,0,250,250,500,500,750,750,2,0,1,0,0,0,0,0,0,0,-0.5,-0.5,-0.5,-0.5,-0.5,-0.5,-0.5,-0.5,linear,0.025,TRUE,25,FALSE,3,3,NA,914,EQ,H0,4,fixmodel_cal,0.0283,0,10000
7,250,0,250,250,500,500,750,750,2,0,1,0,0,0,0,0,0,0,-0.5,-0.5,-0.5,-0.5,-0.5,-0.5,-0.5,-0.5,linear,0.025,TRUE,25,FALSE,3,3,NA,914,EQ,H0,4,mixmodel,0.0145,0,10000
7,250,0,250,250,500,500,750,750,2,0,1,0,0,0,0,0,0,0,-0.5,-0.5,-0.5,-0.5,-0.5,-0.5,-0.5,-0.5,linear,0.025,TRUE,25,FALSE,3,3,NA,914,EQ,H0,4,mixmodel_AR1,0.0154,0,10000
7,250,0,250,250,500,500,750,750,2,0,1,0,0,0,0,0,0,0,-0.5,-0.5,-0.5,-0.5,-0.5,-0.5,-0.5,-0.5,linear,0.025,TRUE,25,FALSE,3,3,NA,914,EQ,H0,4,mixmodel_AR1_cal,0.0156,0,10000
7,250,0,250,250,500,500,750,750,2,0,1,0,0,0,0,0,0,0,-0.5,-0.5,-0.5,-0.5,-0.5,-0.5,-0.5,-0.5,linear,0.025,TRUE,25,FALSE,3,3,NA,914,EQ,H0,4,mixmodel_cal,0.0014,0,10000
7,250,0,250,250,500,500,750,750,2,0,1,0,0,0,0,0,0,0,-0.5,-0.5,-0.5,-0.5,-0.5,-0.5,-0.5,-0.5,linear,0.025,TRUE,25,FALSE,3,3,NA,914,EQ,H0,4,piecewise,0.0279,0,10000
7,250,0,250,250,500,500,750,750,2,0,1,0,0,0,0,0,0,0,-0.5,-0.5,-0.5,-0.5,-0.5,-0.5,-0.5,-0.5,linear,0.025,TRUE,25,FALSE,3,3,NA,914,EQ,H0,4,piecewise_cal,0.0283,0,10000
7,250,0,250,250,500,500,750,750,2,0,1,0,0,0,0,0,0,0,-0.5,-0.5,-0.5,-0.5,-0.5,-0.5,-0.5,-0.5,linear,0.025,TRUE,25,FALSE,3,3,NA,914,EQ,H0,4,poolmodel,8e-4,0,10000
7,250,0,250,250,500,500,750,750,2,0,1,0,0,0,0,0,0,0,-0.5,-0.5,-0.5,-0.5,-0.5,-0.5,-0.5,-0.5,linear,0.025,TRUE,25,FALSE,3,3,NA,914,EQ,H0,4,sepmodel,0.0262,0,10000
7,250,0,250,250,500,500,750,750,2,0,1,0,0,0,0,0,0,0,-0.5,-0.5,-0.5,-0.5,-0.5,-0.5,-0.5,-0.5,linear,0.025,TRUE,25,FALSE,3,3,NA,914,EQ,H0,4,splines,0.0276,0,10000
7,250,0,250,250,500,500,750,750,2,0,1,0,0,0,0,0,0,0,-0.5,-0.5,-0.5,-0.5,-0.5,-0.5,-0.5,-0.5,linear,0.025,TRUE,25,FALSE,3,3,NA,914,EQ,H0,4,splines_cal,0.0276,0,10000
7,250,0,250,250,500,500,750,750,2,0,1,0,0,0,0,0,0,0,-0.5,-0.5,-0.5,-0.5,-0.5,-0.5,-0.5,-0.5,linear,0.025,TRUE,25,FALSE,3,3,NA,914,EQ,H0,5,fixmodel,0.0263,0,10000
7,250,0,250,250,500,500,750,750,2,0,1,0,0,0,0,0,0,0,-0.5,-0.5,-0.5,-0.5,-0.5,-0.5,-0.5,-0.5,linear,0.025,TRUE,25,FALSE,3,3,NA,914,EQ,H0,5,fixmodel_cal,0.0276,0,10000
7,250,0,250,250,500,500,750,750,2,0,1,0,0,0,0,0,0,0,-0.5,-0.5,-0.5,-0.5,-0.5,-0.5,-0.5,-0.5,linear,0.025,TRUE,25,FALSE,3,3,NA,914,EQ,H0,5,mixmodel,0.0146,0,10000
7,250,0,250,250,500,500,750,750,2,0,1,0,0,0,0,0,0,0,-0.5,-0.5,-0.5,-0.5,-0.5,-0.5,-0.5,-0.5,linear,0.025,TRUE,25,FALSE,3,3,NA,914,EQ,H0,5,mixmodel_AR1,0.0151,0,10000
7,250,0,250,250,500,500,750,750,2,0,1,0,0,0,0,0,0,0,-0.5,-0.5,-0.5,-0.5,-0.5,-0.5,-0.5,-0.5,linear,0.025,TRUE,25,FALSE,3,3,NA,914,EQ,H0,5,mixmodel_AR1_cal,0.0146,0,10000
7,250,0,250,250,500,500,750,750,2,0,1,0,0,0,0,0,0,0,-0.5,-0.5,-0.5,-0.5,-0.5,-0.5,-0.5,-0.5,linear,0.025,TRUE,25,FALSE,3,3,NA,914,EQ,H0,5,mixmodel_cal,0.0016,0,10000
7,250,0,250,250,500,500,750,750,2,0,1,0,0,0,0,0,0,0,-0.5,-0.5,-0.5,-0.5,-0.5,-0.5,-0.5,-0.5,linear,0.025,TRUE,25,FALSE,3,3,NA,914,EQ,H0,5,piecewise,0.0263,0,10000
7,250,0,250,250,500,500,750,750,2,0,1,0,0,0,0,0,0,0,-0.5,-0.5,-0.5,-0.5,-0.5,-0.5,-0.5,-0.5,linear,0.025,TRUE,25,FALSE,3,3,NA,914,EQ,H0,5,piecewise_cal,0.0264,0,10000
7,250,0,250,250,500,500,750,750,2,0,1,0,0,0,0,0,0,0,-0.5,-0.5,-0.5,-0.5,-0.5,-0.5,-0.5,-0.5,linear,0.025,TRUE,25,FALSE,3,3,NA,914,EQ,H0,5,poolmodel,9e-4,0,10000
7,250,0,250,250,500,500,750,750,2,0,1,0,0,0,0,0,0,0,-0.5,-0.5,-0.5,-0.5,-0.5,-0.5,-0.5,-0.5,linear,0.025,TRUE,25,FALSE,3,3,NA,914,EQ,H0,5,sepmodel,0.0268,0,10000
7,250,0,250,250,500,500,750,750,2,0,1,0,0,0,0,0,0,0,-0.5,-0.5,-0.5,-0.5,-0.5,-0.5,-0.5,-0.5,linear,0.025,TRUE,25,FALSE,3,3,NA,914,EQ,H0,5,splines,0.0266,0,10000
7,250,0,250,250,500,500,750,750,2,0,1,0,0,0,0,0,0,0,-0.5,-0.5,-0.5,-0.5,-0.5,-0.5,-0.5,-0.5,linear,0.025,TRUE,25,FALSE,3,3,NA,914,EQ,H0,5,splines_cal,0.0269,0,10000
7,250,0,250,250,500,500,750,750,2,0,1,0,0,0,0,0,0,0,-0.5,-0.5,-0.5,-0.5,-0.5,-0.5,-0.5,-0.5,linear,0.025,TRUE,25,FALSE,3,3,NA,914,EQ,H0,6,fixmodel,0.028,0,10000
7,250,0,250,250,500,500,750,750,2,0,1,0,0,0,0,0,0,0,-0.5,-0.5,-0.5,-0.5,-0.5,-0.5,-0.5,-0.5,linear,0.025,TRUE,25,FALSE,3,3,NA,914,EQ,H0,6,fixmodel_cal,0.0284,0,10000
7,250,0,250,250,500,500,750,750,2,0,1,0,0,0,0,0,0,0,-0.5,-0.5,-0.5,-0.5,-0.5,-0.5,-0.5,-0.5,linear,0.025,TRUE,25,FALSE,3,3,NA,914,EQ,H0,6,mixmodel,0.0129,0,10000
7,250,0,250,250,500,500,750,750,2,0,1,0,0,0,0,0,0,0,-0.5,-0.5,-0.5,-0.5,-0.5,-0.5,-0.5,-0.5,linear,0.025,TRUE,25,FALSE,3,3,NA,914,EQ,H0,6,mixmodel_AR1,0.0153,0,10000
7,250,0,250,250,500,500,750,750,2,0,1,0,0,0,0,0,0,0,-0.5,-0.5,-0.5,-0.5,-0.5,-0.5,-0.5,-0.5,linear,0.025,TRUE,25,FALSE,3,3,NA,914,EQ,H0,6,mixmodel_AR1_cal,0.0143,0,10000
7,250,0,250,250,500,500,750,750,2,0,1,0,0,0,0,0,0,0,-0.5,-0.5,-0.5,-0.5,-0.5,-0.5,-0.5,-0.5,linear,0.025,TRUE,25,FALSE,3,3,NA,914,EQ,H0,6,mixmodel_cal,6e-4,0,10000
7,250,0,250,250,500,500,750,750,2,0,1,0,0,0,0,0,0,0,-0.5,-0.5,-0.5,-0.5,-0.5,-0.5,-0.5,-0.5,linear,0.025,TRUE,25,FALSE,3,3,NA,914,EQ,H0,6,piecewise,0.0284,0,10000
7,250,0,250,250,500,500,750,750,2,0,1,0,0,0,0,0,0,0,-0.5,-0.5,-0.5,-0.5,-0.5,-0.5,-0.5,-0.5,linear,0.025,TRUE,25,FALSE,3,3,NA,914,EQ,H0,6,piecewise_cal,0.0269,0,10000
7,250,0,250,250,500,500,750,750,2,0,1,0,0,0,0,0,0,0,-0.5,-0.5,-0.5,-0.5,-0.5,-0.5,-0.5,-0.5,linear,0.025,TRUE,25,FALSE,3,3,NA,914,EQ,H0,6,poolmodel,2e-4,0,10000
7,250,0,250,250,500,500,750,750,2,0,1,0,0,0,0,0,0,0,-0.5,-0.5,-0.5,-0.5,-0.5,-0.5,-0.5,-0.5,linear,0.025,TRUE,25,FALSE,3,3,NA,914,EQ,H0,6,sepmodel,0.027,0,10000
7,250,0,250,250,500,500,750,750,2,0,1,0,0,0,0,0,0,0,-0.5,-0.5,-0.5,-0.5,-0.5,-0.5,-0.5,-0.5,linear,0.025,TRUE,25,FALSE,3,3,NA,914,EQ,H0,6,splines,0.0286,0,10000
7,250,0,250,250,500,500,750,750,2,0,1,0,0,0,0,0,0,0,-0.5,-0.5,-0.5,-0.5,-0.5,-0.5,-0.5,-0.5,linear,0.025,TRUE,25,FALSE,3,3,NA,914,EQ,H0,6,splines_cal,0.0284,0,10000
7,250,0,250,250,500,500,750,750,2,0,1,0,0,0,0,0,0,0,-0.5,-0.5,-0.5,-0.5,-0.5,-0.5,-0.5,-0.5,linear,0.025,TRUE,25,FALSE,3,3,NA,914,EQ,H0,7,fixmodel,0.0256,0,10000
7,250,0,250,250,500,500,750,750,2,0,1,0,0,0,0,0,0,0,-0.5,-0.5,-0.5,-0.5,-0.5,-0.5,-0.5,-0.5,linear,0.025,TRUE,25,FALSE,3,3,NA,914,EQ,H0,7,fixmodel_cal,0.0263,0,10000
7,250,0,250,250,500,500,750,750,2,0,1,0,0,0,0,0,0,0,-0.5,-0.5,-0.5,-0.5,-0.5,-0.5,-0.5,-0.5,linear,0.025,TRUE,25,FALSE,3,3,NA,914,EQ,H0,7,mixmodel,0.0117,0,10000
7,250,0,250,250,500,500,750,750,2,0,1,0,0,0,0,0,0,0,-0.5,-0.5,-0.5,-0.5,-0.5,-0.5,-0.5,-0.5,linear,0.025,TRUE,25,FALSE,3,3,NA,914,EQ,H0,7,mixmodel_AR1,0.0141,0,10000
7,250,0,250,250,500,500,750,750,2,0,1,0,0,0,0,0,0,0,-0.5,-0.5,-0.5,-0.5,-0.5,-0.5,-0.5,-0.5,linear,0.025,TRUE,25,FALSE,3,3,NA,914,EQ,H0,7,mixmodel_AR1_cal,0.0136,0,10000
7,250,0,250,250,500,500,750,750,2,0,1,0,0,0,0,0,0,0,-0.5,-0.5,-0.5,-0.5,-0.5,-0.5,-0.5,-0.5,linear,0.025,TRUE,25,FALSE,3,3,NA,914,EQ,H0,7,mixmodel_cal,3e-4,0,10000
7,250,0,250,250,500,500,750,750,2,0,1,0,0,0,0,0,0,0,-0.5,-0.5,-0.5,-0.5,-0.5,-0.5,-0.5,-0.5,linear,0.025,TRUE,25,FALSE,3,3,NA,914,EQ,H0,7,piecewise,0.0258,0,10000
7,250,0,250,250,500,500,750,750,2,0,1,0,0,0,0,0,0,0,-0.5,-0.5,-0.5,-0.5,-0.5,-0.5,-0.5,-0.5,linear,0.025,TRUE,25,FALSE,3,3,NA,914,EQ,H0,7,piecewise_cal,0.0261,0,10000
7,250,0,250,250,500,500,750,750,2,0,1,0,0,0,0,0,0,0,-0.5,-0.5,-0.5,-0.5,-0.5,-0.5,-0.5,-0.5,linear,0.025,TRUE,25,FALSE,3,3,NA,914,EQ,H0,7,poolmodel,0,0,10000
7,250,0,250,250,500,500,750,750,2,0,1,0,0,0,0,0,0,0,-0.5,-0.5,-0.5,-0.5,-0.5,-0.5,-0.5,-0.5,linear,0.025,TRUE,25,FALSE,3,3,NA,914,EQ,H0,7,sepmodel,0.0239,0,10000
7,250,0,250,250,500,500,750,750,2,0,1,0,0,0,0,0,0,0,-0.5,-0.5,-0.5,-0.5,-0.5,-0.5,-0.5,-0.5,linear,0.025,TRUE,25,FALSE,3,3,NA,914,EQ,H0,7,splines,0.0254,0,10000
7,250,0,250,250,500,500,750,750,2,0,1,0,0,0,0,0,0,0,-0.5,-0.5,-0.5,-0.5,-0.5,-0.5,-0.5,-0.5,linear,0.025,TRUE,25,FALSE,3,3,NA,914,EQ,H0,7,splines_cal,0.0256,0,10000
7,250,0,250,250,500,500,750,750,2,0,1,0,0,0,0,0,0,0,-0.375,-0.375,-0.375,-0.375,-0.375,-0.375,-0.375,-0.375,linear,0.025,TRUE,25,FALSE,1,1,NA,914,EQ,H0,2,fixmodel,0.0255,0,10000
7,250,0,250,250,500,500,750,750,2,0,1,0,0,0,0,0,0,0,-0.375,-0.375,-0.375,-0.375,-0.375,-0.375,-0.375,-0.375,linear,0.025,TRUE,25,FALSE,1,1,NA,914,EQ,H0,2,fixmodel_cal,0.0257,0,10000
7,250,0,250,250,500,500,750,750,2,0,1,0,0,0,0,0,0,0,-0.375,-0.375,-0.375,-0.375,-0.375,-0.375,-0.375,-0.375,linear,0.025,TRUE,25,FALSE,1,1,NA,914,EQ,H0,2,mixmodel,0.0155,0,10000
7,250,0,250,250,500,500,750,750,2,0,1,0,0,0,0,0,0,0,-0.375,-0.375,-0.375,-0.375,-0.375,-0.375,-0.375,-0.375,linear,0.025,TRUE,25,FALSE,1,1,NA,914,EQ,H0,2,mixmodel_AR1,0.0141,0,10000
7,250,0,250,250,500,500,750,750,2,0,1,0,0,0,0,0,0,0,-0.375,-0.375,-0.375,-0.375,-0.375,-0.375,-0.375,-0.375,linear,0.025,TRUE,25,FALSE,1,1,NA,914,EQ,H0,2,mixmodel_AR1_cal,0.013,0,10000
7,250,0,250,250,500,500,750,750,2,0,1,0,0,0,0,0,0,0,-0.375,-0.375,-0.375,-0.375,-0.375,-0.375,-0.375,-0.375,linear,0.025,TRUE,25,FALSE,1,1,NA,914,EQ,H0,2,mixmodel_cal,0.0069,0,10000
7,250,0,250,250,500,500,750,750,2,0,1,0,0,0,0,0,0,0,-0.375,-0.375,-0.375,-0.375,-0.375,-0.375,-0.375,-0.375,linear,0.025,TRUE,25,FALSE,1,1,NA,914,EQ,H0,2,piecewise,0.0256,0,10000
7,250,0,250,250,500,500,750,750,2,0,1,0,0,0,0,0,0,0,-0.375,-0.375,-0.375,-0.375,-0.375,-0.375,-0.375,-0.375,linear,0.025,TRUE,25,FALSE,1,1,NA,914,EQ,H0,2,piecewise_cal,0.0256,0,10000
7,250,0,250,250,500,500,750,750,2,0,1,0,0,0,0,0,0,0,-0.375,-0.375,-0.375,-0.375,-0.375,-0.375,-0.375,-0.375,linear,0.025,TRUE,25,FALSE,1,1,NA,914,EQ,H0,2,poolmodel,0.0064,0,10000
7,250,0,250,250,500,500,750,750,2,0,1,0,0,0,0,0,0,0,-0.375,-0.375,-0.375,-0.375,-0.375,-0.375,-0.375,-0.375,linear,0.025,TRUE,25,FALSE,1,1,NA,914,EQ,H0,2,sepmodel,0.0248,0,10000
7,250,0,250,250,500,500,750,750,2,0,1,0,0,0,0,0,0,0,-0.375,-0.375,-0.375,-0.375,-0.375,-0.375,-0.375,-0.375,linear,0.025,TRUE,25,FALSE,1,1,NA,914,EQ,H0,2,splines,0.026,0,10000
7,250,0,250,250,500,500,750,750,2,0,1,0,0,0,0,0,0,0,-0.375,-0.375,-0.375,-0.375,-0.375,-0.375,-0.375,-0.375,linear,0.025,TRUE,25,FALSE,1,1,NA,914,EQ,H0,2,splines_cal,0.025,0,10000
7,250,0,250,250,500,500,750,750,2,0,1,0,0,0,0,0,0,0,-0.375,-0.375,-0.375,-0.375,-0.375,-0.375,-0.375,-0.375,linear,0.025,TRUE,25,FALSE,1,1,NA,914,EQ,H0,3,fixmodel,0.0252,0,10000
7,250,0,250,250,500,500,750,750,2,0,1,0,0,0,0,0,0,0,-0.375,-0.375,-0.375,-0.375,-0.375,-0.375,-0.375,-0.375,linear,0.025,TRUE,25,FALSE,1,1,NA,914,EQ,H0,3,fixmodel_cal,0.026,0,10000
7,250,0,250,250,500,500,750,750,2,0,1,0,0,0,0,0,0,0,-0.375,-0.375,-0.375,-0.375,-0.375,-0.375,-0.375,-0.375,linear,0.025,TRUE,25,FALSE,1,1,NA,914,EQ,H0,3,mixmodel,0.015,0,10000
7,250,0,250,250,500,500,750,750,2,0,1,0,0,0,0,0,0,0,-0.375,-0.375,-0.375,-0.375,-0.375,-0.375,-0.375,-0.375,linear,0.025,TRUE,25,FALSE,1,1,NA,914,EQ,H0,3,mixmodel_AR1,0.0133,0,10000
7,250,0,250,250,500,500,750,750,2,0,1,0,0,0,0,0,0,0,-0.375,-0.375,-0.375,-0.375,-0.375,-0.375,-0.375,-0.375,linear,0.025,TRUE,25,FALSE,1,1,NA,914,EQ,H0,3,mixmodel_AR1_cal,0.0129,0,10000
7,250,0,250,250,500,500,750,750,2,0,1,0,0,0,0,0,0,0,-0.375,-0.375,-0.375,-0.375,-0.375,-0.375,-0.375,-0.375,linear,0.025,TRUE,25,FALSE,1,1,NA,914,EQ,H0,3,mixmodel_cal,0.0068,0,10000
7,250,0,250,250,500,500,750,750,2,0,1,0,0,0,0,0,0,0,-0.375,-0.375,-0.375,-0.375,-0.375,-0.375,-0.375,-0.375,linear,0.025,TRUE,25,FALSE,1,1,NA,914,EQ,H0,3,piecewise,0.0253,0,10000
7,250,0,250,250,500,500,750,750,2,0,1,0,0,0,0,0,0,0,-0.375,-0.375,-0.375,-0.375,-0.375,-0.375,-0.375,-0.375,linear,0.025,TRUE,25,FALSE,1,1,NA,914,EQ,H0,3,piecewise_cal,0.0249,0,10000
7,250,0,250,250,500,500,750,750,2,0,1,0,0,0,0,0,0,0,-0.375,-0.375,-0.375,-0.375,-0.375,-0.375,-0.375,-0.375,linear,0.025,TRUE,25,FALSE,1,1,NA,914,EQ,H0,3,poolmodel,0.0061,0,10000
7,250,0,250,250,500,500,750,750,2,0,1,0,0,0,0,0,0,0,-0.375,-0.375,-0.375,-0.375,-0.375,-0.375,-0.375,-0.375,linear,0.025,TRUE,25,FALSE,1,1,NA,914,EQ,H0,3,sepmodel,0.0259,0,10000
7,250,0,250,250,500,500,750,750,2,0,1,0,0,0,0,0,0,0,-0.375,-0.375,-0.375,-0.375,-0.375,-0.375,-0.375,-0.375,linear,0.025,TRUE,25,FALSE,1,1,NA,914,EQ,H0,3,splines,0.0251,0,10000
7,250,0,250,250,500,500,750,750,2,0,1,0,0,0,0,0,0,0,-0.375,-0.375,-0.375,-0.375,-0.375,-0.375,-0.375,-0.375,linear,0.025,TRUE,25,FALSE,1,1,NA,914,EQ,H0,3,splines_cal,0.0262,0,10000
7,250,0,250,250,500,500,750,750,2,0,1,0,0,0,0,0,0,0,-0.375,-0.375,-0.375,-0.375,-0.375,-0.375,-0.375,-0.375,linear,0.025,TRUE,25,FALSE,1,1,NA,914,EQ,H0,4,fixmodel,0.022,0,10000
7,250,0,250,250,500,500,750,750,2,0,1,0,0,0,0,0,0,0,-0.375,-0.375,-0.375,-0.375,-0.375,-0.375,-0.375,-0.375,linear,0.025,TRUE,25,FALSE,1,1,NA,914,EQ,H0,4,fixmodel_cal,0.0214,0,10000
7,250,0,250,250,500,500,750,750,2,0,1,0,0,0,0,0,0,0,-0.375,-0.375,-0.375,-0.375,-0.375,-0.375,-0.375,-0.375,linear,0.025,TRUE,25,FALSE,1,1,NA,914,EQ,H0,4,mixmodel,0.0105,0,10000
7,250,0,250,250,500,500,750,750,2,0,1,0,0,0,0,0,0,0,-0.375,-0.375,-0.375,-0.375,-0.375,-0.375,-0.375,-0.375,linear,0.025,TRUE,25,FALSE,1,1,NA,914,EQ,H0,4,mixmodel_AR1,0.0104,0,10000
7,250,0,250,250,500,500,750,750,2,0,1,0,0,0,0,0,0,0,-0.375,-0.375,-0.375,-0.375,-0.375,-0.375,-0.375,-0.375,linear,0.025,TRUE,25,FALSE,1,1,NA,914,EQ,H0,4,mixmodel_AR1_cal,0.0107,0,10000
7,250,0,250,250,500,500,750,750,2,0,1,0,0,0,0,0,0,0,-0.375,-0.375,-0.375,-0.375,-0.375,-0.375,-0.375,-0.375,linear,0.025,TRUE,25,FALSE,1,1,NA,914,EQ,H0,4,mixmodel_cal,0.0016,0,10000
7,250,0,250,250,500,500,750,750,2,0,1,0,0,0,0,0,0,0,-0.375,-0.375,-0.375,-0.375,-0.375,-0.375,-0.375,-0.375,linear,0.025,TRUE,25,FALSE,1,1,NA,914,EQ,H0,4,piecewise,0.0219,0,10000
7,250,0,250,250,500,500,750,750,2,0,1,0,0,0,0,0,0,0,-0.375,-0.375,-0.375,-0.375,-0.375,-0.375,-0.375,-0.375,linear,0.025,TRUE,25,FALSE,1,1,NA,914,EQ,H0,4,piecewise_cal,0.0224,0,10000
7,250,0,250,250,500,500,750,750,2,0,1,0,0,0,0,0,0,0,-0.375,-0.375,-0.375,-0.375,-0.375,-0.375,-0.375,-0.375,linear,0.025,TRUE,25,FALSE,1,1,NA,914,EQ,H0,4,poolmodel,0.0013,0,10000
7,250,0,250,250,500,500,750,750,2,0,1,0,0,0,0,0,0,0,-0.375,-0.375,-0.375,-0.375,-0.375,-0.375,-0.375,-0.375,linear,0.025,TRUE,25,FALSE,1,1,NA,914,EQ,H0,4,sepmodel,0.0222,0,10000
7,250,0,250,250,500,500,750,750,2,0,1,0,0,0,0,0,0,0,-0.375,-0.375,-0.375,-0.375,-0.375,-0.375,-0.375,-0.375,linear,0.025,TRUE,25,FALSE,1,1,NA,914,EQ,H0,4,splines,0.022,0,10000
7,250,0,250,250,500,500,750,750,2,0,1,0,0,0,0,0,0,0,-0.375,-0.375,-0.375,-0.375,-0.375,-0.375,-0.375,-0.375,linear,0.025,TRUE,25,FALSE,1,1,NA,914,EQ,H0,4,splines_cal,0.0214,0,10000
7,250,0,250,250,500,500,750,750,2,0,1,0,0,0,0,0,0,0,-0.375,-0.375,-0.375,-0.375,-0.375,-0.375,-0.375,-0.375,linear,0.025,TRUE,25,FALSE,1,1,NA,914,EQ,H0,5,fixmodel,0.0254,0,10000
7,250,0,250,250,500,500,750,750,2,0,1,0,0,0,0,0,0,0,-0.375,-0.375,-0.375,-0.375,-0.375,-0.375,-0.375,-0.375,linear,0.025,TRUE,25,FALSE,1,1,NA,914,EQ,H0,5,fixmodel_cal,0.0251,0,10000
7,250,0,250,250,500,500,750,750,2,0,1,0,0,0,0,0,0,0,-0.375,-0.375,-0.375,-0.375,-0.375,-0.375,-0.375,-0.375,linear,0.025,TRUE,25,FALSE,1,1,NA,914,EQ,H0,5,mixmodel,0.011,0,10000
7,250,0,250,250,500,500,750,750,2,0,1,0,0,0,0,0,0,0,-0.375,-0.375,-0.375,-0.375,-0.375,-0.375,-0.375,-0.375,linear,0.025,TRUE,25,FALSE,1,1,NA,914,EQ,H0,5,mixmodel_AR1,0.0113,0,10000
7,250,0,250,250,500,500,750,750,2,0,1,0,0,0,0,0,0,0,-0.375,-0.375,-0.375,-0.375,-0.375,-0.375,-0.375,-0.375,linear,0.025,TRUE,25,FALSE,1,1,NA,914,EQ,H0,5,mixmodel_AR1_cal,0.0113,0,10000
7,250,0,250,250,500,500,750,750,2,0,1,0,0,0,0,0,0,0,-0.375,-0.375,-0.375,-0.375,-0.375,-0.375,-0.375,-0.375,linear,0.025,TRUE,25,FALSE,1,1,NA,914,EQ,H0,5,mixmodel_cal,0.0021,0,10000
7,250,0,250,250,500,500,750,750,2,0,1,0,0,0,0,0,0,0,-0.375,-0.375,-0.375,-0.375,-0.375,-0.375,-0.375,-0.375,linear,0.025,TRUE,25,FALSE,1,1,NA,914,EQ,H0,5,piecewise,0.0254,0,10000
7,250,0,250,250,500,500,750,750,2,0,1,0,0,0,0,0,0,0,-0.375,-0.375,-0.375,-0.375,-0.375,-0.375,-0.375,-0.375,linear,0.025,TRUE,25,FALSE,1,1,NA,914,EQ,H0,5,piecewise_cal,0.0248,0,10000
7,250,0,250,250,500,500,750,750,2,0,1,0,0,0,0,0,0,0,-0.375,-0.375,-0.375,-0.375,-0.375,-0.375,-0.375,-0.375,linear,0.025,TRUE,25,FALSE,1,1,NA,914,EQ,H0,5,poolmodel,0.0015,0,10000
7,250,0,250,250,500,500,750,750,2,0,1,0,0,0,0,0,0,0,-0.375,-0.375,-0.375,-0.375,-0.375,-0.375,-0.375,-0.375,linear,0.025,TRUE,25,FALSE,1,1,NA,914,EQ,H0,5,sepmodel,0.0265,0,10000
7,250,0,250,250,500,500,750,750,2,0,1,0,0,0,0,0,0,0,-0.375,-0.375,-0.375,-0.375,-0.375,-0.375,-0.375,-0.375,linear,0.025,TRUE,25,FALSE,1,1,NA,914,EQ,H0,5,splines,0.0255,0,10000
7,250,0,250,250,500,500,750,750,2,0,1,0,0,0,0,0,0,0,-0.375,-0.375,-0.375,-0.375,-0.375,-0.375,-0.375,-0.375,linear,0.025,TRUE,25,FALSE,1,1,NA,914,EQ,H0,5,splines_cal,0.0244,0,10000
7,250,0,250,250,500,500,750,750,2,0,1,0,0,0,0,0,0,0,-0.375,-0.375,-0.375,-0.375,-0.375,-0.375,-0.375,-0.375,linear,0.025,TRUE,25,FALSE,1,1,NA,914,EQ,H0,6,fixmodel,0.025,0,10000
7,250,0,250,250,500,500,750,750,2,0,1,0,0,0,0,0,0,0,-0.375,-0.375,-0.375,-0.375,-0.375,-0.375,-0.375,-0.375,linear,0.025,TRUE,25,FALSE,1,1,NA,914,EQ,H0,6,fixmodel_cal,0.0261,0,10000
7,250,0,250,250,500,500,750,750,2,0,1,0,0,0,0,0,0,0,-0.375,-0.375,-0.375,-0.375,-0.375,-0.375,-0.375,-0.375,linear,0.025,TRUE,25,FALSE,1,1,NA,914,EQ,H0,6,mixmodel,0.0078,0,10000
7,250,0,250,250,500,500,750,750,2,0,1,0,0,0,0,0,0,0,-0.375,-0.375,-0.375,-0.375,-0.375,-0.375,-0.375,-0.375,linear,0.025,TRUE,25,FALSE,1,1,NA,914,EQ,H0,6,mixmodel_AR1,0.011,0,10000
7,250,0,250,250,500,500,750,750,2,0,1,0,0,0,0,0,0,0,-0.375,-0.375,-0.375,-0.375,-0.375,-0.375,-0.375,-0.375,linear,0.025,TRUE,25,FALSE,1,1,NA,914,EQ,H0,6,mixmodel_AR1_cal,0.0098,0,10000
7,250,0,250,250,500,500,750,750,2,0,1,0,0,0,0,0,0,0,-0.375,-0.375,-0.375,-0.375,-0.375,-0.375,-0.375,-0.375,linear,0.025,TRUE,25,FALSE,1,1,NA,914,EQ,H0,6,mixmodel_cal,3e-4,0,10000
7,250,0,250,250,500,500,750,750,2,0,1,0,0,0,0,0,0,0,-0.375,-0.375,-0.375,-0.375,-0.375,-0.375,-0.375,-0.375,linear,0.025,TRUE,25,FALSE,1,1,NA,914,EQ,H0,6,piecewise,0.0252,0,10000
7,250,0,250,250,500,500,750,750,2,0,1,0,0,0,0,0,0,0,-0.375,-0.375,-0.375,-0.375,-0.375,-0.375,-0.375,-0.375,linear,0.025,TRUE,25,FALSE,1,1,NA,914,EQ,H0,6,piecewise_cal,0.0264,0,10000
7,250,0,250,250,500,500,750,750,2,0,1,0,0,0,0,0,0,0,-0.375,-0.375,-0.375,-0.375,-0.375,-0.375,-0.375,-0.375,linear,0.025,TRUE,25,FALSE,1,1,NA,914,EQ,H0,6,poolmodel,3e-4,0,10000
7,250,0,250,250,500,500,750,750,2,0,1,0,0,0,0,0,0,0,-0.375,-0.375,-0.375,-0.375,-0.375,-0.375,-0.375,-0.375,linear,0.025,TRUE,25,FALSE,1,1,NA,914,EQ,H0,6,sepmodel,0.0248,0,10000
7,250,0,250,250,500,500,750,750,2,0,1,0,0,0,0,0,0,0,-0.375,-0.375,-0.375,-0.375,-0.375,-0.375,-0.375,-0.375,linear,0.025,TRUE,25,FALSE,1,1,NA,914,EQ,H0,6,splines,0.0252,0,10000
7,250,0,250,250,500,500,750,750,2,0,1,0,0,0,0,0,0,0,-0.375,-0.375,-0.375,-0.375,-0.375,-0.375,-0.375,-0.375,linear,0.025,TRUE,25,FALSE,1,1,NA,914,EQ,H0,6,splines_cal,0.0255,0,10000
7,250,0,250,250,500,500,750,750,2,0,1,0,0,0,0,0,0,0,-0.375,-0.375,-0.375,-0.375,-0.375,-0.375,-0.375,-0.375,linear,0.025,TRUE,25,FALSE,1,1,NA,914,EQ,H0,7,fixmodel,0.0243,0,10000
7,250,0,250,250,500,500,750,750,2,0,1,0,0,0,0,0,0,0,-0.375,-0.375,-0.375,-0.375,-0.375,-0.375,-0.375,-0.375,linear,0.025,TRUE,25,FALSE,1,1,NA,914,EQ,H0,7,fixmodel_cal,0.0241,0,10000
7,250,0,250,250,500,500,750,750,2,0,1,0,0,0,0,0,0,0,-0.375,-0.375,-0.375,-0.375,-0.375,-0.375,-0.375,-0.375,linear,0.025,TRUE,25,FALSE,1,1,NA,914,EQ,H0,7,mixmodel,0.0103,0,10000
7,250,0,250,250,500,500,750,750,2,0,1,0,0,0,0,0,0,0,-0.375,-0.375,-0.375,-0.375,-0.375,-0.375,-0.375,-0.375,linear,0.025,TRUE,25,FALSE,1,1,NA,914,EQ,H0,7,mixmodel_AR1,0.013,0,10000
7,250,0,250,250,500,500,750,750,2,0,1,0,0,0,0,0,0,0,-0.375,-0.375,-0.375,-0.375,-0.375,-0.375,-0.375,-0.375,linear,0.025,TRUE,25,FALSE,1,1,NA,914,EQ,H0,7,mixmodel_AR1_cal,0.0118,0,10000
7,250,0,250,250,500,500,750,750,2,0,1,0,0,0,0,0,0,0,-0.375,-0.375,-0.375,-0.375,-0.375,-0.375,-0.375,-0.375,linear,0.025,TRUE,25,FALSE,1,1,NA,914,EQ,H0,7,mixmodel_cal,7e-4,0,10000
7,250,0,250,250,500,500,750,750,2,0,1,0,0,0,0,0,0,0,-0.375,-0.375,-0.375,-0.375,-0.375,-0.375,-0.375,-0.375,linear,0.025,TRUE,25,FALSE,1,1,NA,914,EQ,H0,7,piecewise,0.0242,0,10000
7,250,0,250,250,500,500,750,750,2,0,1,0,0,0,0,0,0,0,-0.375,-0.375,-0.375,-0.375,-0.375,-0.375,-0.375,-0.375,linear,0.025,TRUE,25,FALSE,1,1,NA,914,EQ,H0,7,piecewise_cal,0.0241,0,10000
7,250,0,250,250,500,500,750,750,2,0,1,0,0,0,0,0,0,0,-0.375,-0.375,-0.375,-0.375,-0.375,-0.375,-0.375,-0.375,linear,0.025,TRUE,25,FALSE,1,1,NA,914,EQ,H0,7,poolmodel,4e-4,0,10000
7,250,0,250,250,500,500,750,750,2,0,1,0,0,0,0,0,0,0,-0.375,-0.375,-0.375,-0.375,-0.375,-0.375,-0.375,-0.375,linear,0.025,TRUE,25,FALSE,1,1,NA,914,EQ,H0,7,sepmodel,0.0242,0,10000
7,250,0,250,250,500,500,750,750,2,0,1,0,0,0,0,0,0,0,-0.375,-0.375,-0.375,-0.375,-0.375,-0.375,-0.375,-0.375,linear,0.025,TRUE,25,FALSE,1,1,NA,914,EQ,H0,7,splines,0.0239,0,10000
7,250,0,250,250,500,500,750,750,2,0,1,0,0,0,0,0,0,0,-0.375,-0.375,-0.375,-0.375,-0.375,-0.375,-0.375,-0.375,linear,0.025,TRUE,25,FALSE,1,1,NA,914,EQ,H0,7,splines_cal,0.0248,0,10000
7,250,0,250,250,500,500,750,750,2,0,1,0,0,0,0,0,0,0,-0.375,-0.375,-0.375,-0.375,-0.375,-0.375,-0.375,-0.375,linear,0.025,TRUE,25,FALSE,2,2,NA,914,EQ,H0,2,fixmodel,0.0249,0,10000
7,250,0,250,250,500,500,750,750,2,0,1,0,0,0,0,0,0,0,-0.375,-0.375,-0.375,-0.375,-0.375,-0.375,-0.375,-0.375,linear,0.025,TRUE,25,FALSE,2,2,NA,914,EQ,H0,2,fixmodel_cal,0.0252,0,10000
7,250,0,250,250,500,500,750,750,2,0,1,0,0,0,0,0,0,0,-0.375,-0.375,-0.375,-0.375,-0.375,-0.375,-0.375,-0.375,linear,0.025,TRUE,25,FALSE,2,2,NA,914,EQ,H0,2,mixmodel,0.014,0,10000
7,250,0,250,250,500,500,750,750,2,0,1,0,0,0,0,0,0,0,-0.375,-0.375,-0.375,-0.375,-0.375,-0.375,-0.375,-0.375,linear,0.025,TRUE,25,FALSE,2,2,NA,914,EQ,H0,2,mixmodel_AR1,0.0127,0,10000
7,250,0,250,250,500,500,750,750,2,0,1,0,0,0,0,0,0,0,-0.375,-0.375,-0.375,-0.375,-0.375,-0.375,-0.375,-0.375,linear,0.025,TRUE,25,FALSE,2,2,NA,914,EQ,H0,2,mixmodel_AR1_cal,0.0127,0,10000
7,250,0,250,250,500,500,750,750,2,0,1,0,0,0,0,0,0,0,-0.375,-0.375,-0.375,-0.375,-0.375,-0.375,-0.375,-0.375,linear,0.025,TRUE,25,FALSE,2,2,NA,914,EQ,H0,2,mixmodel_cal,0.0062,0,10000
7,250,0,250,250,500,500,750,750,2,0,1,0,0,0,0,0,0,0,-0.375,-0.375,-0.375,-0.375,-0.375,-0.375,-0.375,-0.375,linear,0.025,TRUE,25,FALSE,2,2,NA,914,EQ,H0,2,piecewise,0.0251,0,10000
7,250,0,250,250,500,500,750,750,2,0,1,0,0,0,0,0,0,0,-0.375,-0.375,-0.375,-0.375,-0.375,-0.375,-0.375,-0.375,linear,0.025,TRUE,25,FALSE,2,2,NA,914,EQ,H0,2,piecewise_cal,0.0261,0,10000
7,250,0,250,250,500,500,750,750,2,0,1,0,0,0,0,0,0,0,-0.375,-0.375,-0.375,-0.375,-0.375,-0.375,-0.375,-0.375,linear,0.025,TRUE,25,FALSE,2,2,NA,914,EQ,H0,2,poolmodel,0.0057,0,10000
7,250,0,250,250,500,500,750,750,2,0,1,0,0,0,0,0,0,0,-0.375,-0.375,-0.375,-0.375,-0.375,-0.375,-0.375,-0.375,linear,0.025,TRUE,25,FALSE,2,2,NA,914,EQ,H0,2,sepmodel,0.0235,0,10000
7,250,0,250,250,500,500,750,750,2,0,1,0,0,0,0,0,0,0,-0.375,-0.375,-0.375,-0.375,-0.375,-0.375,-0.375,-0.375,linear,0.025,TRUE,25,FALSE,2,2,NA,914,EQ,H0,2,splines,0.0253,0,10000
7,250,0,250,250,500,500,750,750,2,0,1,0,0,0,0,0,0,0,-0.375,-0.375,-0.375,-0.375,-0.375,-0.375,-0.375,-0.375,linear,0.025,TRUE,25,FALSE,2,2,NA,914,EQ,H0,2,splines_cal,0.0249,0,10000
7,250,0,250,250,500,500,750,750,2,0,1,0,0,0,0,0,0,0,-0.375,-0.375,-0.375,-0.375,-0.375,-0.375,-0.375,-0.375,linear,0.025,TRUE,25,FALSE,2,2,NA,914,EQ,H0,3,fixmodel,0.0235,0,10000
7,250,0,250,250,500,500,750,750,2,0,1,0,0,0,0,0,0,0,-0.375,-0.375,-0.375,-0.375,-0.375,-0.375,-0.375,-0.375,linear,0.025,TRUE,25,FALSE,2,2,NA,914,EQ,H0,3,fixmodel_cal,0.0236,0,10000
7,250,0,250,250,500,500,750,750,2,0,1,0,0,0,0,0,0,0,-0.375,-0.375,-0.375,-0.375,-0.375,-0.375,-0.375,-0.375,linear,0.025,TRUE,25,FALSE,2,2,NA,914,EQ,H0,3,mixmodel,0.0132,0,10000
7,250,0,250,250,500,500,750,750,2,0,1,0,0,0,0,0,0,0,-0.375,-0.375,-0.375,-0.375,-0.375,-0.375,-0.375,-0.375,linear,0.025,TRUE,25,FALSE,2,2,NA,914,EQ,H0,3,mixmodel_AR1,0.0118,0,10000
7,250,0,250,250,500,500,750,750,2,0,1,0,0,0,0,0,0,0,-0.375,-0.375,-0.375,-0.375,-0.375,-0.375,-0.375,-0.375,linear,0.025,TRUE,25,FALSE,2,2,NA,914,EQ,H0,3,mixmodel_AR1_cal,0.0113,0,10000
7,250,0,250,250,500,500,750,750,2,0,1,0,0,0,0,0,0,0,-0.375,-0.375,-0.375,-0.375,-0.375,-0.375,-0.375,-0.375,linear,0.025,TRUE,25,FALSE,2,2,NA,914,EQ,H0,3,mixmodel_cal,0.0059,0,10000
7,250,0,250,250,500,500,750,750,2,0,1,0,0,0,0,0,0,0,-0.375,-0.375,-0.375,-0.375,-0.375,-0.375,-0.375,-0.375,linear,0.025,TRUE,25,FALSE,2,2,NA,914,EQ,H0,3,piecewise,0.024,0,10000
7,250,0,250,250,500,500,750,750,2,0,1,0,0,0,0,0,0,0,-0.375,-0.375,-0.375,-0.375,-0.375,-0.375,-0.375,-0.375,linear,0.025,TRUE,25,FALSE,2,2,NA,914,EQ,H0,3,piecewise_cal,0.0244,0,10000
7,250,0,250,250,500,500,750,750,2,0,1,0,0,0,0,0,0,0,-0.375,-0.375,-0.375,-0.375,-0.375,-0.375,-0.375,-0.375,linear,0.025,TRUE,25,FALSE,2,2,NA,914,EQ,H0,3,poolmodel,0.0045,0,10000
7,250,0,250,250,500,500,750,750,2,0,1,0,0,0,0,0,0,0,-0.375,-0.375,-0.375,-0.375,-0.375,-0.375,-0.375,-0.375,linear,0.025,TRUE,25,FALSE,2,2,NA,914,EQ,H0,3,sepmodel,0.024,0,10000
7,250,0,250,250,500,500,750,750,2,0,1,0,0,0,0,0,0,0,-0.375,-0.375,-0.375,-0.375,-0.375,-0.375,-0.375,-0.375,linear,0.025,TRUE,25,FALSE,2,2,NA,914,EQ,H0,3,splines,0.0242,0,10000
7,250,0,250,250,500,500,750,750,2,0,1,0,0,0,0,0,0,0,-0.375,-0.375,-0.375,-0.375,-0.375,-0.375,-0.375,-0.375,linear,0.025,TRUE,25,FALSE,2,2,NA,914,EQ,H0,3,splines_cal,0.0238,0,10000
7,250,0,250,250,500,500,750,750,2,0,1,0,0,0,0,0,0,0,-0.375,-0.375,-0.375,-0.375,-0.375,-0.375,-0.375,-0.375,linear,0.025,TRUE,25,FALSE,2,2,NA,914,EQ,H0,4,fixmodel,0.0229,0,10000
7,250,0,250,250,500,500,750,750,2,0,1,0,0,0,0,0,0,0,-0.375,-0.375,-0.375,-0.375,-0.375,-0.375,-0.375,-0.375,linear,0.025,TRUE,25,FALSE,2,2,NA,914,EQ,H0,4,fixmodel_cal,0.0222,0,10000
7,250,0,250,250,500,500,750,750,2,0,1,0,0,0,0,0,0,0,-0.375,-0.375,-0.375,-0.375,-0.375,-0.375,-0.375,-0.375,linear,0.025,TRUE,25,FALSE,2,2,NA,914,EQ,H0,4,mixmodel,0.0099,0,10000
7,250,0,250,250,500,500,750,750,2,0,1,0,0,0,0,0,0,0,-0.375,-0.375,-0.375,-0.375,-0.375,-0.375,-0.375,-0.375,linear,0.025,TRUE,25,FALSE,2,2,NA,914,EQ,H0,4,mixmodel_AR1,0.0113,0,10000
7,250,0,250,250,500,500,750,750,2,0,1,0,0,0,0,0,0,0,-0.375,-0.375,-0.375,-0.375,-0.375,-0.375,-0.375,-0.375,linear,0.025,TRUE,25,FALSE,2,2,NA,914,EQ,H0,4,mixmodel_AR1_cal,0.0106,0,10000
7,250,0,250,250,500,500,750,750,2,0,1,0,0,0,0,0,0,0,-0.375,-0.375,-0.375,-0.375,-0.375,-0.375,-0.375,-0.375,linear,0.025,TRUE,25,FALSE,2,2,NA,914,EQ,H0,4,mixmodel_cal,0.0012,0,10000
7,250,0,250,250,500,500,750,750,2,0,1,0,0,0,0,0,0,0,-0.375,-0.375,-0.375,-0.375,-0.375,-0.375,-0.375,-0.375,linear,0.025,TRUE,25,FALSE,2,2,NA,914,EQ,H0,4,piecewise,0.0231,0,10000
7,250,0,250,250,500,500,750,750,2,0,1,0,0,0,0,0,0,0,-0.375,-0.375,-0.375,-0.375,-0.375,-0.375,-0.375,-0.375,linear,0.025,TRUE,25,FALSE,2,2,NA,914,EQ,H0,4,piecewise_cal,0.022,0,10000
7,250,0,250,250,500,500,750,750,2,0,1,0,0,0,0,0,0,0,-0.375,-0.375,-0.375,-0.375,-0.375,-0.375,-0.375,-0.375,linear,0.025,TRUE,25,FALSE,2,2,NA,914,EQ,H0,4,poolmodel,0.0011,0,10000
7,250,0,250,250,500,500,750,750,2,0,1,0,0,0,0,0,0,0,-0.375,-0.375,-0.375,-0.375,-0.375,-0.375,-0.375,-0.375,linear,0.025,TRUE,25,FALSE,2,2,NA,914,EQ,H0,4,sepmodel,0.0218,0,10000
7,250,0,250,250,500,500,750,750,2,0,1,0,0,0,0,0,0,0,-0.375,-0.375,-0.375,-0.375,-0.375,-0.375,-0.375,-0.375,linear,0.025,TRUE,25,FALSE,2,2,NA,914,EQ,H0,4,splines,0.0225,0,10000
7,250,0,250,250,500,500,750,750,2,0,1,0,0,0,0,0,0,0,-0.375,-0.375,-0.375,-0.375,-0.375,-0.375,-0.375,-0.375,linear,0.025,TRUE,25,FALSE,2,2,NA,914,EQ,H0,4,splines_cal,0.0222,0,10000
7,250,0,250,250,500,500,750,750,2,0,1,0,0,0,0,0,0,0,-0.375,-0.375,-0.375,-0.375,-0.375,-0.375,-0.375,-0.375,linear,0.025,TRUE,25,FALSE,2,2,NA,914,EQ,H0,5,fixmodel,0.0246,0,10000
7,250,0,250,250,500,500,750,750,2,0,1,0,0,0,0,0,0,0,-0.375,-0.375,-0.375,-0.375,-0.375,-0.375,-0.375,-0.375,linear,0.025,TRUE,25,FALSE,2,2,NA,914,EQ,H0,5,fixmodel_cal,0.0247,0,10000
7,250,0,250,250,500,500,750,750,2,0,1,0,0,0,0,0,0,0,-0.375,-0.375,-0.375,-0.375,-0.375,-0.375,-0.375,-0.375,linear,0.025,TRUE,25,FALSE,2,2,NA,914,EQ,H0,5,mixmodel,0.0103,0,10000
7,250,0,250,250,500,500,750,750,2,0,1,0,0,0,0,0,0,0,-0.375,-0.375,-0.375,-0.375,-0.375,-0.375,-0.375,-0.375,linear,0.025,TRUE,25,FALSE,2,2,NA,914,EQ,H0,5,mixmodel_AR1,0.0109,0,10000
7,250,0,250,250,500,500,750,750,2,0,1,0,0,0,0,0,0,0,-0.375,-0.375,-0.375,-0.375,-0.375,-0.375,-0.375,-0.375,linear,0.025,TRUE,25,FALSE,2,2,NA,914,EQ,H0,5,mixmodel_AR1_cal,0.0107,0,10000
7,250,0,250,250,500,500,750,750,2,0,1,0,0,0,0,0,0,0,-0.375,-0.375,-0.375,-0.375,-0.375,-0.375,-0.375,-0.375,linear,0.025,TRUE,25,FALSE,2,2,NA,914,EQ,H0,5,mixmodel_cal,0.001,0,10000
7,250,0,250,250,500,500,750,750,2,0,1,0,0,0,0,0,0,0,-0.375,-0.375,-0.375,-0.375,-0.375,-0.375,-0.375,-0.375,linear,0.025,TRUE,25,FALSE,2,2,NA,914,EQ,H0,5,piecewise,0.0248,0,10000
7,250,0,250,250,500,500,750,750,2,0,1,0,0,0,0,0,0,0,-0.375,-0.375,-0.375,-0.375,-0.375,-0.375,-0.375,-0.375,linear,0.025,TRUE,25,FALSE,2,2,NA,914,EQ,H0,5,piecewise_cal,0.0239,0,10000
7,250,0,250,250,500,500,750,750,2,0,1,0,0,0,0,0,0,0,-0.375,-0.375,-0.375,-0.375,-0.375,-0.375,-0.375,-0.375,linear,0.025,TRUE,25,FALSE,2,2,NA,914,EQ,H0,5,poolmodel,5e-4,0,10000
7,250,0,250,250,500,500,750,750,2,0,1,0,0,0,0,0,0,0,-0.375,-0.375,-0.375,-0.375,-0.375,-0.375,-0.375,-0.375,linear,0.025,TRUE,25,FALSE,2,2,NA,914,EQ,H0,5,sepmodel,0.0232,0,10000
7,250,0,250,250,500,500,750,750,2,0,1,0,0,0,0,0,0,0,-0.375,-0.375,-0.375,-0.375,-0.375,-0.375,-0.375,-0.375,linear,0.025,TRUE,25,FALSE,2,2,NA,914,EQ,H0,5,splines,0.0242,0,10000
7,250,0,250,250,500,500,750,750,2,0,1,0,0,0,0,0,0,0,-0.375,-0.375,-0.375,-0.375,-0.375,-0.375,-0.375,-0.375,linear,0.025,TRUE,25,FALSE,2,2,NA,914,EQ,H0,5,splines_cal,0.0243,0,10000
7,250,0,250,250,500,500,750,750,2,0,1,0,0,0,0,0,0,0,-0.375,-0.375,-0.375,-0.375,-0.375,-0.375,-0.375,-0.375,linear,0.025,TRUE,25,FALSE,2,2,NA,914,EQ,H0,6,fixmodel,0.0226,0,10000
7,250,0,250,250,500,500,750,750,2,0,1,0,0,0,0,0,0,0,-0.375,-0.375,-0.375,-0.375,-0.375,-0.375,-0.375,-0.375,linear,0.025,TRUE,25,FALSE,2,2,NA,914,EQ,H0,6,fixmodel_cal,0.0219,0,10000
7,250,0,250,250,500,500,750,750,2,0,1,0,0,0,0,0,0,0,-0.375,-0.375,-0.375,-0.375,-0.375,-0.375,-0.375,-0.375,linear,0.025,TRUE,25,FALSE,2,2,NA,914,EQ,H0,6,mixmodel,0.0077,0,10000
7,250,0,250,250,500,500,750,750,2,0,1,0,0,0,0,0,0,0,-0.375,-0.375,-0.375,-0.375,-0.375,-0.375,-0.375,-0.375,linear,0.025,TRUE,25,FALSE,2,2,NA,914,EQ,H0,6,mixmodel_AR1,0.0098,0,10000
7,250,0,250,250,500,500,750,750,2,0,1,0,0,0,0,0,0,0,-0.375,-0.375,-0.375,-0.375,-0.375,-0.375,-0.375,-0.375,linear,0.025,TRUE,25,FALSE,2,2,NA,914,EQ,H0,6,mixmodel_AR1_cal,0.0096,0,10000
7,250,0,250,250,500,500,750,750,2,0,1,0,0,0,0,0,0,0,-0.375,-0.375,-0.375,-0.375,-0.375,-0.375,-0.375,-0.375,linear,0.025,TRUE,25,FALSE,2,2,NA,914,EQ,H0,6,mixmodel_cal,5e-4,0,10000
7,250,0,250,250,500,500,750,750,2,0,1,0,0,0,0,0,0,0,-0.375,-0.375,-0.375,-0.375,-0.375,-0.375,-0.375,-0.375,linear,0.025,TRUE,25,FALSE,2,2,NA,914,EQ,H0,6,piecewise,0.0227,0,10000
7,250,0,250,250,500,500,750,750,2,0,1,0,0,0,0,0,0,0,-0.375,-0.375,-0.375,-0.375,-0.375,-0.375,-0.375,-0.375,linear,0.025,TRUE,25,FALSE,2,2,NA,914,EQ,H0,6,piecewise_cal,0.0224,0,10000
7,250,0,250,250,500,500,750,750,2,0,1,0,0,0,0,0,0,0,-0.375,-0.375,-0.375,-0.375,-0.375,-0.375,-0.375,-0.375,linear,0.025,TRUE,25,FALSE,2,2,NA,914,EQ,H0,6,poolmodel,5e-4,0,10000
7,250,0,250,250,500,500,750,750,2,0,1,0,0,0,0,0,0,0,-0.375,-0.375,-0.375,-0.375,-0.375,-0.375,-0.375,-0.375,linear,0.025,TRUE,25,FALSE,2,2,NA,914,EQ,H0,6,sepmodel,0.0229,0,10000
7,250,0,250,250,500,500,750,750,2,0,1,0,0,0,0,0,0,0,-0.375,-0.375,-0.375,-0.375,-0.375,-0.375,-0.375,-0.375,linear,0.025,TRUE,25,FALSE,2,2,NA,914,EQ,H0,6,splines,0.0225,0,10000
7,250,0,250,250,500,500,750,750,2,0,1,0,0,0,0,0,0,0,-0.375,-0.375,-0.375,-0.375,-0.375,-0.375,-0.375,-0.375,linear,0.025,TRUE,25,FALSE,2,2,NA,914,EQ,H0,6,splines_cal,0.0224,0,10000
7,250,0,250,250,500,500,750,750,2,0,1,0,0,0,0,0,0,0,-0.375,-0.375,-0.375,-0.375,-0.375,-0.375,-0.375,-0.375,linear,0.025,TRUE,25,FALSE,2,2,NA,914,EQ,H0,7,fixmodel,0.0222,0,10000
7,250,0,250,250,500,500,750,750,2,0,1,0,0,0,0,0,0,0,-0.375,-0.375,-0.375,-0.375,-0.375,-0.375,-0.375,-0.375,linear,0.025,TRUE,25,FALSE,2,2,NA,914,EQ,H0,7,fixmodel_cal,0.0226,0,10000
7,250,0,250,250,500,500,750,750,2,0,1,0,0,0,0,0,0,0,-0.375,-0.375,-0.375,-0.375,-0.375,-0.375,-0.375,-0.375,linear,0.025,TRUE,25,FALSE,2,2,NA,914,EQ,H0,7,mixmodel,0.0094,0,10000
7,250,0,250,250,500,500,750,750,2,0,1,0,0,0,0,0,0,0,-0.375,-0.375,-0.375,-0.375,-0.375,-0.375,-0.375,-0.375,linear,0.025,TRUE,25,FALSE,2,2,NA,914,EQ,H0,7,mixmodel_AR1,0.0116,0,10000
7,250,0,250,250,500,500,750,750,2,0,1,0,0,0,0,0,0,0,-0.375,-0.375,-0.375,-0.375,-0.375,-0.375,-0.375,-0.375,linear,0.025,TRUE,25,FALSE,2,2,NA,914,EQ,H0,7,mixmodel_AR1_cal,0.011,0,10000
7,250,0,250,250,500,500,750,750,2,0,1,0,0,0,0,0,0,0,-0.375,-0.375,-0.375,-0.375,-0.375,-0.375,-0.375,-0.375,linear,0.025,TRUE,25,FALSE,2,2,NA,914,EQ,H0,7,mixmodel_cal,5e-4,0,10000
7,250,0,250,250,500,500,750,750,2,0,1,0,0,0,0,0,0,0,-0.375,-0.375,-0.375,-0.375,-0.375,-0.375,-0.375,-0.375,linear,0.025,TRUE,25,FALSE,2,2,NA,914,EQ,H0,7,piecewise,0.0224,0,10000
7,250,0,250,250,500,500,750,750,2,0,1,0,0,0,0,0,0,0,-0.375,-0.375,-0.375,-0.375,-0.375,-0.375,-0.375,-0.375,linear,0.025,TRUE,25,FALSE,2,2,NA,914,EQ,H0,7,piecewise_cal,0.023,0,10000
7,250,0,250,250,500,500,750,750,2,0,1,0,0,0,0,0,0,0,-0.375,-0.375,-0.375,-0.375,-0.375,-0.375,-0.375,-0.375,linear,0.025,TRUE,25,FALSE,2,2,NA,914,EQ,H0,7,poolmodel,3e-4,0,10000
7,250,0,250,250,500,500,750,750,2,0,1,0,0,0,0,0,0,0,-0.375,-0.375,-0.375,-0.375,-0.375,-0.375,-0.375,-0.375,linear,0.025,TRUE,25,FALSE,2,2,NA,914,EQ,H0,7,sepmodel,0.023,0,10000
7,250,0,250,250,500,500,750,750,2,0,1,0,0,0,0,0,0,0,-0.375,-0.375,-0.375,-0.375,-0.375,-0.375,-0.375,-0.375,linear,0.025,TRUE,25,FALSE,2,2,NA,914,EQ,H0,7,splines,0.0234,0,10000
7,250,0,250,250,500,500,750,750,2,0,1,0,0,0,0,0,0,0,-0.375,-0.375,-0.375,-0.375,-0.375,-0.375,-0.375,-0.375,linear,0.025,TRUE,25,FALSE,2,2,NA,914,EQ,H0,7,splines_cal,0.0231,0,10000
7,250,0,250,250,500,500,750,750,2,0,1,0,0,0,0,0,0,0,-0.375,-0.375,-0.375,-0.375,-0.375,-0.375,-0.375,-0.375,linear,0.025,TRUE,25,FALSE,3,3,NA,914,EQ,H0,2,fixmodel,0.0252,0,10000
7,250,0,250,250,500,500,750,750,2,0,1,0,0,0,0,0,0,0,-0.375,-0.375,-0.375,-0.375,-0.375,-0.375,-0.375,-0.375,linear,0.025,TRUE,25,FALSE,3,3,NA,914,EQ,H0,2,fixmodel_cal,0.0251,0,10000
7,250,0,250,250,500,500,750,750,2,0,1,0,0,0,0,0,0,0,-0.375,-0.375,-0.375,-0.375,-0.375,-0.375,-0.375,-0.375,linear,0.025,TRUE,25,FALSE,3,3,NA,914,EQ,H0,2,mixmodel,0.0153,0,10000
7,250,0,250,250,500,500,750,750,2,0,1,0,0,0,0,0,0,0,-0.375,-0.375,-0.375,-0.375,-0.375,-0.375,-0.375,-0.375,linear,0.025,TRUE,25,FALSE,3,3,NA,914,EQ,H0,2,mixmodel_AR1,0.0138,0,10000
7,250,0,250,250,500,500,750,750,2,0,1,0,0,0,0,0,0,0,-0.375,-0.375,-0.375,-0.375,-0.375,-0.375,-0.375,-0.375,linear,0.025,TRUE,25,FALSE,3,3,NA,914,EQ,H0,2,mixmodel_AR1_cal,0.013,0,10000
7,250,0,250,250,500,500,750,750,2,0,1,0,0,0,0,0,0,0,-0.375,-0.375,-0.375,-0.375,-0.375,-0.375,-0.375,-0.375,linear,0.025,TRUE,25,FALSE,3,3,NA,914,EQ,H0,2,mixmodel_cal,0.0064,0,10000
7,250,0,250,250,500,500,750,750,2,0,1,0,0,0,0,0,0,0,-0.375,-0.375,-0.375,-0.375,-0.375,-0.375,-0.375,-0.375,linear,0.025,TRUE,25,FALSE,3,3,NA,914,EQ,H0,2,piecewise,0.0255,0,10000
7,250,0,250,250,500,500,750,750,2,0,1,0,0,0,0,0,0,0,-0.375,-0.375,-0.375,-0.375,-0.375,-0.375,-0.375,-0.375,linear,0.025,TRUE,25,FALSE,3,3,NA,914,EQ,H0,2,piecewise_cal,0.0244,0,10000
7,250,0,250,250,500,500,750,750,2,0,1,0,0,0,0,0,0,0,-0.375,-0.375,-0.375,-0.375,-0.375,-0.375,-0.375,-0.375,linear,0.025,TRUE,25,FALSE,3,3,NA,914,EQ,H0,2,poolmodel,0.0055,0,10000
7,250,0,250,250,500,500,750,750,2,0,1,0,0,0,0,0,0,0,-0.375,-0.375,-0.375,-0.375,-0.375,-0.375,-0.375,-0.375,linear,0.025,TRUE,25,FALSE,3,3,NA,914,EQ,H0,2,sepmodel,0.0252,0,10000
7,250,0,250,250,500,500,750,750,2,0,1,0,0,0,0,0,0,0,-0.375,-0.375,-0.375,-0.375,-0.375,-0.375,-0.375,-0.375,linear,0.025,TRUE,25,FALSE,3,3,NA,914,EQ,H0,2,splines,0.0261,0,10000
7,250,0,250,250,500,500,750,750,2,0,1,0,0,0,0,0,0,0,-0.375,-0.375,-0.375,-0.375,-0.375,-0.375,-0.375,-0.375,linear,0.025,TRUE,25,FALSE,3,3,NA,914,EQ,H0,2,splines_cal,0.0251,0,10000
7,250,0,250,250,500,500,750,750,2,0,1,0,0,0,0,0,0,0,-0.375,-0.375,-0.375,-0.375,-0.375,-0.375,-0.375,-0.375,linear,0.025,TRUE,25,FALSE,3,3,NA,914,EQ,H0,3,fixmodel,0.0236,0,10000
7,250,0,250,250,500,500,750,750,2,0,1,0,0,0,0,0,0,0,-0.375,-0.375,-0.375,-0.375,-0.375,-0.375,-0.375,-0.375,linear,0.025,TRUE,25,FALSE,3,3,NA,914,EQ,H0,3,fixmodel_cal,0.0233,0,10000
7,250,0,250,250,500,500,750,750,2,0,1,0,0,0,0,0,0,0,-0.375,-0.375,-0.375,-0.375,-0.375,-0.375,-0.375,-0.375,linear,0.025,TRUE,25,FALSE,3,3,NA,914,EQ,H0,3,mixmodel,0.0129,0,10000
7,250,0,250,250,500,500,750,750,2,0,1,0,0,0,0,0,0,0,-0.375,-0.375,-0.375,-0.375,-0.375,-0.375,-0.375,-0.375,linear,0.025,TRUE,25,FALSE,3,3,NA,914,EQ,H0,3,mixmodel_AR1,0.0113,0,10000
7,250,0,250,250,500,500,750,750,2,0,1,0,0,0,0,0,0,0,-0.375,-0.375,-0.375,-0.375,-0.375,-0.375,-0.375,-0.375,linear,0.025,TRUE,25,FALSE,3,3,NA,914,EQ,H0,3,mixmodel_AR1_cal,0.0103,0,10000
7,250,0,250,250,500,500,750,750,2,0,1,0,0,0,0,0,0,0,-0.375,-0.375,-0.375,-0.375,-0.375,-0.375,-0.375,-0.375,linear,0.025,TRUE,25,FALSE,3,3,NA,914,EQ,H0,3,mixmodel_cal,0.0049,0,10000
7,250,0,250,250,500,500,750,750,2,0,1,0,0,0,0,0,0,0,-0.375,-0.375,-0.375,-0.375,-0.375,-0.375,-0.375,-0.375,linear,0.025,TRUE,25,FALSE,3,3,NA,914,EQ,H0,3,piecewise,0.0238,0,10000
7,250,0,250,250,500,500,750,750,2,0,1,0,0,0,0,0,0,0,-0.375,-0.375,-0.375,-0.375,-0.375,-0.375,-0.375,-0.375,linear,0.025,TRUE,25,FALSE,3,3,NA,914,EQ,H0,3,piecewise_cal,0.0231,0,10000
7,250,0,250,250,500,500,750,750,2,0,1,0,0,0,0,0,0,0,-0.375,-0.375,-0.375,-0.375,-0.375,-0.375,-0.375,-0.375,linear,0.025,TRUE,25,FALSE,3,3,NA,914,EQ,H0,3,poolmodel,0.004,0,10000
7,250,0,250,250,500,500,750,750,2,0,1,0,0,0,0,0,0,0,-0.375,-0.375,-0.375,-0.375,-0.375,-0.375,-0.375,-0.375,linear,0.025,TRUE,25,FALSE,3,3,NA,914,EQ,H0,3,sepmodel,0.023,0,10000
7,250,0,250,250,500,500,750,750,2,0,1,0,0,0,0,0,0,0,-0.375,-0.375,-0.375,-0.375,-0.375,-0.375,-0.375,-0.375,linear,0.025,TRUE,25,FALSE,3,3,NA,914,EQ,H0,3,splines,0.0244,0,10000
7,250,0,250,250,500,500,750,750,2,0,1,0,0,0,0,0,0,0,-0.375,-0.375,-0.375,-0.375,-0.375,-0.375,-0.375,-0.375,linear,0.025,TRUE,25,FALSE,3,3,NA,914,EQ,H0,3,splines_cal,0.0235,0,10000
7,250,0,250,250,500,500,750,750,2,0,1,0,0,0,0,0,0,0,-0.375,-0.375,-0.375,-0.375,-0.375,-0.375,-0.375,-0.375,linear,0.025,TRUE,25,FALSE,3,3,NA,914,EQ,H0,4,fixmodel,0.0236,0,10000
7,250,0,250,250,500,500,750,750,2,0,1,0,0,0,0,0,0,0,-0.375,-0.375,-0.375,-0.375,-0.375,-0.375,-0.375,-0.375,linear,0.025,TRUE,25,FALSE,3,3,NA,914,EQ,H0,4,fixmodel_cal,0.0231,0,10000
7,250,0,250,250,500,500,750,750,2,0,1,0,0,0,0,0,0,0,-0.375,-0.375,-0.375,-0.375,-0.375,-0.375,-0.375,-0.375,linear,0.025,TRUE,25,FALSE,3,3,NA,914,EQ,H0,4,mixmodel,0.0107,0,10000
7,250,0,250,250,500,500,750,750,2,0,1,0,0,0,0,0,0,0,-0.375,-0.375,-0.375,-0.375,-0.375,-0.375,-0.375,-0.375,linear,0.025,TRUE,25,FALSE,3,3,NA,914,EQ,H0,4,mixmodel_AR1,0.0116,0,10000
7,250,0,250,250,500,500,750,750,2,0,1,0,0,0,0,0,0,0,-0.375,-0.375,-0.375,-0.375,-0.375,-0.375,-0.375,-0.375,linear,0.025,TRUE,25,FALSE,3,3,NA,914,EQ,H0,4,mixmodel_AR1_cal,0.0104,0,10000
7,250,0,250,250,500,500,750,750,2,0,1,0,0,0,0,0,0,0,-0.375,-0.375,-0.375,-0.375,-0.375,-0.375,-0.375,-0.375,linear,0.025,TRUE,25,FALSE,3,3,NA,914,EQ,H0,4,mixmodel_cal,0.0019,0,10000
7,250,0,250,250,500,500,750,750,2,0,1,0,0,0,0,0,0,0,-0.375,-0.375,-0.375,-0.375,-0.375,-0.375,-0.375,-0.375,linear,0.025,TRUE,25,FALSE,3,3,NA,914,EQ,H0,4,piecewise,0.0236,0,10000
7,250,0,250,250,500,500,750,750,2,0,1,0,0,0,0,0,0,0,-0.375,-0.375,-0.375,-0.375,-0.375,-0.375,-0.375,-0.375,linear,0.025,TRUE,25,FALSE,3,3,NA,914,EQ,H0,4,piecewise_cal,0.0231,0,10000
7,250,0,250,250,500,500,750,750,2,0,1,0,0,0,0,0,0,0,-0.375,-0.375,-0.375,-0.375,-0.375,-0.375,-0.375,-0.375,linear,0.025,TRUE,25,FALSE,3,3,NA,914,EQ,H0,4,poolmodel,0.0012,0,10000
7,250,0,250,250,500,500,750,750,2,0,1,0,0,0,0,0,0,0,-0.375,-0.375,-0.375,-0.375,-0.375,-0.375,-0.375,-0.375,linear,0.025,TRUE,25,FALSE,3,3,NA,914,EQ,H0,4,sepmodel,0.0225,0,10000
7,250,0,250,250,500,500,750,750,2,0,1,0,0,0,0,0,0,0,-0.375,-0.375,-0.375,-0.375,-0.375,-0.375,-0.375,-0.375,linear,0.025,TRUE,25,FALSE,3,3,NA,914,EQ,H0,4,splines,0.0243,0,10000
7,250,0,250,250,500,500,750,750,2,0,1,0,0,0,0,0,0,0,-0.375,-0.375,-0.375,-0.375,-0.375,-0.375,-0.375,-0.375,linear,0.025,TRUE,25,FALSE,3,3,NA,914,EQ,H0,4,splines_cal,0.0235,0,10000
7,250,0,250,250,500,500,750,750,2,0,1,0,0,0,0,0,0,0,-0.375,-0.375,-0.375,-0.375,-0.375,-0.375,-0.375,-0.375,linear,0.025,TRUE,25,FALSE,3,3,NA,914,EQ,H0,5,fixmodel,0.0248,0,10000
7,250,0,250,250,500,500,750,750,2,0,1,0,0,0,0,0,0,0,-0.375,-0.375,-0.375,-0.375,-0.375,-0.375,-0.375,-0.375,linear,0.025,TRUE,25,FALSE,3,3,NA,914,EQ,H0,5,fixmodel_cal,0.0256,0,10000
7,250,0,250,250,500,500,750,750,2,0,1,0,0,0,0,0,0,0,-0.375,-0.375,-0.375,-0.375,-0.375,-0.375,-0.375,-0.375,linear,0.025,TRUE,25,FALSE,3,3,NA,914,EQ,H0,5,mixmodel,0.0117,0,10000
7,250,0,250,250,500,500,750,750,2,0,1,0,0,0,0,0,0,0,-0.375,-0.375,-0.375,-0.375,-0.375,-0.375,-0.375,-0.375,linear,0.025,TRUE,25,FALSE,3,3,NA,914,EQ,H0,5,mixmodel_AR1,0.0122,0,10000
7,250,0,250,250,500,500,750,750,2,0,1,0,0,0,0,0,0,0,-0.375,-0.375,-0.375,-0.375,-0.375,-0.375,-0.375,-0.375,linear,0.025,TRUE,25,FALSE,3,3,NA,914,EQ,H0,5,mixmodel_AR1_cal,0.0123,0,10000
7,250,0,250,250,500,500,750,750,2,0,1,0,0,0,0,0,0,0,-0.375,-0.375,-0.375,-0.375,-0.375,-0.375,-0.375,-0.375,linear,0.025,TRUE,25,FALSE,3,3,NA,914,EQ,H0,5,mixmodel_cal,0.0021,0,10000
7,250,0,250,250,500,500,750,750,2,0,1,0,0,0,0,0,0,0,-0.375,-0.375,-0.375,-0.375,-0.375,-0.375,-0.375,-0.375,linear,0.025,TRUE,25,FALSE,3,3,NA,914,EQ,H0,5,piecewise,0.0251,0,10000
7,250,0,250,250,500,500,750,750,2,0,1,0,0,0,0,0,0,0,-0.375,-0.375,-0.375,-0.375,-0.375,-0.375,-0.375,-0.375,linear,0.025,TRUE,25,FALSE,3,3,NA,914,EQ,H0,5,piecewise_cal,0.0264,0,10000
7,250,0,250,250,500,500,750,750,2,0,1,0,0,0,0,0,0,0,-0.375,-0.375,-0.375,-0.375,-0.375,-0.375,-0.375,-0.375,linear,0.025,TRUE,25,FALSE,3,3,NA,914,EQ,H0,5,poolmodel,0.0013,0,10000
7,250,0,250,250,500,500,750,750,2,0,1,0,0,0,0,0,0,0,-0.375,-0.375,-0.375,-0.375,-0.375,-0.375,-0.375,-0.375,linear,0.025,TRUE,25,FALSE,3,3,NA,914,EQ,H0,5,sepmodel,0.025,0,10000
7,250,0,250,250,500,500,750,750,2,0,1,0,0,0,0,0,0,0,-0.375,-0.375,-0.375,-0.375,-0.375,-0.375,-0.375,-0.375,linear,0.025,TRUE,25,FALSE,3,3,NA,914,EQ,H0,5,splines,0.0246,0,10000
7,250,0,250,250,500,500,750,750,2,0,1,0,0,0,0,0,0,0,-0.375,-0.375,-0.375,-0.375,-0.375,-0.375,-0.375,-0.375,linear,0.025,TRUE,25,FALSE,3,3,NA,914,EQ,H0,5,splines_cal,0.0254,0,10000
7,250,0,250,250,500,500,750,750,2,0,1,0,0,0,0,0,0,0,-0.375,-0.375,-0.375,-0.375,-0.375,-0.375,-0.375,-0.375,linear,0.025,TRUE,25,FALSE,3,3,NA,914,EQ,H0,6,fixmodel,0.0253,0,10000
7,250,0,250,250,500,500,750,750,2,0,1,0,0,0,0,0,0,0,-0.375,-0.375,-0.375,-0.375,-0.375,-0.375,-0.375,-0.375,linear,0.025,TRUE,25,FALSE,3,3,NA,914,EQ,H0,6,fixmodel_cal,0.0257,0,10000
7,250,0,250,250,500,500,750,750,2,0,1,0,0,0,0,0,0,0,-0.375,-0.375,-0.375,-0.375,-0.375,-0.375,-0.375,-0.375,linear,0.025,TRUE,25,FALSE,3,3,NA,914,EQ,H0,6,mixmodel,0.0092,0,10000
7,250,0,250,250,500,500,750,750,2,0,1,0,0,0,0,0,0,0,-0.375,-0.375,-0.375,-0.375,-0.375,-0.375,-0.375,-0.375,linear,0.025,TRUE,25,FALSE,3,3,NA,914,EQ,H0,6,mixmodel_AR1,0.0121,0,10000
7,250,0,250,250,500,500,750,750,2,0,1,0,0,0,0,0,0,0,-0.375,-0.375,-0.375,-0.375,-0.375,-0.375,-0.375,-0.375,linear,0.025,TRUE,25,FALSE,3,3,NA,914,EQ,H0,6,mixmodel_AR1_cal,0.011,0,10000
7,250,0,250,250,500,500,750,750,2,0,1,0,0,0,0,0,0,0,-0.375,-0.375,-0.375,-0.375,-0.375,-0.375,-0.375,-0.375,linear,0.025,TRUE,25,FALSE,3,3,NA,914,EQ,H0,6,mixmodel_cal,5e-4,0,10000
7,250,0,250,250,500,500,750,750,2,0,1,0,0,0,0,0,0,0,-0.375,-0.375,-0.375,-0.375,-0.375,-0.375,-0.375,-0.375,linear,0.025,TRUE,25,FALSE,3,3,NA,914,EQ,H0,6,piecewise,0.0253,0,10000
7,250,0,250,250,500,500,750,750,2,0,1,0,0,0,0,0,0,0,-0.375,-0.375,-0.375,-0.375,-0.375,-0.375,-0.375,-0.375,linear,0.025,TRUE,25,FALSE,3,3,NA,914,EQ,H0,6,piecewise_cal,0.0254,0,10000
7,250,0,250,250,500,500,750,750,2,0,1,0,0,0,0,0,0,0,-0.375,-0.375,-0.375,-0.375,-0.375,-0.375,-0.375,-0.375,linear,0.025,TRUE,25,FALSE,3,3,NA,914,EQ,H0,6,poolmodel,3e-4,0,10000
7,250,0,250,250,500,500,750,750,2,0,1,0,0,0,0,0,0,0,-0.375,-0.375,-0.375,-0.375,-0.375,-0.375,-0.375,-0.375,linear,0.025,TRUE,25,FALSE,3,3,NA,914,EQ,H0,6,sepmodel,0.0239,0,10000
7,250,0,250,250,500,500,750,750,2,0,1,0,0,0,0,0,0,0,-0.375,-0.375,-0.375,-0.375,-0.375,-0.375,-0.375,-0.375,linear,0.025,TRUE,25,FALSE,3,3,NA,914,EQ,H0,6,splines,0.0251,0,10000
7,250,0,250,250,500,500,750,750,2,0,1,0,0,0,0,0,0,0,-0.375,-0.375,-0.375,-0.375,-0.375,-0.375,-0.375,-0.375,linear,0.025,TRUE,25,FALSE,3,3,NA,914,EQ,H0,6,splines_cal,0.0249,0,10000
7,250,0,250,250,500,500,750,750,2,0,1,0,0,0,0,0,0,0,-0.375,-0.375,-0.375,-0.375,-0.375,-0.375,-0.375,-0.375,linear,0.025,TRUE,25,FALSE,3,3,NA,914,EQ,H0,7,fixmodel,0.0218,0,10000
7,250,0,250,250,500,500,750,750,2,0,1,0,0,0,0,0,0,0,-0.375,-0.375,-0.375,-0.375,-0.375,-0.375,-0.375,-0.375,linear,0.025,TRUE,25,FALSE,3,3,NA,914,EQ,H0,7,fixmodel_cal,0.0225,0,10000
7,250,0,250,250,500,500,750,750,2,0,1,0,0,0,0,0,0,0,-0.375,-0.375,-0.375,-0.375,-0.375,-0.375,-0.375,-0.375,linear,0.025,TRUE,25,FALSE,3,3,NA,914,EQ,H0,7,mixmodel,0.0092,0,10000
7,250,0,250,250,500,500,750,750,2,0,1,0,0,0,0,0,0,0,-0.375,-0.375,-0.375,-0.375,-0.375,-0.375,-0.375,-0.375,linear,0.025,TRUE,25,FALSE,3,3,NA,914,EQ,H0,7,mixmodel_AR1,0.0112,0,10000
7,250,0,250,250,500,500,750,750,2,0,1,0,0,0,0,0,0,0,-0.375,-0.375,-0.375,-0.375,-0.375,-0.375,-0.375,-0.375,linear,0.025,TRUE,25,FALSE,3,3,NA,914,EQ,H0,7,mixmodel_AR1_cal,0.0106,0,10000
7,250,0,250,250,500,500,750,750,2,0,1,0,0,0,0,0,0,0,-0.375,-0.375,-0.375,-0.375,-0.375,-0.375,-0.375,-0.375,linear,0.025,TRUE,25,FALSE,3,3,NA,914,EQ,H0,7,mixmodel_cal,5e-4,0,10000
7,250,0,250,250,500,500,750,750,2,0,1,0,0,0,0,0,0,0,-0.375,-0.375,-0.375,-0.375,-0.375,-0.375,-0.375,-0.375,linear,0.025,TRUE,25,FALSE,3,3,NA,914,EQ,H0,7,piecewise,0.0221,0,10000
7,250,0,250,250,500,500,750,750,2,0,1,0,0,0,0,0,0,0,-0.375,-0.375,-0.375,-0.375,-0.375,-0.375,-0.375,-0.375,linear,0.025,TRUE,25,FALSE,3,3,NA,914,EQ,H0,7,piecewise_cal,0.0237,0,10000
7,250,0,250,250,500,500,750,750,2,0,1,0,0,0,0,0,0,0,-0.375,-0.375,-0.375,-0.375,-0.375,-0.375,-0.375,-0.375,linear,0.025,TRUE,25,FALSE,3,3,NA,914,EQ,H0,7,poolmodel,3e-4,0,10000
7,250,0,250,250,500,500,750,750,2,0,1,0,0,0,0,0,0,0,-0.375,-0.375,-0.375,-0.375,-0.375,-0.375,-0.375,-0.375,linear,0.025,TRUE,25,FALSE,3,3,NA,914,EQ,H0,7,sepmodel,0.0245,0,10000
7,250,0,250,250,500,500,750,750,2,0,1,0,0,0,0,0,0,0,-0.375,-0.375,-0.375,-0.375,-0.375,-0.375,-0.375,-0.375,linear,0.025,TRUE,25,FALSE,3,3,NA,914,EQ,H0,7,splines,0.0222,0,10000
7,250,0,250,250,500,500,750,750,2,0,1,0,0,0,0,0,0,0,-0.375,-0.375,-0.375,-0.375,-0.375,-0.375,-0.375,-0.375,linear,0.025,TRUE,25,FALSE,3,3,NA,914,EQ,H0,7,splines_cal,0.0228,0,10000
7,250,0,250,250,500,500,750,750,2,0,1,0,0,0,0,0,0,0,-0.25,-0.25,-0.25,-0.25,-0.25,-0.25,-0.25,-0.25,linear,0.025,TRUE,25,FALSE,1,1,NA,914,EQ,H0,2,fixmodel,0.0276,0,10000
7,250,0,250,250,500,500,750,750,2,0,1,0,0,0,0,0,0,0,-0.25,-0.25,-0.25,-0.25,-0.25,-0.25,-0.25,-0.25,linear,0.025,TRUE,25,FALSE,1,1,NA,914,EQ,H0,2,fixmodel_cal,0.0279,0,10000
7,250,0,250,250,500,500,750,750,2,0,1,0,0,0,0,0,0,0,-0.25,-0.25,-0.25,-0.25,-0.25,-0.25,-0.25,-0.25,linear,0.025,TRUE,25,FALSE,1,1,NA,914,EQ,H0,2,mixmodel,0.0175,0,10000
7,250,0,250,250,500,500,750,750,2,0,1,0,0,0,0,0,0,0,-0.25,-0.25,-0.25,-0.25,-0.25,-0.25,-0.25,-0.25,linear,0.025,TRUE,25,FALSE,1,1,NA,914,EQ,H0,2,mixmodel_AR1,0.0152,0,10000
7,250,0,250,250,500,500,750,750,2,0,1,0,0,0,0,0,0,0,-0.25,-0.25,-0.25,-0.25,-0.25,-0.25,-0.25,-0.25,linear,0.025,TRUE,25,FALSE,1,1,NA,914,EQ,H0,2,mixmodel_AR1_cal,0.0153,0,10000
7,250,0,250,250,500,500,750,750,2,0,1,0,0,0,0,0,0,0,-0.25,-0.25,-0.25,-0.25,-0.25,-0.25,-0.25,-0.25,linear,0.025,TRUE,25,FALSE,1,1,NA,914,EQ,H0,2,mixmodel_cal,0.0118,0,10000
7,250,0,250,250,500,500,750,750,2,0,1,0,0,0,0,0,0,0,-0.25,-0.25,-0.25,-0.25,-0.25,-0.25,-0.25,-0.25,linear,0.025,TRUE,25,FALSE,1,1,NA,914,EQ,H0,2,piecewise,0.0277,0,10000
7,250,0,250,250,500,500,750,750,2,0,1,0,0,0,0,0,0,0,-0.25,-0.25,-0.25,-0.25,-0.25,-0.25,-0.25,-0.25,linear,0.025,TRUE,25,FALSE,1,1,NA,914,EQ,H0,2,piecewise_cal,0.0274,0,10000
7,250,0,250,250,500,500,750,750,2,0,1,0,0,0,0,0,0,0,-0.25,-0.25,-0.25,-0.25,-0.25,-0.25,-0.25,-0.25,linear,0.025,TRUE,25,FALSE,1,1,NA,914,EQ,H0,2,poolmodel,0.0109,0,10000
7,250,0,250,250,500,500,750,750,2,0,1,0,0,0,0,0,0,0,-0.25,-0.25,-0.25,-0.25,-0.25,-0.25,-0.25,-0.25,linear,0.025,TRUE,25,FALSE,1,1,NA,914,EQ,H0,2,sepmodel,0.0269,0,10000
7,250,0,250,250,500,500,750,750,2,0,1,0,0,0,0,0,0,0,-0.25,-0.25,-0.25,-0.25,-0.25,-0.25,-0.25,-0.25,linear,0.025,TRUE,25,FALSE,1,1,NA,914,EQ,H0,2,splines,0.0291,0,10000
7,250,0,250,250,500,500,750,750,2,0,1,0,0,0,0,0,0,0,-0.25,-0.25,-0.25,-0.25,-0.25,-0.25,-0.25,-0.25,linear,0.025,TRUE,25,FALSE,1,1,NA,914,EQ,H0,2,splines_cal,0.0274,0,10000
7,250,0,250,250,500,500,750,750,2,0,1,0,0,0,0,0,0,0,-0.25,-0.25,-0.25,-0.25,-0.25,-0.25,-0.25,-0.25,linear,0.025,TRUE,25,FALSE,1,1,NA,914,EQ,H0,3,fixmodel,0.0265,0,10000
7,250,0,250,250,500,500,750,750,2,0,1,0,0,0,0,0,0,0,-0.25,-0.25,-0.25,-0.25,-0.25,-0.25,-0.25,-0.25,linear,0.025,TRUE,25,FALSE,1,1,NA,914,EQ,H0,3,fixmodel_cal,0.0267,0,10000
7,250,0,250,250,500,500,750,750,2,0,1,0,0,0,0,0,0,0,-0.25,-0.25,-0.25,-0.25,-0.25,-0.25,-0.25,-0.25,linear,0.025,TRUE,25,FALSE,1,1,NA,914,EQ,H0,3,mixmodel,0.0152,0,10000
7,250,0,250,250,500,500,750,750,2,0,1,0,0,0,0,0,0,0,-0.25,-0.25,-0.25,-0.25,-0.25,-0.25,-0.25,-0.25,linear,0.025,TRUE,25,FALSE,1,1,NA,914,EQ,H0,3,mixmodel_AR1,0.0139,0,10000
7,250,0,250,250,500,500,750,750,2,0,1,0,0,0,0,0,0,0,-0.25,-0.25,-0.25,-0.25,-0.25,-0.25,-0.25,-0.25,linear,0.025,TRUE,25,FALSE,1,1,NA,914,EQ,H0,3,mixmodel_AR1_cal,0.0142,0,10000
7,250,0,250,250,500,500,750,750,2,0,1,0,0,0,0,0,0,0,-0.25,-0.25,-0.25,-0.25,-0.25,-0.25,-0.25,-0.25,linear,0.025,TRUE,25,FALSE,1,1,NA,914,EQ,H0,3,mixmodel_cal,0.0121,0,10000
7,250,0,250,250,500,500,750,750,2,0,1,0,0,0,0,0,0,0,-0.25,-0.25,-0.25,-0.25,-0.25,-0.25,-0.25,-0.25,linear,0.025,TRUE,25,FALSE,1,1,NA,914,EQ,H0,3,piecewise,0.0266,0,10000
7,250,0,250,250,500,500,750,750,2,0,1,0,0,0,0,0,0,0,-0.25,-0.25,-0.25,-0.25,-0.25,-0.25,-0.25,-0.25,linear,0.025,TRUE,25,FALSE,1,1,NA,914,EQ,H0,3,piecewise_cal,0.027,0,10000
7,250,0,250,250,500,500,750,750,2,0,1,0,0,0,0,0,0,0,-0.25,-0.25,-0.25,-0.25,-0.25,-0.25,-0.25,-0.25,linear,0.025,TRUE,25,FALSE,1,1,NA,914,EQ,H0,3,poolmodel,0.0107,0,10000
7,250,0,250,250,500,500,750,750,2,0,1,0,0,0,0,0,0,0,-0.25,-0.25,-0.25,-0.25,-0.25,-0.25,-0.25,-0.25,linear,0.025,TRUE,25,FALSE,1,1,NA,914,EQ,H0,3,sepmodel,0.0255,0,10000
7,250,0,250,250,500,500,750,750,2,0,1,0,0,0,0,0,0,0,-0.25,-0.25,-0.25,-0.25,-0.25,-0.25,-0.25,-0.25,linear,0.025,TRUE,25,FALSE,1,1,NA,914,EQ,H0,3,splines,0.0269,0,10000
7,250,0,250,250,500,500,750,750,2,0,1,0,0,0,0,0,0,0,-0.25,-0.25,-0.25,-0.25,-0.25,-0.25,-0.25,-0.25,linear,0.025,TRUE,25,FALSE,1,1,NA,914,EQ,H0,3,splines_cal,0.0255,0,10000
7,250,0,250,250,500,500,750,750,2,0,1,0,0,0,0,0,0,0,-0.25,-0.25,-0.25,-0.25,-0.25,-0.25,-0.25,-0.25,linear,0.025,TRUE,25,FALSE,1,1,NA,914,EQ,H0,4,fixmodel,0.0306,0,10000
7,250,0,250,250,500,500,750,750,2,0,1,0,0,0,0,0,0,0,-0.25,-0.25,-0.25,-0.25,-0.25,-0.25,-0.25,-0.25,linear,0.025,TRUE,25,FALSE,1,1,NA,914,EQ,H0,4,fixmodel_cal,0.0298,0,10000
7,250,0,250,250,500,500,750,750,2,0,1,0,0,0,0,0,0,0,-0.25,-0.25,-0.25,-0.25,-0.25,-0.25,-0.25,-0.25,linear,0.025,TRUE,25,FALSE,1,1,NA,914,EQ,H0,4,mixmodel,0.0128,0,10000
7,250,0,250,250,500,500,750,750,2,0,1,0,0,0,0,0,0,0,-0.25,-0.25,-0.25,-0.25,-0.25,-0.25,-0.25,-0.25,linear,0.025,TRUE,25,FALSE,1,1,NA,914,EQ,H0,4,mixmodel_AR1,0.0122,0,10000
7,250,0,250,250,500,500,750,750,2,0,1,0,0,0,0,0,0,0,-0.25,-0.25,-0.25,-0.25,-0.25,-0.25,-0.25,-0.25,linear,0.025,TRUE,25,FALSE,1,1,NA,914,EQ,H0,4,mixmodel_AR1_cal,0.0107,0,10000
7,250,0,250,250,500,500,750,750,2,0,1,0,0,0,0,0,0,0,-0.25,-0.25,-0.25,-0.25,-0.25,-0.25,-0.25,-0.25,linear,0.025,TRUE,25,FALSE,1,1,NA,914,EQ,H0,4,mixmodel_cal,0.005,0,10000
7,250,0,250,250,500,500,750,750,2,0,1,0,0,0,0,0,0,0,-0.25,-0.25,-0.25,-0.25,-0.25,-0.25,-0.25,-0.25,linear,0.025,TRUE,25,FALSE,1,1,NA,914,EQ,H0,4,piecewise,0.0305,0,10000
7,250,0,250,250,500,500,750,750,2,0,1,0,0,0,0,0,0,0,-0.25,-0.25,-0.25,-0.25,-0.25,-0.25,-0.25,-0.25,linear,0.025,TRUE,25,FALSE,1,1,NA,914,EQ,H0,4,piecewise_cal,0.0294,0,10000
7,250,0,250,250,500,500,750,750,2,0,1,0,0,0,0,0,0,0,-0.25,-0.25,-0.25,-0.25,-0.25,-0.25,-0.25,-0.25,linear,0.025,TRUE,25,FALSE,1,1,NA,914,EQ,H0,4,poolmodel,0.0044,0,10000
7,250,0,250,250,500,500,750,750,2,0,1,0,0,0,0,0,0,0,-0.25,-0.25,-0.25,-0.25,-0.25,-0.25,-0.25,-0.25,linear,0.025,TRUE,25,FALSE,1,1,NA,914,EQ,H0,4,sepmodel,0.0272,0,10000
7,250,0,250,250,500,500,750,750,2,0,1,0,0,0,0,0,0,0,-0.25,-0.25,-0.25,-0.25,-0.25,-0.25,-0.25,-0.25,linear,0.025,TRUE,25,FALSE,1,1,NA,914,EQ,H0,4,splines,0.0299,0,10000
7,250,0,250,250,500,500,750,750,2,0,1,0,0,0,0,0,0,0,-0.25,-0.25,-0.25,-0.25,-0.25,-0.25,-0.25,-0.25,linear,0.025,TRUE,25,FALSE,1,1,NA,914,EQ,H0,4,splines_cal,0.0295,0,10000
7,250,0,250,250,500,500,750,750,2,0,1,0,0,0,0,0,0,0,-0.25,-0.25,-0.25,-0.25,-0.25,-0.25,-0.25,-0.25,linear,0.025,TRUE,25,FALSE,1,1,NA,914,EQ,H0,5,fixmodel,0.0258,0,10000
7,250,0,250,250,500,500,750,750,2,0,1,0,0,0,0,0,0,0,-0.25,-0.25,-0.25,-0.25,-0.25,-0.25,-0.25,-0.25,linear,0.025,TRUE,25,FALSE,1,1,NA,914,EQ,H0,5,fixmodel_cal,0.0265,0,10000
7,250,0,250,250,500,500,750,750,2,0,1,0,0,0,0,0,0,0,-0.25,-0.25,-0.25,-0.25,-0.25,-0.25,-0.25,-0.25,linear,0.025,TRUE,25,FALSE,1,1,NA,914,EQ,H0,5,mixmodel,0.0118,0,10000
7,250,0,250,250,500,500,750,750,2,0,1,0,0,0,0,0,0,0,-0.25,-0.25,-0.25,-0.25,-0.25,-0.25,-0.25,-0.25,linear,0.025,TRUE,25,FALSE,1,1,NA,914,EQ,H0,5,mixmodel_AR1,0.011,0,10000
7,250,0,250,250,500,500,750,750,2,0,1,0,0,0,0,0,0,0,-0.25,-0.25,-0.25,-0.25,-0.25,-0.25,-0.25,-0.25,linear,0.025,TRUE,25,FALSE,1,1,NA,914,EQ,H0,5,mixmodel_AR1_cal,0.0104,0,10000
7,250,0,250,250,500,500,750,750,2,0,1,0,0,0,0,0,0,0,-0.25,-0.25,-0.25,-0.25,-0.25,-0.25,-0.25,-0.25,linear,0.025,TRUE,25,FALSE,1,1,NA,914,EQ,H0,5,mixmodel_cal,0.0047,0,10000
7,250,0,250,250,500,500,750,750,2,0,1,0,0,0,0,0,0,0,-0.25,-0.25,-0.25,-0.25,-0.25,-0.25,-0.25,-0.25,linear,0.025,TRUE,25,FALSE,1,1,NA,914,EQ,H0,5,piecewise,0.0258,0,10000
7,250,0,250,250,500,500,750,750,2,0,1,0,0,0,0,0,0,0,-0.25,-0.25,-0.25,-0.25,-0.25,-0.25,-0.25,-0.25,linear,0.025,TRUE,25,FALSE,1,1,NA,914,EQ,H0,5,piecewise_cal,0.0259,0,10000
7,250,0,250,250,500,500,750,750,2,0,1,0,0,0,0,0,0,0,-0.25,-0.25,-0.25,-0.25,-0.25,-0.25,-0.25,-0.25,linear,0.025,TRUE,25,FALSE,1,1,NA,914,EQ,H0,5,poolmodel,0.0042,0,10000
7,250,0,250,250,500,500,750,750,2,0,1,0,0,0,0,0,0,0,-0.25,-0.25,-0.25,-0.25,-0.25,-0.25,-0.25,-0.25,linear,0.025,TRUE,25,FALSE,1,1,NA,914,EQ,H0,5,sepmodel,0.0263,0,10000
7,250,0,250,250,500,500,750,750,2,0,1,0,0,0,0,0,0,0,-0.25,-0.25,-0.25,-0.25,-0.25,-0.25,-0.25,-0.25,linear,0.025,TRUE,25,FALSE,1,1,NA,914,EQ,H0,5,splines,0.0247,0,10000
7,250,0,250,250,500,500,750,750,2,0,1,0,0,0,0,0,0,0,-0.25,-0.25,-0.25,-0.25,-0.25,-0.25,-0.25,-0.25,linear,0.025,TRUE,25,FALSE,1,1,NA,914,EQ,H0,5,splines_cal,0.025,0,10000
7,250,0,250,250,500,500,750,750,2,0,1,0,0,0,0,0,0,0,-0.25,-0.25,-0.25,-0.25,-0.25,-0.25,-0.25,-0.25,linear,0.025,TRUE,25,FALSE,1,1,NA,914,EQ,H0,6,fixmodel,0.0279,0,10000
7,250,0,250,250,500,500,750,750,2,0,1,0,0,0,0,0,0,0,-0.25,-0.25,-0.25,-0.25,-0.25,-0.25,-0.25,-0.25,linear,0.025,TRUE,25,FALSE,1,1,NA,914,EQ,H0,6,fixmodel_cal,0.0274,0,10000
7,250,0,250,250,500,500,750,750,2,0,1,0,0,0,0,0,0,0,-0.25,-0.25,-0.25,-0.25,-0.25,-0.25,-0.25,-0.25,linear,0.025,TRUE,25,FALSE,1,1,NA,914,EQ,H0,6,mixmodel,0.0096,0,10000
7,250,0,250,250,500,500,750,750,2,0,1,0,0,0,0,0,0,0,-0.25,-0.25,-0.25,-0.25,-0.25,-0.25,-0.25,-0.25,linear,0.025,TRUE,25,FALSE,1,1,NA,914,EQ,H0,6,mixmodel_AR1,0.0103,0,10000
7,250,0,250,250,500,500,750,750,2,0,1,0,0,0,0,0,0,0,-0.25,-0.25,-0.25,-0.25,-0.25,-0.25,-0.25,-0.25,linear,0.025,TRUE,25,FALSE,1,1,NA,914,EQ,H0,6,mixmodel_AR1_cal,0.0098,0,10000
7,250,0,250,250,500,500,750,750,2,0,1,0,0,0,0,0,0,0,-0.25,-0.25,-0.25,-0.25,-0.25,-0.25,-0.25,-0.25,linear,0.025,TRUE,25,FALSE,1,1,NA,914,EQ,H0,6,mixmodel_cal,0.0023,0,10000
7,250,0,250,250,500,500,750,750,2,0,1,0,0,0,0,0,0,0,-0.25,-0.25,-0.25,-0.25,-0.25,-0.25,-0.25,-0.25,linear,0.025,TRUE,25,FALSE,1,1,NA,914,EQ,H0,6,piecewise,0.0279,0,10000
7,250,0,250,250,500,500,750,750,2,0,1,0,0,0,0,0,0,0,-0.25,-0.25,-0.25,-0.25,-0.25,-0.25,-0.25,-0.25,linear,0.025,TRUE,25,FALSE,1,1,NA,914,EQ,H0,6,piecewise_cal,0.0286,0,10000
7,250,0,250,250,500,500,750,750,2,0,1,0,0,0,0,0,0,0,-0.25,-0.25,-0.25,-0.25,-0.25,-0.25,-0.25,-0.25,linear,0.025,TRUE,25,FALSE,1,1,NA,914,EQ,H0,6,poolmodel,0.0018,0,10000
7,250,0,250,250,500,500,750,750,2,0,1,0,0,0,0,0,0,0,-0.25,-0.25,-0.25,-0.25,-0.25,-0.25,-0.25,-0.25,linear,0.025,TRUE,25,FALSE,1,1,NA,914,EQ,H0,6,sepmodel,0.027,0,10000
7,250,0,250,250,500,500,750,750,2,0,1,0,0,0,0,0,0,0,-0.25,-0.25,-0.25,-0.25,-0.25,-0.25,-0.25,-0.25,linear,0.025,TRUE,25,FALSE,1,1,NA,914,EQ,H0,6,splines,0.0277,0,10000
7,250,0,250,250,500,500,750,750,2,0,1,0,0,0,0,0,0,0,-0.25,-0.25,-0.25,-0.25,-0.25,-0.25,-0.25,-0.25,linear,0.025,TRUE,25,FALSE,1,1,NA,914,EQ,H0,6,splines_cal,0.028,0,10000
7,250,0,250,250,500,500,750,750,2,0,1,0,0,0,0,0,0,0,-0.25,-0.25,-0.25,-0.25,-0.25,-0.25,-0.25,-0.25,linear,0.025,TRUE,25,FALSE,1,1,NA,914,EQ,H0,7,fixmodel,0.0245,0,10000
7,250,0,250,250,500,500,750,750,2,0,1,0,0,0,0,0,0,0,-0.25,-0.25,-0.25,-0.25,-0.25,-0.25,-0.25,-0.25,linear,0.025,TRUE,25,FALSE,1,1,NA,914,EQ,H0,7,fixmodel_cal,0.0246,0,10000
7,250,0,250,250,500,500,750,750,2,0,1,0,0,0,0,0,0,0,-0.25,-0.25,-0.25,-0.25,-0.25,-0.25,-0.25,-0.25,linear,0.025,TRUE,25,FALSE,1,1,NA,914,EQ,H0,7,mixmodel,0.0087,0,10000
7,250,0,250,250,500,500,750,750,2,0,1,0,0,0,0,0,0,0,-0.25,-0.25,-0.25,-0.25,-0.25,-0.25,-0.25,-0.25,linear,0.025,TRUE,25,FALSE,1,1,NA,914,EQ,H0,7,mixmodel_AR1,0.0101,0,10000
7,250,0,250,250,500,500,750,750,2,0,1,0,0,0,0,0,0,0,-0.25,-0.25,-0.25,-0.25,-0.25,-0.25,-0.25,-0.25,linear,0.025,TRUE,25,FALSE,1,1,NA,914,EQ,H0,7,mixmodel_AR1_cal,0.0092,0,10000
7,250,0,250,250,500,500,750,750,2,0,1,0,0,0,0,0,0,0,-0.25,-0.25,-0.25,-0.25,-0.25,-0.25,-0.25,-0.25,linear,0.025,TRUE,25,FALSE,1,1,NA,914,EQ,H0,7,mixmodel_cal,0.003,0,10000
7,250,0,250,250,500,500,750,750,2,0,1,0,0,0,0,0,0,0,-0.25,-0.25,-0.25,-0.25,-0.25,-0.25,-0.25,-0.25,linear,0.025,TRUE,25,FALSE,1,1,NA,914,EQ,H0,7,piecewise,0.0247,0,10000
7,250,0,250,250,500,500,750,750,2,0,1,0,0,0,0,0,0,0,-0.25,-0.25,-0.25,-0.25,-0.25,-0.25,-0.25,-0.25,linear,0.025,TRUE,25,FALSE,1,1,NA,914,EQ,H0,7,piecewise_cal,0.025,0,10000
7,250,0,250,250,500,500,750,750,2,0,1,0,0,0,0,0,0,0,-0.25,-0.25,-0.25,-0.25,-0.25,-0.25,-0.25,-0.25,linear,0.025,TRUE,25,FALSE,1,1,NA,914,EQ,H0,7,poolmodel,0.0026,0,10000
7,250,0,250,250,500,500,750,750,2,0,1,0,0,0,0,0,0,0,-0.25,-0.25,-0.25,-0.25,-0.25,-0.25,-0.25,-0.25,linear,0.025,TRUE,25,FALSE,1,1,NA,914,EQ,H0,7,sepmodel,0.0261,0,10000
7,250,0,250,250,500,500,750,750,2,0,1,0,0,0,0,0,0,0,-0.25,-0.25,-0.25,-0.25,-0.25,-0.25,-0.25,-0.25,linear,0.025,TRUE,25,FALSE,1,1,NA,914,EQ,H0,7,splines,0.0251,0,10000
7,250,0,250,250,500,500,750,750,2,0,1,0,0,0,0,0,0,0,-0.25,-0.25,-0.25,-0.25,-0.25,-0.25,-0.25,-0.25,linear,0.025,TRUE,25,FALSE,1,1,NA,914,EQ,H0,7,splines_cal,0.0244,0,10000
7,250,0,250,250,500,500,750,750,2,0,1,0,0,0,0,0,0,0,-0.25,-0.25,-0.25,-0.25,-0.25,-0.25,-0.25,-0.25,linear,0.025,TRUE,25,FALSE,2,2,NA,914,EQ,H0,2,fixmodel,0.025,0,10000
7,250,0,250,250,500,500,750,750,2,0,1,0,0,0,0,0,0,0,-0.25,-0.25,-0.25,-0.25,-0.25,-0.25,-0.25,-0.25,linear,0.025,TRUE,25,FALSE,2,2,NA,914,EQ,H0,2,fixmodel_cal,0.0259,0,10000
7,250,0,250,250,500,500,750,750,2,0,1,0,0,0,0,0,0,0,-0.25,-0.25,-0.25,-0.25,-0.25,-0.25,-0.25,-0.25,linear,0.025,TRUE,25,FALSE,2,2,NA,914,EQ,H0,2,mixmodel,0.0148,0,10000
7,250,0,250,250,500,500,750,750,2,0,1,0,0,0,0,0,0,0,-0.25,-0.25,-0.25,-0.25,-0.25,-0.25,-0.25,-0.25,linear,0.025,TRUE,25,FALSE,2,2,NA,914,EQ,H0,2,mixmodel_AR1,0.0137,0,10000
7,250,0,250,250,500,500,750,750,2,0,1,0,0,0,0,0,0,0,-0.25,-0.25,-0.25,-0.25,-0.25,-0.25,-0.25,-0.25,linear,0.025,TRUE,25,FALSE,2,2,NA,914,EQ,H0,2,mixmodel_AR1_cal,0.0129,0,10000
7,250,0,250,250,500,500,750,750,2,0,1,0,0,0,0,0,0,0,-0.25,-0.25,-0.25,-0.25,-0.25,-0.25,-0.25,-0.25,linear,0.025,TRUE,25,FALSE,2,2,NA,914,EQ,H0,2,mixmodel_cal,0.0102,0,10000
7,250,0,250,250,500,500,750,750,2,0,1,0,0,0,0,0,0,0,-0.25,-0.25,-0.25,-0.25,-0.25,-0.25,-0.25,-0.25,linear,0.025,TRUE,25,FALSE,2,2,NA,914,EQ,H0,2,piecewise,0.0249,0,10000
7,250,0,250,250,500,500,750,750,2,0,1,0,0,0,0,0,0,0,-0.25,-0.25,-0.25,-0.25,-0.25,-0.25,-0.25,-0.25,linear,0.025,TRUE,25,FALSE,2,2,NA,914,EQ,H0,2,piecewise_cal,0.0266,0,10000
7,250,0,250,250,500,500,750,750,2,0,1,0,0,0,0,0,0,0,-0.25,-0.25,-0.25,-0.25,-0.25,-0.25,-0.25,-0.25,linear,0.025,TRUE,25,FALSE,2,2,NA,914,EQ,H0,2,poolmodel,0.0099,0,10000
7,250,0,250,250,500,500,750,750,2,0,1,0,0,0,0,0,0,0,-0.25,-0.25,-0.25,-0.25,-0.25,-0.25,-0.25,-0.25,linear,0.025,TRUE,25,FALSE,2,2,NA,914,EQ,H0,2,sepmodel,0.0259,0,10000
7,250,0,250,250,500,500,750,750,2,0,1,0,0,0,0,0,0,0,-0.25,-0.25,-0.25,-0.25,-0.25,-0.25,-0.25,-0.25,linear,0.025,TRUE,25,FALSE,2,2,NA,914,EQ,H0,2,splines,0.0262,0,10000
7,250,0,250,250,500,500,750,750,2,0,1,0,0,0,0,0,0,0,-0.25,-0.25,-0.25,-0.25,-0.25,-0.25,-0.25,-0.25,linear,0.025,TRUE,25,FALSE,2,2,NA,914,EQ,H0,2,splines_cal,0.0259,0,10000
7,250,0,250,250,500,500,750,750,2,0,1,0,0,0,0,0,0,0,-0.25,-0.25,-0.25,-0.25,-0.25,-0.25,-0.25,-0.25,linear,0.025,TRUE,25,FALSE,2,2,NA,914,EQ,H0,3,fixmodel,0.0256,0,10000
7,250,0,250,250,500,500,750,750,2,0,1,0,0,0,0,0,0,0,-0.25,-0.25,-0.25,-0.25,-0.25,-0.25,-0.25,-0.25,linear,0.025,TRUE,25,FALSE,2,2,NA,914,EQ,H0,3,fixmodel_cal,0.0264,0,10000
7,250,0,250,250,500,500,750,750,2,0,1,0,0,0,0,0,0,0,-0.25,-0.25,-0.25,-0.25,-0.25,-0.25,-0.25,-0.25,linear,0.025,TRUE,25,FALSE,2,2,NA,914,EQ,H0,3,mixmodel,0.015,0,10000
7,250,0,250,250,500,500,750,750,2,0,1,0,0,0,0,0,0,0,-0.25,-0.25,-0.25,-0.25,-0.25,-0.25,-0.25,-0.25,linear,0.025,TRUE,25,FALSE,2,2,NA,914,EQ,H0,3,mixmodel_AR1,0.0137,0,10000
7,250,0,250,250,500,500,750,750,2,0,1,0,0,0,0,0,0,0,-0.25,-0.25,-0.25,-0.25,-0.25,-0.25,-0.25,-0.25,linear,0.025,TRUE,25,FALSE,2,2,NA,914,EQ,H0,3,mixmodel_AR1_cal,0.0132,0,10000
7,250,0,250,250,500,500,750,750,2,0,1,0,0,0,0,0,0,0,-0.25,-0.25,-0.25,-0.25,-0.25,-0.25,-0.25,-0.25,linear,0.025,TRUE,25,FALSE,2,2,NA,914,EQ,H0,3,mixmodel_cal,0.0102,0,10000
7,250,0,250,250,500,500,750,750,2,0,1,0,0,0,0,0,0,0,-0.25,-0.25,-0.25,-0.25,-0.25,-0.25,-0.25,-0.25,linear,0.025,TRUE,25,FALSE,2,2,NA,914,EQ,H0,3,piecewise,0.0257,0,10000
7,250,0,250,250,500,500,750,750,2,0,1,0,0,0,0,0,0,0,-0.25,-0.25,-0.25,-0.25,-0.25,-0.25,-0.25,-0.25,linear,0.025,TRUE,25,FALSE,2,2,NA,914,EQ,H0,3,piecewise_cal,0.0259,0,10000
7,250,0,250,250,500,500,750,750,2,0,1,0,0,0,0,0,0,0,-0.25,-0.25,-0.25,-0.25,-0.25,-0.25,-0.25,-0.25,linear,0.025,TRUE,25,FALSE,2,2,NA,914,EQ,H0,3,poolmodel,0.0095,0,10000
7,250,0,250,250,500,500,750,750,2,0,1,0,0,0,0,0,0,0,-0.25,-0.25,-0.25,-0.25,-0.25,-0.25,-0.25,-0.25,linear,0.025,TRUE,25,FALSE,2,2,NA,914,EQ,H0,3,sepmodel,0.0262,0,10000
7,250,0,250,250,500,500,750,750,2,0,1,0,0,0,0,0,0,0,-0.25,-0.25,-0.25,-0.25,-0.25,-0.25,-0.25,-0.25,linear,0.025,TRUE,25,FALSE,2,2,NA,914,EQ,H0,3,splines,0.0271,0,10000
7,250,0,250,250,500,500,750,750,2,0,1,0,0,0,0,0,0,0,-0.25,-0.25,-0.25,-0.25,-0.25,-0.25,-0.25,-0.25,linear,0.025,TRUE,25,FALSE,2,2,NA,914,EQ,H0,3,splines_cal,0.0262,0,10000
7,250,0,250,250,500,500,750,750,2,0,1,0,0,0,0,0,0,0,-0.25,-0.25,-0.25,-0.25,-0.25,-0.25,-0.25,-0.25,linear,0.025,TRUE,25,FALSE,2,2,NA,914,EQ,H0,4,fixmodel,0.0255,0,10000
7,250,0,250,250,500,500,750,750,2,0,1,0,0,0,0,0,0,0,-0.25,-0.25,-0.25,-0.25,-0.25,-0.25,-0.25,-0.25,linear,0.025,TRUE,25,FALSE,2,2,NA,914,EQ,H0,4,fixmodel_cal,0.0249,0,10000
7,250,0,250,250,500,500,750,750,2,0,1,0,0,0,0,0,0,0,-0.25,-0.25,-0.25,-0.25,-0.25,-0.25,-0.25,-0.25,linear,0.025,TRUE,25,FALSE,2,2,NA,914,EQ,H0,4,mixmodel,0.0095,0,10000
7,250,0,250,250,500,500,750,750,2,0,1,0,0,0,0,0,0,0,-0.25,-0.25,-0.25,-0.25,-0.25,-0.25,-0.25,-0.25,linear,0.025,TRUE,25,FALSE,2,2,NA,914,EQ,H0,4,mixmodel_AR1,0.0085,0,10000
7,250,0,250,250,500,500,750,750,2,0,1,0,0,0,0,0,0,0,-0.25,-0.25,-0.25,-0.25,-0.25,-0.25,-0.25,-0.25,linear,0.025,TRUE,25,FALSE,2,2,NA,914,EQ,H0,4,mixmodel_AR1_cal,0.009,0,10000
7,250,0,250,250,500,500,750,750,2,0,1,0,0,0,0,0,0,0,-0.25,-0.25,-0.25,-0.25,-0.25,-0.25,-0.25,-0.25,linear,0.025,TRUE,25,FALSE,2,2,NA,914,EQ,H0,4,mixmodel_cal,0.0046,0,10000
7,250,0,250,250,500,500,750,750,2,0,1,0,0,0,0,0,0,0,-0.25,-0.25,-0.25,-0.25,-0.25,-0.25,-0.25,-0.25,linear,0.025,TRUE,25,FALSE,2,2,NA,914,EQ,H0,4,piecewise,0.0255,0,10000
7,250,0,250,250,500,500,750,750,2,0,1,0,0,0,0,0,0,0,-0.25,-0.25,-0.25,-0.25,-0.25,-0.25,-0.25,-0.25,linear,0.025,TRUE,25,FALSE,2,2,NA,914,EQ,H0,4,piecewise_cal,0.026,0,10000
7,250,0,250,250,500,500,750,750,2,0,1,0,0,0,0,0,0,0,-0.25,-0.25,-0.25,-0.25,-0.25,-0.25,-0.25,-0.25,linear,0.025,TRUE,25,FALSE,2,2,NA,914,EQ,H0,4,poolmodel,0.0038,0,10000
7,250,0,250,250,500,500,750,750,2,0,1,0,0,0,0,0,0,0,-0.25,-0.25,-0.25,-0.25,-0.25,-0.25,-0.25,-0.25,linear,0.025,TRUE,25,FALSE,2,2,NA,914,EQ,H0,4,sepmodel,0.0242,0,10000
7,250,0,250,250,500,500,750,750,2,0,1,0,0,0,0,0,0,0,-0.25,-0.25,-0.25,-0.25,-0.25,-0.25,-0.25,-0.25,linear,0.025,TRUE,25,FALSE,2,2,NA,914,EQ,H0,4,splines,0.0261,0,10000
7,250,0,250,250,500,500,750,750,2,0,1,0,0,0,0,0,0,0,-0.25,-0.25,-0.25,-0.25,-0.25,-0.25,-0.25,-0.25,linear,0.025,TRUE,25,FALSE,2,2,NA,914,EQ,H0,4,splines_cal,0.0256,0,10000
7,250,0,250,250,500,500,750,750,2,0,1,0,0,0,0,0,0,0,-0.25,-0.25,-0.25,-0.25,-0.25,-0.25,-0.25,-0.25,linear,0.025,TRUE,25,FALSE,2,2,NA,914,EQ,H0,5,fixmodel,0.0229,0,10000
7,250,0,250,250,500,500,750,750,2,0,1,0,0,0,0,0,0,0,-0.25,-0.25,-0.25,-0.25,-0.25,-0.25,-0.25,-0.25,linear,0.025,TRUE,25,FALSE,2,2,NA,914,EQ,H0,5,fixmodel_cal,0.0227,0,10000
7,250,0,250,250,500,500,750,750,2,0,1,0,0,0,0,0,0,0,-0.25,-0.25,-0.25,-0.25,-0.25,-0.25,-0.25,-0.25,linear,0.025,TRUE,25,FALSE,2,2,NA,914,EQ,H0,5,mixmodel,0.0099,0,10000
7,250,0,250,250,500,500,750,750,2,0,1,0,0,0,0,0,0,0,-0.25,-0.25,-0.25,-0.25,-0.25,-0.25,-0.25,-0.25,linear,0.025,TRUE,25,FALSE,2,2,NA,914,EQ,H0,5,mixmodel_AR1,0.0092,0,10000
7,250,0,250,250,500,500,750,750,2,0,1,0,0,0,0,0,0,0,-0.25,-0.25,-0.25,-0.25,-0.25,-0.25,-0.25,-0.25,linear,0.025,TRUE,25,FALSE,2,2,NA,914,EQ,H0,5,mixmodel_AR1_cal,0.0086,0,10000
7,250,0,250,250,500,500,750,750,2,0,1,0,0,0,0,0,0,0,-0.25,-0.25,-0.25,-0.25,-0.25,-0.25,-0.25,-0.25,linear,0.025,TRUE,25,FALSE,2,2,NA,914,EQ,H0,5,mixmodel_cal,0.0038,0,10000
7,250,0,250,250,500,500,750,750,2,0,1,0,0,0,0,0,0,0,-0.25,-0.25,-0.25,-0.25,-0.25,-0.25,-0.25,-0.25,linear,0.025,TRUE,25,FALSE,2,2,NA,914,EQ,H0,5,piecewise,0.023,0,10000
7,250,0,250,250,500,500,750,750,2,0,1,0,0,0,0,0,0,0,-0.25,-0.25,-0.25,-0.25,-0.25,-0.25,-0.25,-0.25,linear,0.025,TRUE,25,FALSE,2,2,NA,914,EQ,H0,5,piecewise_cal,0.0227,0,10000
7,250,0,250,250,500,500,750,750,2,0,1,0,0,0,0,0,0,0,-0.25,-0.25,-0.25,-0.25,-0.25,-0.25,-0.25,-0.25,linear,0.025,TRUE,25,FALSE,2,2,NA,914,EQ,H0,5,poolmodel,0.0032,0,10000
7,250,0,250,250,500,500,750,750,2,0,1,0,0,0,0,0,0,0,-0.25,-0.25,-0.25,-0.25,-0.25,-0.25,-0.25,-0.25,linear,0.025,TRUE,25,FALSE,2,2,NA,914,EQ,H0,5,sepmodel,0.0223,0,10000
7,250,0,250,250,500,500,750,750,2,0,1,0,0,0,0,0,0,0,-0.25,-0.25,-0.25,-0.25,-0.25,-0.25,-0.25,-0.25,linear,0.025,TRUE,25,FALSE,2,2,NA,914,EQ,H0,5,splines,0.0242,0,10000
7,250,0,250,250,500,500,750,750,2,0,1,0,0,0,0,0,0,0,-0.25,-0.25,-0.25,-0.25,-0.25,-0.25,-0.25,-0.25,linear,0.025,TRUE,25,FALSE,2,2,NA,914,EQ,H0,5,splines_cal,0.0229,0,10000
7,250,0,250,250,500,500,750,750,2,0,1,0,0,0,0,0,0,0,-0.25,-0.25,-0.25,-0.25,-0.25,-0.25,-0.25,-0.25,linear,0.025,TRUE,25,FALSE,2,2,NA,914,EQ,H0,6,fixmodel,0.0257,0,10000
7,250,0,250,250,500,500,750,750,2,0,1,0,0,0,0,0,0,0,-0.25,-0.25,-0.25,-0.25,-0.25,-0.25,-0.25,-0.25,linear,0.025,TRUE,25,FALSE,2,2,NA,914,EQ,H0,6,fixmodel_cal,0.0252,0,10000
7,250,0,250,250,500,500,750,750,2,0,1,0,0,0,0,0,0,0,-0.25,-0.25,-0.25,-0.25,-0.25,-0.25,-0.25,-0.25,linear,0.025,TRUE,25,FALSE,2,2,NA,914,EQ,H0,6,mixmodel,0.0087,0,10000
7,250,0,250,250,500,500,750,750,2,0,1,0,0,0,0,0,0,0,-0.25,-0.25,-0.25,-0.25,-0.25,-0.25,-0.25,-0.25,linear,0.025,TRUE,25,FALSE,2,2,NA,914,EQ,H0,6,mixmodel_AR1,0.0098,0,10000
7,250,0,250,250,500,500,750,750,2,0,1,0,0,0,0,0,0,0,-0.25,-0.25,-0.25,-0.25,-0.25,-0.25,-0.25,-0.25,linear,0.025,TRUE,25,FALSE,2,2,NA,914,EQ,H0,6,mixmodel_AR1_cal,0.0097,0,10000
7,250,0,250,250,500,500,750,750,2,0,1,0,0,0,0,0,0,0,-0.25,-0.25,-0.25,-0.25,-0.25,-0.25,-0.25,-0.25,linear,0.025,TRUE,25,FALSE,2,2,NA,914,EQ,H0,6,mixmodel_cal,0.0024,0,10000
7,250,0,250,250,500,500,750,750,2,0,1,0,0,0,0,0,0,0,-0.25,-0.25,-0.25,-0.25,-0.25,-0.25,-0.25,-0.25,linear,0.025,TRUE,25,FALSE,2,2,NA,914,EQ,H0,6,piecewise,0.0257,0,10000
7,250,0,250,250,500,500,750,750,2,0,1,0,0,0,0,0,0,0,-0.25,-0.25,-0.25,-0.25,-0.25,-0.25,-0.25,-0.25,linear,0.025,TRUE,25,FALSE,2,2,NA,914,EQ,H0,6,piecewise_cal,0.0255,0,10000
7,250,0,250,250,500,500,750,750,2,0,1,0,0,0,0,0,0,0,-0.25,-0.25,-0.25,-0.25,-0.25,-0.25,-0.25,-0.25,linear,0.025,TRUE,25,FALSE,2,2,NA,914,EQ,H0,6,poolmodel,0.0022,0,10000
7,250,0,250,250,500,500,750,750,2,0,1,0,0,0,0,0,0,0,-0.25,-0.25,-0.25,-0.25,-0.25,-0.25,-0.25,-0.25,linear,0.025,TRUE,25,FALSE,2,2,NA,914,EQ,H0,6,sepmodel,0.0245,0,10000
7,250,0,250,250,500,500,750,750,2,0,1,0,0,0,0,0,0,0,-0.25,-0.25,-0.25,-0.25,-0.25,-0.25,-0.25,-0.25,linear,0.025,TRUE,25,FALSE,2,2,NA,914,EQ,H0,6,splines,0.0269,0,10000
7,250,0,250,250,500,500,750,750,2,0,1,0,0,0,0,0,0,0,-0.25,-0.25,-0.25,-0.25,-0.25,-0.25,-0.25,-0.25,linear,0.025,TRUE,25,FALSE,2,2,NA,914,EQ,H0,6,splines_cal,0.0257,0,10000
7,250,0,250,250,500,500,750,750,2,0,1,0,0,0,0,0,0,0,-0.25,-0.25,-0.25,-0.25,-0.25,-0.25,-0.25,-0.25,linear,0.025,TRUE,25,FALSE,2,2,NA,914,EQ,H0,7,fixmodel,0.025,0,10000
7,250,0,250,250,500,500,750,750,2,0,1,0,0,0,0,0,0,0,-0.25,-0.25,-0.25,-0.25,-0.25,-0.25,-0.25,-0.25,linear,0.025,TRUE,25,FALSE,2,2,NA,914,EQ,H0,7,fixmodel_cal,0.025,0,10000
7,250,0,250,250,500,500,750,750,2,0,1,0,0,0,0,0,0,0,-0.25,-0.25,-0.25,-0.25,-0.25,-0.25,-0.25,-0.25,linear,0.025,TRUE,25,FALSE,2,2,NA,914,EQ,H0,7,mixmodel,0.0085,0,10000
7,250,0,250,250,500,500,750,750,2,0,1,0,0,0,0,0,0,0,-0.25,-0.25,-0.25,-0.25,-0.25,-0.25,-0.25,-0.25,linear,0.025,TRUE,25,FALSE,2,2,NA,914,EQ,H0,7,mixmodel_AR1,0.0094,0,10000
7,250,0,250,250,500,500,750,750,2,0,1,0,0,0,0,0,0,0,-0.25,-0.25,-0.25,-0.25,-0.25,-0.25,-0.25,-0.25,linear,0.025,TRUE,25,FALSE,2,2,NA,914,EQ,H0,7,mixmodel_AR1_cal,0.0093,0,10000
7,250,0,250,250,500,500,750,750,2,0,1,0,0,0,0,0,0,0,-0.25,-0.25,-0.25,-0.25,-0.25,-0.25,-0.25,-0.25,linear,0.025,TRUE,25,FALSE,2,2,NA,914,EQ,H0,7,mixmodel_cal,0.0025,0,10000
7,250,0,250,250,500,500,750,750,2,0,1,0,0,0,0,0,0,0,-0.25,-0.25,-0.25,-0.25,-0.25,-0.25,-0.25,-0.25,linear,0.025,TRUE,25,FALSE,2,2,NA,914,EQ,H0,7,piecewise,0.0251,0,10000
7,250,0,250,250,500,500,750,750,2,0,1,0,0,0,0,0,0,0,-0.25,-0.25,-0.25,-0.25,-0.25,-0.25,-0.25,-0.25,linear,0.025,TRUE,25,FALSE,2,2,NA,914,EQ,H0,7,piecewise_cal,0.026,0,10000
7,250,0,250,250,500,500,750,750,2,0,1,0,0,0,0,0,0,0,-0.25,-0.25,-0.25,-0.25,-0.25,-0.25,-0.25,-0.25,linear,0.025,TRUE,25,FALSE,2,2,NA,914,EQ,H0,7,poolmodel,0.0023,0,10000
7,250,0,250,250,500,500,750,750,2,0,1,0,0,0,0,0,0,0,-0.25,-0.25,-0.25,-0.25,-0.25,-0.25,-0.25,-0.25,linear,0.025,TRUE,25,FALSE,2,2,NA,914,EQ,H0,7,sepmodel,0.0237,0,10000
7,250,0,250,250,500,500,750,750,2,0,1,0,0,0,0,0,0,0,-0.25,-0.25,-0.25,-0.25,-0.25,-0.25,-0.25,-0.25,linear,0.025,TRUE,25,FALSE,2,2,NA,914,EQ,H0,7,splines,0.0247,0,10000
7,250,0,250,250,500,500,750,750,2,0,1,0,0,0,0,0,0,0,-0.25,-0.25,-0.25,-0.25,-0.25,-0.25,-0.25,-0.25,linear,0.025,TRUE,25,FALSE,2,2,NA,914,EQ,H0,7,splines_cal,0.0255,0,10000
7,250,0,250,250,500,500,750,750,2,0,1,0,0,0,0,0,0,0,-0.25,-0.25,-0.25,-0.25,-0.25,-0.25,-0.25,-0.25,linear,0.025,TRUE,25,FALSE,3,3,NA,914,EQ,H0,2,fixmodel,0.0252,0,10000
7,250,0,250,250,500,500,750,750,2,0,1,0,0,0,0,0,0,0,-0.25,-0.25,-0.25,-0.25,-0.25,-0.25,-0.25,-0.25,linear,0.025,TRUE,25,FALSE,3,3,NA,914,EQ,H0,2,fixmodel_cal,0.0257,0,10000
7,250,0,250,250,500,500,750,750,2,0,1,0,0,0,0,0,0,0,-0.25,-0.25,-0.25,-0.25,-0.25,-0.25,-0.25,-0.25,linear,0.025,TRUE,25,FALSE,3,3,NA,914,EQ,H0,2,mixmodel,0.0167,0,10000
