pavlakrotka/MASTERARBEIT/simulations_final/results/results_setting_1_alpha.csv
num_arms,n_arm,d1,d2,d3,d4,d5,d6,d7,d8,d9,d10,period_blocks,mu0,sigma,theta1,theta2,theta3,theta4,theta5,theta6,theta7,theta8,theta9,theta10,lambda0,lambda1,lambda2,lambda3,lambda4,lambda5,lambda6,lambda7,lambda8,lambda9,lambda10,trend,alpha,ncc,study_arm,model,reject_h0,bias,MSE,failed,nsim
10,250,0,0,0,0,0,0,0,0,0,0,2,0,1,0,0,0,0,0,0,0,0,0,0,-0.5,-0.5,-0.5,-0.5,-0.5,-0.5,-0.5,-0.5,-0.5,-0.5,-0.5,linear,0.025,TRUE,2,fixmodel,0.0244,-0.0017644266825059913,0.007983347500719287,0,10000
10,250,0,0,0,0,0,0,0,0,0,0,2,0,1,0,0,0,0,0,0,0,0,0,0,-0.5,-0.5,-0.5,-0.5,-0.5,-0.5,-0.5,-0.5,-0.5,-0.5,-0.5,linear,0.025,TRUE,2,poolmodel,0.0251,-0.0017644266825069185,0.0079833475007191,0,10000
10,250,0,0,0,0,0,0,0,0,0,0,2,0,1,0,0,0,0,0,0,0,0,0,0,-0.5,-0.5,-0.5,-0.5,-0.5,-0.5,-0.5,-0.5,-0.5,-0.5,-0.5,linear,0.025,TRUE,2,sepmodel,0.0251,-0.0017644266825069185,0.0079833475007191,0,10000
10,250,0,0,0,0,0,0,0,0,0,0,2,0,1,0,0,0,0,0,0,0,0,0,0,-0.5,-0.5,-0.5,-0.5,-0.5,-0.5,-0.5,-0.5,-0.5,-0.5,-0.5,linear,0.025,TRUE,3,fixmodel,0.0229,-0.0017511370492076018,0.008057526529149582,0,10000
10,250,0,0,0,0,0,0,0,0,0,0,2,0,1,0,0,0,0,0,0,0,0,0,0,-0.5,-0.5,-0.5,-0.5,-0.5,-0.5,-0.5,-0.5,-0.5,-0.5,-0.5,linear,0.025,TRUE,3,poolmodel,0.0226,-0.0017511370492085951,0.008057526529149551,0,10000
10,250,0,0,0,0,0,0,0,0,0,0,2,0,1,0,0,0,0,0,0,0,0,0,0,-0.5,-0.5,-0.5,-0.5,-0.5,-0.5,-0.5,-0.5,-0.5,-0.5,-0.5,linear,0.025,TRUE,3,sepmodel,0.0226,-0.0017511370492085951,0.008057526529149551,0,10000
10,250,0,0,0,0,0,0,0,0,0,0,2,0,1,0,0,0,0,0,0,0,0,0,0,-0.5,-0.5,-0.5,-0.5,-0.5,-0.5,-0.5,-0.5,-0.5,-0.5,-0.5,linear,0.025,TRUE,4,fixmodel,0.0243,-0.001064947454938422,0.008154379150477313,0,10000
10,250,0,0,0,0,0,0,0,0,0,0,2,0,1,0,0,0,0,0,0,0,0,0,0,-0.5,-0.5,-0.5,-0.5,-0.5,-0.5,-0.5,-0.5,-0.5,-0.5,-0.5,linear,0.025,TRUE,4,poolmodel,0.0239,-0.001064947454939414,0.008154379150477268,0,10000
10,250,0,0,0,0,0,0,0,0,0,0,2,0,1,0,0,0,0,0,0,0,0,0,0,-0.5,-0.5,-0.5,-0.5,-0.5,-0.5,-0.5,-0.5,-0.5,-0.5,-0.5,linear,0.025,TRUE,4,sepmodel,0.0239,-0.001064947454939414,0.008154379150477268,0,10000
10,250,0,0,0,0,0,0,0,0,0,0,2,0,1,0,0,0,0,0,0,0,0,0,0,-0.5,-0.5,-0.5,-0.5,-0.5,-0.5,-0.5,-0.5,-0.5,-0.5,-0.5,linear,0.025,TRUE,5,fixmodel,0.0222,-0.001469389971497884,0.007796508189838531,0,10000
10,250,0,0,0,0,0,0,0,0,0,0,2,0,1,0,0,0,0,0,0,0,0,0,0,-0.5,-0.5,-0.5,-0.5,-0.5,-0.5,-0.5,-0.5,-0.5,-0.5,-0.5,linear,0.025,TRUE,5,poolmodel,0.0221,-0.001469389971498844,0.007796508189838544,0,10000
10,250,0,0,0,0,0,0,0,0,0,0,2,0,1,0,0,0,0,0,0,0,0,0,0,-0.5,-0.5,-0.5,-0.5,-0.5,-0.5,-0.5,-0.5,-0.5,-0.5,-0.5,linear,0.025,TRUE,5,sepmodel,0.0221,-0.001469389971498844,0.007796508189838544,0,10000
10,250,0,0,0,0,0,0,0,0,0,0,2,0,1,0,0,0,0,0,0,0,0,0,0,-0.5,-0.5,-0.5,-0.5,-0.5,-0.5,-0.5,-0.5,-0.5,-0.5,-0.5,linear,0.025,TRUE,6,fixmodel,0.021,-1.1610497817511603e-4,0.007878679883524085,0,10000
10,250,0,0,0,0,0,0,0,0,0,0,2,0,1,0,0,0,0,0,0,0,0,0,0,-0.5,-0.5,-0.5,-0.5,-0.5,-0.5,-0.5,-0.5,-0.5,-0.5,-0.5,linear,0.025,TRUE,6,poolmodel,0.021,-1.1610497817607588e-4,0.007878679883524076,0,10000
10,250,0,0,0,0,0,0,0,0,0,0,2,0,1,0,0,0,0,0,0,0,0,0,0,-0.5,-0.5,-0.5,-0.5,-0.5,-0.5,-0.5,-0.5,-0.5,-0.5,-0.5,linear,0.025,TRUE,6,sepmodel,0.021,-1.1610497817607588e-4,0.007878679883524076,0,10000
10,250,0,0,0,0,0,0,0,0,0,0,2,0,1,0,0,0,0,0,0,0,0,0,0,-0.5,-0.5,-0.5,-0.5,-0.5,-0.5,-0.5,-0.5,-0.5,-0.5,-0.5,linear,0.025,TRUE,7,fixmodel,0.0239,-3.6325004295068545e-4,0.008052668915387494,0,10000
10,250,0,0,0,0,0,0,0,0,0,0,2,0,1,0,0,0,0,0,0,0,0,0,0,-0.5,-0.5,-0.5,-0.5,-0.5,-0.5,-0.5,-0.5,-0.5,-0.5,-0.5,linear,0.025,TRUE,7,poolmodel,0.0239,-3.63250042951678e-4,0.008052668915387499,0,10000
10,250,0,0,0,0,0,0,0,0,0,0,2,0,1,0,0,0,0,0,0,0,0,0,0,-0.5,-0.5,-0.5,-0.5,-0.5,-0.5,-0.5,-0.5,-0.5,-0.5,-0.5,linear,0.025,TRUE,7,sepmodel,0.0239,-3.63250042951678e-4,0.008052668915387499,0,10000
10,250,0,0,0,0,0,0,0,0,0,0,2,0,1,0,0,0,0,0,0,0,0,0,0,-0.5,-0.5,-0.5,-0.5,-0.5,-0.5,-0.5,-0.5,-0.5,-0.5,-0.5,linear,0.025,TRUE,8,fixmodel,0.0228,-0.0010905862964098513,0.00786259274841751,0,10000
10,250,0,0,0,0,0,0,0,0,0,0,2,0,1,0,0,0,0,0,0,0,0,0,0,-0.5,-0.5,-0.5,-0.5,-0.5,-0.5,-0.5,-0.5,-0.5,-0.5,-0.5,linear,0.025,TRUE,8,poolmodel,0.0228,-0.0010905862964108329,0.007862592748417512,0,10000
10,250,0,0,0,0,0,0,0,0,0,0,2,0,1,0,0,0,0,0,0,0,0,0,0,-0.5,-0.5,-0.5,-0.5,-0.5,-0.5,-0.5,-0.5,-0.5,-0.5,-0.5,linear,0.025,TRUE,8,sepmodel,0.0228,-0.0010905862964108329,0.007862592748417512,0,10000
10,250,0,0,0,0,0,0,0,0,0,0,2,0,1,0,0,0,0,0,0,0,0,0,0,-0.5,-0.5,-0.5,-0.5,-0.5,-0.5,-0.5,-0.5,-0.5,-0.5,-0.5,linear,0.025,TRUE,9,fixmodel,0.022,-0.0019035730739915308,0.008037208256856911,0,10000
10,250,0,0,0,0,0,0,0,0,0,0,2,0,1,0,0,0,0,0,0,0,0,0,0,-0.5,-0.5,-0.5,-0.5,-0.5,-0.5,-0.5,-0.5,-0.5,-0.5,-0.5,linear,0.025,TRUE,9,poolmodel,0.0224,-0.001903573073992515,0.008037208256856916,0,10000
10,250,0,0,0,0,0,0,0,0,0,0,2,0,1,0,0,0,0,0,0,0,0,0,0,-0.5,-0.5,-0.5,-0.5,-0.5,-0.5,-0.5,-0.5,-0.5,-0.5,-0.5,linear,0.025,TRUE,9,sepmodel,0.0224,-0.001903573073992515,0.008037208256856916,0,10000
10,250,0,0,0,0,0,0,0,0,0,0,2,0,1,0,0,0,0,0,0,0,0,0,0,-0.5,-0.5,-0.5,-0.5,-0.5,-0.5,-0.5,-0.5,-0.5,-0.5,-0.5,linear,0.025,TRUE,10,fixmodel,0.0234,-0.0012656833977245133,0.008046569396115744,0,10000
10,250,0,0,0,0,0,0,0,0,0,0,2,0,1,0,0,0,0,0,0,0,0,0,0,-0.5,-0.5,-0.5,-0.5,-0.5,-0.5,-0.5,-0.5,-0.5,-0.5,-0.5,linear,0.025,TRUE,10,poolmodel,0.024,-0.0012656833977254982,0.008046569396115762,0,10000
10,250,0,0,0,0,0,0,0,0,0,0,2,0,1,0,0,0,0,0,0,0,0,0,0,-0.5,-0.5,-0.5,-0.5,-0.5,-0.5,-0.5,-0.5,-0.5,-0.5,-0.5,linear,0.025,TRUE,10,sepmodel,0.024,-0.0012656833977254982,0.008046569396115762,0,10000
10,250,0,25,50,75,100,125,150,175,200,225,2,0,1,0,0,0,0,0,0,0,0,0,0,-0.5,-0.5,-0.5,-0.5,-0.5,-0.5,-0.5,-0.5,-0.5,-0.5,-0.5,linear,0.025,TRUE,2,fixmodel,0.0224,-0.0017946128550323135,0.007804196644436709,0,10000
10,250,0,25,50,75,100,125,150,175,200,225,2,0,1,0,0,0,0,0,0,0,0,0,0,-0.5,-0.5,-0.5,-0.5,-0.5,-0.5,-0.5,-0.5,-0.5,-0.5,-0.5,linear,0.025,TRUE,2,poolmodel,0.016,-0.01251151027235803,0.00785034499510614,0,10000
10,250,0,25,50,75,100,125,150,175,200,225,2,0,1,0,0,0,0,0,0,0,0,0,0,-0.5,-0.5,-0.5,-0.5,-0.5,-0.5,-0.5,-0.5,-0.5,-0.5,-0.5,linear,0.025,TRUE,2,sepmodel,0.0216,-0.001800748850389698,0.007902624883659401,0,10000
10,250,0,25,50,75,100,125,150,175,200,225,2,0,1,0,0,0,0,0,0,0,0,0,0,-0.5,-0.5,-0.5,-0.5,-0.5,-0.5,-0.5,-0.5,-0.5,-0.5,-0.5,linear,0.025,TRUE,3,fixmodel,0.0274,-0.0019713498763595278,0.007913229535984166,0,10000
10,250,0,25,50,75,100,125,150,175,200,225,2,0,1,0,0,0,0,0,0,0,0,0,0,-0.5,-0.5,-0.5,-0.5,-0.5,-0.5,-0.5,-0.5,-0.5,-0.5,-0.5,linear,0.025,TRUE,3,poolmodel,0.0156,-0.019669600691997472,0.00811404643710271,0,10000
10,250,0,25,50,75,100,125,150,175,200,225,2,0,1,0,0,0,0,0,0,0,0,0,0,-0.5,-0.5,-0.5,-0.5,-0.5,-0.5,-0.5,-0.5,-0.5,-0.5,-0.5,linear,0.025,TRUE,3,sepmodel,0.0266,-0.0019878784024182214,0.0080759744993390975,0,10000
10,250,0,25,50,75,100,125,150,175,200,225,2,0,1,0,0,0,0,0,0,0,0,0,0,-0.5,-0.5,-0.5,-0.5,-0.5,-0.5,-0.5,-0.5,-0.5,-0.5,-0.5,linear,0.025,TRUE,4,fixmodel,0.0237,-0.0018514598617974832,0.007853089430218441,0,10000
10,250,0,25,50,75,100,125,150,175,200,225,2,0,1,0,0,0,0,0,0,0,0,0,0,-0.5,-0.5,-0.5,-0.5,-0.5,-0.5,-0.5,-0.5,-0.5,-0.5,-0.5,linear,0.025,TRUE,4,poolmodel,0.0123,-0.02596346507730587,0.00834471136282113,0,10000
10,250,0,25,50,75,100,125,150,175,200,225,2,0,1,0,0,0,0,0,0,0,0,0,0,-0.5,-0.5,-0.5,-0.5,-0.5,-0.5,-0.5,-0.5,-0.5,-0.5,-0.5,linear,0.025,TRUE,4,sepmodel,0.0232,-0.0017572486692558414,0.008103992461401753,0,10000
10,250,0,25,50,75,100,125,150,175,200,225,2,0,1,0,0,0,0,0,0,0,0,0,0,-0.5,-0.5,-0.5,-0.5,-0.5,-0.5,-0.5,-0.5,-0.5,-0.5,-0.5,linear,0.025,TRUE,5,fixmodel,0.0254,-0.0011101563275105531,0.007676192653462247,0,10000
10,250,0,25,50,75,100,125,150,175,200,225,2,0,1,0,0,0,0,0,0,0,0,0,0,-0.5,-0.5,-0.5,-0.5,-0.5,-0.5,-0.5,-0.5,-0.5,-0.5,-0.5,linear,0.025,TRUE,5,poolmodel,0.0105,-0.02988067143597941,0.008387862901522327,0,10000
10,250,0,25,50,75,100,125,150,175,200,225,2,0,1,0,0,0,0,0,0,0,0,0,0,-0.5,-0.5,-0.5,-0.5,-0.5,-0.5,-0.5,-0.5,-0.5,-0.5,-0.5,linear,0.025,TRUE,5,sepmodel,0.0252,-0.0010416446122000669,0.00799369278263129,0,10000
10,250,0,25,50,75,100,125,150,175,200,225,2,0,1,0,0,0,0,0,0,0,0,0,0,-0.5,-0.5,-0.5,-0.5,-0.5,-0.5,-0.5,-0.5,-0.5,-0.5,-0.5,linear,0.025,TRUE,6,fixmodel,0.0232,-0.0011699179975559876,0.007778050781582074,0,10000
10,250,0,25,50,75,100,125,150,175,200,225,2,0,1,0,0,0,0,0,0,0,0,0,0,-0.5,-0.5,-0.5,-0.5,-0.5,-0.5,-0.5,-0.5,-0.5,-0.5,-0.5,linear,0.025,TRUE,6,poolmodel,0.0089,-0.033795462664174984,0.008694192113595107,0,10000
10,250,0,25,50,75,100,125,150,175,200,225,2,0,1,0,0,0,0,0,0,0,0,0,0,-0.5,-0.5,-0.5,-0.5,-0.5,-0.5,-0.5,-0.5,-0.5,-0.5,-0.5,linear,0.025,TRUE,6,sepmodel,0.0246,-0.001054206229176255,0.00819707851499234,0,10000
10,250,0,25,50,75,100,125,150,175,200,225,2,0,1,0,0,0,0,0,0,0,0,0,0,-0.5,-0.5,-0.5,-0.5,-0.5,-0.5,-0.5,-0.5,-0.5,-0.5,-0.5,linear,0.025,TRUE,7,fixmodel,0.0232,-9.652539014298393e-4,0.007628095472731591,0,10000
10,250,0,25,50,75,100,125,150,175,200,225,2,0,1,0,0,0,0,0,0,0,0,0,0,-0.5,-0.5,-0.5,-0.5,-0.5,-0.5,-0.5,-0.5,-0.5,-0.5,-0.5,linear,0.025,TRUE,7,poolmodel,0.008,-0.03738034764287114,0.008796006750296743,0,10000
10,250,0,25,50,75,100,125,150,175,200,225,2,0,1,0,0,0,0,0,0,0,0,0,0,-0.5,-0.5,-0.5,-0.5,-0.5,-0.5,-0.5,-0.5,-0.5,-0.5,-0.5,linear,0.025,TRUE,7,sepmodel,0.0241,-8.174121401165673e-4,0.00803906281121821,0,10000
10,250,0,25,50,75,100,125,150,175,200,225,2,0,1,0,0,0,0,0,0,0,0,0,0,-0.5,-0.5,-0.5,-0.5,-0.5,-0.5,-0.5,-0.5,-0.5,-0.5,-0.5,linear,0.025,TRUE,8,fixmodel,0.0251,-9.782377962871578e-4,0.007709007324293351,0,10000
10,250,0,25,50,75,100,125,150,175,200,225,2,0,1,0,0,0,0,0,0,0,0,0,0,-0.5,-0.5,-0.5,-0.5,-0.5,-0.5,-0.5,-0.5,-0.5,-0.5,-0.5,linear,0.025,TRUE,8,poolmodel,0.0067,-0.04026784627288718,0.009113614099283617,0,10000
10,250,0,25,50,75,100,125,150,175,200,225,2,0,1,0,0,0,0,0,0,0,0,0,0,-0.5,-0.5,-0.5,-0.5,-0.5,-0.5,-0.5,-0.5,-0.5,-0.5,-0.5,linear,0.025,TRUE,8,sepmodel,0.0238,-8.991467660981385e-4,0.008128173717914876,0,10000
10,250,0,25,50,75,100,125,150,175,200,225,2,0,1,0,0,0,0,0,0,0,0,0,0,-0.5,-0.5,-0.5,-0.5,-0.5,-0.5,-0.5,-0.5,-0.5,-0.5,-0.5,linear,0.025,TRUE,9,fixmodel,0.0222,-0.0017927808646906814,0.0074562804238544195,0,10000
10,250,0,25,50,75,100,125,150,175,200,225,2,0,1,0,0,0,0,0,0,0,0,0,0,-0.5,-0.5,-0.5,-0.5,-0.5,-0.5,-0.5,-0.5,-0.5,-0.5,-0.5,linear,0.025,TRUE,9,poolmodel,0.0064,-0.04400379418554431,0.009161222325577423,0,10000
10,250,0,25,50,75,100,125,150,175,200,225,2,0,1,0,0,0,0,0,0,0,0,0,0,-0.5,-0.5,-0.5,-0.5,-0.5,-0.5,-0.5,-0.5,-0.5,-0.5,-0.5,linear,0.025,TRUE,9,sepmodel,0.0228,-0.001769168250905825,0.007936220281600098,0,10000
10,250,0,25,50,75,100,125,150,175,200,225,2,0,1,0,0,0,0,0,0,0,0,0,0,-0.5,-0.5,-0.5,-0.5,-0.5,-0.5,-0.5,-0.5,-0.5,-0.5,-0.5,linear,0.025,TRUE,10,fixmodel,0.0258,-1.1570129171890882e-4,0.007637553211079166,0,10000
10,250,0,25,50,75,100,125,150,175,200,225,2,0,1,0,0,0,0,0,0,0,0,0,0,-0.5,-0.5,-0.5,-0.5,-0.5,-0.5,-0.5,-0.5,-0.5,-0.5,-0.5,linear,0.025,TRUE,10,poolmodel,0.007,-0.0442804397640806,0.009418222130196875,0,10000
10,250,0,25,50,75,100,125,150,175,200,225,2,0,1,0,0,0,0,0,0,0,0,0,0,-0.5,-0.5,-0.5,-0.5,-0.5,-0.5,-0.5,-0.5,-0.5,-0.5,-0.5,linear,0.025,TRUE,10,sepmodel,0.0257,-6.64374212411507e-5,0.008140762349088561,0,10000
10,250,0,50,100,150,200,250,300,350,400,450,2,0,1,0,0,0,0,0,0,0,0,0,0,-0.5,-0.5,-0.5,-0.5,-0.5,-0.5,-0.5,-0.5,-0.5,-0.5,-0.5,linear,0.025,TRUE,2,fixmodel,0.0253,-1.4267161573755806e-4,0.007882878142341147,0,10000
10,250,0,50,100,150,200,250,300,350,400,450,2,0,1,0,0,0,0,0,0,0,0,0,0,-0.5,-0.5,-0.5,-0.5,-0.5,-0.5,-0.5,-0.5,-0.5,-0.5,-0.5,linear,0.025,TRUE,2,poolmodel,0.0154,-0.01683287108127749,0.007975340099261369,0,10000
10,250,0,50,100,150,200,250,300,350,400,450,2,0,1,0,0,0,0,0,0,0,0,0,0,-0.5,-0.5,-0.5,-0.5,-0.5,-0.5,-0.5,-0.5,-0.5,-0.5,-0.5,linear,0.025,TRUE,2,sepmodel,0.0246,-3.41195697562293e-5,0.008095155957024536,0,10000
10,250,0,50,100,150,200,250,300,350,400,450,2,0,1,0,0,0,0,0,0,0,0,0,0,-0.5,-0.5,-0.5,-0.5,-0.5,-0.5,-0.5,-0.5,-0.5,-0.5,-0.5,linear,0.025,TRUE,3,fixmodel,0.025,-4.628789752668038e-4,0.0076564720058267,0,10000
10,250,0,50,100,150,200,250,300,350,400,450,2,0,1,0,0,0,0,0,0,0,0,0,0,-0.5,-0.5,-0.5,-0.5,-0.5,-0.5,-0.5,-0.5,-0.5,-0.5,-0.5,linear,0.025,TRUE,3,poolmodel,0.0097,-0.030411949577391493,0.008299575462289878,0,10000
10,250,0,50,100,150,200,250,300,350,400,450,2,0,1,0,0,0,0,0,0,0,0,0,0,-0.5,-0.5,-0.5,-0.5,-0.5,-0.5,-0.5,-0.5,-0.5,-0.5,-0.5,linear,0.025,TRUE,3,sepmodel,0.0252,-2.3187236722765526e-4,0.007994008731230457,0,10000
10,250,0,50,100,150,200,250,300,350,400,450,2,0,1,0,0,0,0,0,0,0,0,0,0,-0.5,-0.5,-0.5,-0.5,-0.5,-0.5,-0.5,-0.5,-0.5,-0.5,-0.5,linear,0.025,TRUE,4,fixmodel,0.0244,-4.5054263493677596e-4,0.007721225804796654,0,10000
10,250,0,50,100,150,200,250,300,350,400,450,2,0,1,0,0,0,0,0,0,0,0,0,0,-0.5,-0.5,-0.5,-0.5,-0.5,-0.5,-0.5,-0.5,-0.5,-0.5,-0.5,linear,0.025,TRUE,4,poolmodel,0.0066,-0.04141346591385649,0.00912891711966968,0,10000
10,250,0,50,100,150,200,250,300,350,400,450,2,0,1,0,0,0,0,0,0,0,0,0,0,-0.5,-0.5,-0.5,-0.5,-0.5,-0.5,-0.5,-0.5,-0.5,-0.5,-0.5,linear,0.025,TRUE,4,sepmodel,0.0245,-3.6009643898491983e-4,0.008210265396924347,0,10000
10,250,0,50,100,150,200,250,300,350,400,450,2,0,1,0,0,0,0,0,0,0,0,0,0,-0.5,-0.5,-0.5,-0.5,-0.5,-0.5,-0.5,-0.5,-0.5,-0.5,-0.5,linear,0.025,TRUE,5,fixmodel,0.0272,1.7030506400950835e-4,0.007689880674999678,0,10000
10,250,0,50,100,150,200,250,300,350,400,450,2,0,1,0,0,0,0,0,0,0,0,0,0,-0.5,-0.5,-0.5,-0.5,-0.5,-0.5,-0.5,-0.5,-0.5,-0.5,-0.5,linear,0.025,TRUE,5,poolmodel,0.0053,-0.04977141006912921,0.009869492096309539,0,10000
10,250,0,50,100,150,200,250,300,350,400,450,2,0,1,0,0,0,0,0,0,0,0,0,0,-0.5,-0.5,-0.5,-0.5,-0.5,-0.5,-0.5,-0.5,-0.5,-0.5,-0.5,linear,0.025,TRUE,5,sepmodel,0.0259,2.996877555494714e-4,0.00827286534844697,0,10000
10,250,0,50,100,150,200,250,300,350,400,450,2,0,1,0,0,0,0,0,0,0,0,0,0,-0.5,-0.5,-0.5,-0.5,-0.5,-0.5,-0.5,-0.5,-0.5,-0.5,-0.5,linear,0.025,TRUE,6,fixmodel,0.0273,6.240787002661102e-5,0.007506289919638283,0,10000
10,250,0,50,100,150,200,250,300,350,400,450,2,0,1,0,0,0,0,0,0,0,0,0,0,-0.5,-0.5,-0.5,-0.5,-0.5,-0.5,-0.5,-0.5,-0.5,-0.5,-0.5,linear,0.025,TRUE,6,poolmodel,0.0044,-0.0572557156860209,0.01047171982740178,0,10000
10,250,0,50,100,150,200,250,300,350,400,450,2,0,1,0,0,0,0,0,0,0,0,0,0,-0.5,-0.5,-0.5,-0.5,-0.5,-0.5,-0.5,-0.5,-0.5,-0.5,-0.5,linear,0.025,TRUE,6,sepmodel,0.0238,1.9593808325252528e-4,0.008107664888542528,0,10000
10,250,0,50,100,150,200,250,300,350,400,450,2,0,1,0,0,0,0,0,0,0,0,0,0,-0.5,-0.5,-0.5,-0.5,-0.5,-0.5,-0.5,-0.5,-0.5,-0.5,-0.5,linear,0.025,TRUE,7,fixmodel,0.0241,-3.173530130297286e-4,0.007279795261520643,0,10000
10,250,0,50,100,150,200,250,300,350,400,450,2,0,1,0,0,0,0,0,0,0,0,0,0,-0.5,-0.5,-0.5,-0.5,-0.5,-0.5,-0.5,-0.5,-0.5,-0.5,-0.5,linear,0.025,TRUE,7,poolmodel,0.0041,-0.06415586210459062,0.011071021984526272,0,10000
10,250,0,50,100,150,200,250,300,350,400,450,2,0,1,0,0,0,0,0,0,0,0,0,0,-0.5,-0.5,-0.5,-0.5,-0.5,-0.5,-0.5,-0.5,-0.5,-0.5,-0.5,linear,0.025,TRUE,7,sepmodel,0.0234,-1.1643985173136798e-4,0.007932707148926459,0,10000
10,250,0,50,100,150,200,250,300,350,400,450,2,0,1,0,0,0,0,0,0,0,0,0,0,-0.5,-0.5,-0.5,-0.5,-0.5,-0.5,-0.5,-0.5,-0.5,-0.5,-0.5,linear,0.025,TRUE,8,fixmodel,0.0248,-4.2391999190367696e-4,0.007368087383818471,0,10000
10,250,0,50,100,150,200,250,300,350,400,450,2,0,1,0,0,0,0,0,0,0,0,0,0,-0.5,-0.5,-0.5,-0.5,-0.5,-0.5,-0.5,-0.5,-0.5,-0.5,-0.5,linear,0.025,TRUE,8,poolmodel,0.0028,-0.07080000039843054,0.012060121594710031,0,10000
10,250,0,50,100,150,200,250,300,350,400,450,2,0,1,0,0,0,0,0,0,0,0,0,0,-0.5,-0.5,-0.5,-0.5,-0.5,-0.5,-0.5,-0.5,-0.5,-0.5,-0.5,linear,0.025,TRUE,8,sepmodel,0.0245,-2.5793516561315317e-4,0.008082665355424944,0,10000
10,250,0,50,100,150,200,250,300,350,400,450,2,0,1,0,0,0,0,0,0,0,0,0,0,-0.5,-0.5,-0.5,-0.5,-0.5,-0.5,-0.5,-0.5,-0.5,-0.5,-0.5,linear,0.025,TRUE,9,fixmodel,0.0251,-2.549747290909527e-4,0.00727904116916123,0,10000
10,250,0,50,100,150,200,250,300,350,400,450,2,0,1,0,0,0,0,0,0,0,0,0,0,-0.5,-0.5,-0.5,-0.5,-0.5,-0.5,-0.5,-0.5,-0.5,-0.5,-0.5,linear,0.025,TRUE,9,poolmodel,0.0019,-0.07525647723511027,0.012618320758096187,0,10000
10,250,0,50,100,150,200,250,300,350,400,450,2,0,1,0,0,0,0,0,0,0,0,0,0,-0.5,-0.5,-0.5,-0.5,-0.5,-0.5,-0.5,-0.5,-0.5,-0.5,-0.5,linear,0.025,TRUE,9,sepmodel,0.0268,-8.569435181962042e-5,0.008040533556747541,0,10000
10,250,0,50,100,150,200,250,300,350,400,450,2,0,1,0,0,0,0,0,0,0,0,0,0,-0.5,-0.5,-0.5,-0.5,-0.5,-0.5,-0.5,-0.5,-0.5,-0.5,-0.5,linear,0.025,TRUE,10,fixmodel,0.0265,1.6639659554718754e-4,0.007221725629763988,0,10000
10,250,0,50,100,150,200,250,300,350,400,450,2,0,1,0,0,0,0,0,0,0,0,0,0,-0.5,-0.5,-0.5,-0.5,-0.5,-0.5,-0.5,-0.5,-0.5,-0.5,-0.5,linear,0.025,TRUE,10,poolmodel,0.0024,-0.07946597895927042,0.013241986512475781,0,10000
10,250,0,50,100,150,200,250,300,350,400,450,2,0,1,0,0,0,0,0,0,0,0,0,0,-0.5,-0.5,-0.5,-0.5,-0.5,-0.5,-0.5,-0.5,-0.5,-0.5,-0.5,linear,0.025,TRUE,10,sepmodel,0.0277,4.604767415069319e-4,0.00810027227541177,0,10000
10,250,0,75,150,225,300,375,450,525,600,675,2,0,1,0,0,0,0,0,0,0,0,0,0,-0.5,-0.5,-0.5,-0.5,-0.5,-0.5,-0.5,-0.5,-0.5,-0.5,-0.5,linear,0.025,TRUE,2,fixmodel,0.0256,6.293186202424371e-4,0.007733765766387751,0,10000
10,250,0,75,150,225,300,375,450,525,600,675,2,0,1,0,0,0,0,0,0,0,0,0,0,-0.5,-0.5,-0.5,-0.5,-0.5,-0.5,-0.5,-0.5,-0.5,-0.5,-0.5,linear,0.025,TRUE,2,poolmodel,0.0139,-0.020535776431328322,0.007888010478830478,0,10000
10,250,0,75,150,225,300,375,450,525,600,675,2,0,1,0,0,0,0,0,0,0,0,0,0,-0.5,-0.5,-0.5,-0.5,-0.5,-0.5,-0.5,-0.5,-0.5,-0.5,-0.5,linear,0.025,TRUE,2,sepmodel,0.025,5.601176509540713e-4,0.007996235920136952,0,10000
10,250,0,75,150,225,300,375,450,525,600,675,2,0,1,0,0,0,0,0,0,0,0,0,0,-0.5,-0.5,-0.5,-0.5,-0.5,-0.5,-0.5,-0.5,-0.5,-0.5,-0.5,linear,0.025,TRUE,3,fixmodel,0.0242,0.0019075517808348718,0.007516438909601265,0,10000
10,250,0,75,150,225,300,375,450,525,600,675,2,0,1,0,0,0,0,0,0,0,0,0,0,-0.5,-0.5,-0.5,-0.5,-0.5,-0.5,-0.5,-0.5,-0.5,-0.5,-0.5,linear,0.025,TRUE,3,poolmodel,0.0075,-0.03682751905845902,0.008528531010994801,0,10000
10,250,0,75,150,225,300,375,450,525,600,675,2,0,1,0,0,0,0,0,0,0,0,0,0,-0.5,-0.5,-0.5,-0.5,-0.5,-0.5,-0.5,-0.5,-0.5,-0.5,-0.5,linear,0.025,TRUE,3,sepmodel,0.0227,0.0015616581987579815,0.007924317014573612,0,10000
10,250,0,75,150,225,300,375,450,525,600,675,2,0,1,0,0,0,0,0,0,0,0,0,0,-0.5,-0.5,-0.5,-0.5,-0.5,-0.5,-0.5,-0.5,-0.5,-0.5,-0.5,linear,0.025,TRUE,4,fixmodel,0.0271,-1.8294022151073668e-4,0.007443184728383921,0,10000
10,250,0,75,150,225,300,375,450,525,600,675,2,0,1,0,0,0,0,0,0,0,0,0,0,-0.5,-0.5,-0.5,-0.5,-0.5,-0.5,-0.5,-0.5,-0.5,-0.5,-0.5,linear,0.025,TRUE,4,poolmodel,0.0054,-0.05399192866584274,0.009981337287153223,0,10000
10,250,0,75,150,225,300,375,450,525,600,675,2,0,1,0,0,0,0,0,0,0,0,0,0,-0.5,-0.5,-0.5,-0.5,-0.5,-0.5,-0.5,-0.5,-0.5,-0.5,-0.5,linear,0.025,TRUE,4,sepmodel,0.0264,-4.5410558393591964e-4,0.00808075885274737,0,10000
10,250,0,75,150,225,300,375,450,525,600,675,2,0,1,0,0,0,0,0,0,0,0,0,0,-0.5,-0.5,-0.5,-0.5,-0.5,-0.5,-0.5,-0.5,-0.5,-0.5,-0.5,linear,0.025,TRUE,5,fixmodel,0.026,1.5841539914333388e-4,0.007284407929854736,0,10000
10,250,0,75,150,225,300,375,450,525,600,675,2,0,1,0,0,0,0,0,0,0,0,0,0,-0.5,-0.5,-0.5,-0.5,-0.5,-0.5,-0.5,-0.5,-0.5,-0.5,-0.5,linear,0.025,TRUE,5,poolmodel,0.0027,-0.06638020045693319,0.011285626395238646,0,10000
10,250,0,75,150,225,300,375,450,525,600,675,2,0,1,0,0,0,0,0,0,0,0,0,0,-0.5,-0.5,-0.5,-0.5,-0.5,-0.5,-0.5,-0.5,-0.5,-0.5,-0.5,linear,0.025,TRUE,5,sepmodel,0.0236,-2.2478160371598317e-4,0.007931589973098835,0,10000
10,250,0,75,150,225,300,375,450,525,600,675,2,0,1,0,0,0,0,0,0,0,0,0,0,-0.5,-0.5,-0.5,-0.5,-0.5,-0.5,-0.5,-0.5,-0.5,-0.5,-0.5,linear,0.025,TRUE,6,fixmodel,0.027,-3.7335521433772754e-5,0.007205712808211807,0,10000
10,250,0,75,150,225,300,375,450,525,600,675,2,0,1,0,0,0,0,0,0,0,0,0,0,-0.5,-0.5,-0.5,-0.5,-0.5,-0.5,-0.5,-0.5,-0.5,-0.5,-0.5,linear,0.025,TRUE,6,poolmodel,0.0017,-0.07793260457139477,0.012858379975073287,0,10000
10,250,0,75,150,225,300,375,450,525,600,675,2,0,1,0,0,0,0,0,0,0,0,0,0,-0.5,-0.5,-0.5,-0.5,-0.5,-0.5,-0.5,-0.5,-0.5,-0.5,-0.5,linear,0.025,TRUE,6,sepmodel,0.0258,-4.357971174013554e-4,0.008036426239178539,0,10000
10,250,0,75,150,225,300,375,450,525,600,675,2,0,1,0,0,0,0,0,0,0,0,0,0,-0.5,-0.5,-0.5,-0.5,-0.5,-0.5,-0.5,-0.5,-0.5,-0.5,-0.5,linear,0.025,TRUE,7,fixmodel,0.0273,0.001230859642326699,0.007253100182676469,0,10000
10,250,0,75,150,225,300,375,450,525,600,675,2,0,1,0,0,0,0,0,0,0,0,0,0,-0.5,-0.5,-0.5,-0.5,-0.5,-0.5,-0.5,-0.5,-0.5,-0.5,-0.5,linear,0.025,TRUE,7,poolmodel,0.0014,-0.08545378540815994,0.014132553072859873,0,10000
10,250,0,75,150,225,300,375,450,525,600,675,2,0,1,0,0,0,0,0,0,0,0,0,0,-0.5,-0.5,-0.5,-0.5,-0.5,-0.5,-0.5,-0.5,-0.5,-0.5,-0.5,linear,0.025,TRUE,7,sepmodel,0.0247,8.659043560561106e-4,0.008143942120950248,0,10000
10,250,0,75,150,225,300,375,450,525,600,675,2,0,1,0,0,0,0,0,0,0,0,0,0,-0.5,-0.5,-0.5,-0.5,-0.5,-0.5,-0.5,-0.5,-0.5,-0.5,-0.5,linear,0.025,TRUE,8,fixmodel,0.0256,-2.228846510655426e-4,0.007141604441685135,0,10000
10,250,0,75,150,225,300,375,450,525,600,675,2,0,1,0,0,0,0,0,0,0,0,0,0,-0.5,-0.5,-0.5,-0.5,-0.5,-0.5,-0.5,-0.5,-0.5,-0.5,-0.5,linear,0.025,TRUE,8,poolmodel,7e-4,-0.09562876219867447,0.015856549253905453,0,10000
10,250,0,75,150,225,300,375,450,525,600,675,2,0,1,0,0,0,0,0,0,0,0,0,0,-0.5,-0.5,-0.5,-0.5,-0.5,-0.5,-0.5,-0.5,-0.5,-0.5,-0.5,linear,0.025,TRUE,8,sepmodel,0.0237,-7.434660786863205e-4,0.008137144423067455,0,10000
10,250,0,75,150,225,300,375,450,525,600,675,2,0,1,0,0,0,0,0,0,0,0,0,0,-0.5,-0.5,-0.5,-0.5,-0.5,-0.5,-0.5,-0.5,-0.5,-0.5,-0.5,linear,0.025,TRUE,9,fixmodel,0.0268,-6.736788682239236e-4,0.00718611069270863,0,10000
10,250,0,75,150,225,300,375,450,525,600,675,2,0,1,0,0,0,0,0,0,0,0,0,0,-0.5,-0.5,-0.5,-0.5,-0.5,-0.5,-0.5,-0.5,-0.5,-0.5,-0.5,linear,0.025,TRUE,9,poolmodel,0.0011,-0.10307768401123463,0.017363468107939716,0,10000
10,250,0,75,150,225,300,375,450,525,600,675,2,0,1,0,0,0,0,0,0,0,0,0,0,-0.5,-0.5,-0.5,-0.5,-0.5,-0.5,-0.5,-0.5,-0.5,-0.5,-0.5,linear,0.025,TRUE,9,sepmodel,0.0257,-0.0010440189118133727,0.008226669878794722,0,10000
10,250,0,75,150,225,300,375,450,525,600,675,2,0,1,0,0,0,0,0,0,0,0,0,0,-0.5,-0.5,-0.5,-0.5,-0.5,-0.5,-0.5,-0.5,-0.5,-0.5,-0.5,linear,0.025,TRUE,10,fixmodel,0.0243,-8.078175796121446e-4,0.006869041866400095,0,10000
10,250,0,75,150,225,300,375,450,525,600,675,2,0,1,0,0,0,0,0,0,0,0,0,0,-0.5,-0.5,-0.5,-0.5,-0.5,-0.5,-0.5,-0.5,-0.5,-0.5,-0.5,linear,0.025,TRUE,10,poolmodel,5e-4,-0.11004441143112789,0.01855654453792102,0,10000
10,250,0,75,150,225,300,375,450,525,600,675,2,0,1,0,0,0,0,0,0,0,0,0,0,-0.5,-0.5,-0.5,-0.5,-0.5,-0.5,-0.5,-0.5,-0.5,-0.5,-0.5,linear,0.025,TRUE,10,sepmodel,0.0253,-0.0012982997295945817,0.007961587225486583,0,10000
10,250,0,100,200,300,400,500,600,700,800,900,2,0,1,0,0,0,0,0,0,0,0,0,0,-0.5,-0.5,-0.5,-0.5,-0.5,-0.5,-0.5,-0.5,-0.5,-0.5,-0.5,linear,0.025,TRUE,2,fixmodel,0.0254,1.9962457466476648e-4,0.007590833354927258,0,10000
10,250,0,100,200,300,400,500,600,700,800,900,2,0,1,0,0,0,0,0,0,0,0,0,0,-0.5,-0.5,-0.5,-0.5,-0.5,-0.5,-0.5,-0.5,-0.5,-0.5,-0.5,linear,0.025,TRUE,2,poolmodel,0.0132,-0.022945094675042136,0.007800138376279571,0,10000
10,250,0,100,200,300,400,500,600,700,800,900,2,0,1,0,0,0,0,0,0,0,0,0,0,-0.5,-0.5,-0.5,-0.5,-0.5,-0.5,-0.5,-0.5,-0.5,-0.5,-0.5,linear,0.025,TRUE,2,sepmodel,0.0243,4.499937196326168e-6,0.007915643916783425,0,10000
10,250,0,100,200,300,400,500,600,700,800,900,2,0,1,0,0,0,0,0,0,0,0,0,0,-0.5,-0.5,-0.5,-0.5,-0.5,-0.5,-0.5,-0.5,-0.5,-0.5,-0.5,linear,0.025,TRUE,3,fixmodel,0.0247,3.261448148982528e-4,0.00737122840585895,0,10000
10,250,0,100,200,300,400,500,600,700,800,900,2,0,1,0,0,0,0,0,0,0,0,0,0,-0.5,-0.5,-0.5,-0.5,-0.5,-0.5,-0.5,-0.5,-0.5,-0.5,-0.5,linear,0.025,TRUE,3,poolmodel,0.0055,-0.04437002719783632,0.008830388754899048,0,10000
10,250,0,100,200,300,400,500,600,700,800,900,2,0,1,0,0,0,0,0,0,0,0,0,0,-0.5,-0.5,-0.5,-0.5,-0.5,-0.5,-0.5,-0.5,-0.5,-0.5,-0.5,linear,0.025,TRUE,3,sepmodel,0.0254,-3.8640632546267836e-5,0.007866220358493136,0,10000
10,250,0,100,200,300,400,500,600,700,800,900,2,0,1,0,0,0,0,0,0,0,0,0,0,-0.5,-0.5,-0.5,-0.5,-0.5,-0.5,-0.5,-0.5,-0.5,-0.5,-0.5,linear,0.025,TRUE,4,fixmodel,0.0251,-8.477887254052357e-4,0.0071927184229614236,0,10000
10,250,0,100,200,300,400,500,600,700,800,900,2,0,1,0,0,0,0,0,0,0,0,0,0,-0.5,-0.5,-0.5,-0.5,-0.5,-0.5,-0.5,-0.5,-0.5,-0.5,-0.5,linear,0.025,TRUE,4,poolmodel,0.0027,-0.06419666474042143,0.010798239056324271,0,10000
10,250,0,100,200,300,400,500,600,700,800,900,2,0,1,0,0,0,0,0,0,0,0,0,0,-0.5,-0.5,-0.5,-0.5,-0.5,-0.5,-0.5,-0.5,-0.5,-0.5,-0.5,linear,0.025,TRUE,4,sepmodel,0.0244,-0.0011833450177585346,0.007860126962201426,0,10000
10,250,0,100,200,300,400,500,600,700,800,900,2,0,1,0,0,0,0,0,0,0,0,0,0,-0.5,-0.5,-0.5,-0.5,-0.5,-0.5,-0.5,-0.5,-0.5,-0.5,-0.5,linear,0.025,TRUE,5,fixmodel,0.0249,-0.0013007488187825073,0.00713717525139611,0,10000
10,250,0,100,200,300,400,500,600,700,800,900,2,0,1,0,0,0,0,0,0,0,0,0,0,-0.5,-0.5,-0.5,-0.5,-0.5,-0.5,-0.5,-0.5,-0.5,-0.5,-0.5,linear,0.025,TRUE,5,poolmodel,0.0013,-0.08054254519075336,0.013092004378806752,0,10000
10,250,0,100,200,300,400,500,600,700,800,900,2,0,1,0,0,0,0,0,0,0,0,0,0,-0.5,-0.5,-0.5,-0.5,-0.5,-0.5,-0.5,-0.5,-0.5,-0.5,-0.5,linear,0.025,TRUE,5,sepmodel,0.0219,-0.001596525114641662,0.00792035481770429,0,10000
10,250,0,100,200,300,400,500,600,700,800,900,2,0,1,0,0,0,0,0,0,0,0,0,0,-0.5,-0.5,-0.5,-0.5,-0.5,-0.5,-0.5,-0.5,-0.5,-0.5,-0.5,linear,0.025,TRUE,6,fixmodel,0.0263,-1.631149696425435e-4,0.007153577111277732,0,10000
10,250,0,100,200,300,400,500,600,700,800,900,2,0,1,0,0,0,0,0,0,0,0,0,0,-0.5,-0.5,-0.5,-0.5,-0.5,-0.5,-0.5,-0.5,-0.5,-0.5,-0.5,linear,0.025,TRUE,6,poolmodel,0.001,-0.09359422193516165,0.015360127661254172,0,10000
10,250,0,100,200,300,400,500,600,700,800,900,2,0,1,0,0,0,0,0,0,0,0,0,0,-0.5,-0.5,-0.5,-0.5,-0.5,-0.5,-0.5,-0.5,-0.5,-0.5,-0.5,linear,0.025,TRUE,6,sepmodel,0.0245,-2.576639262168316e-4,0.008085332566790244,0,10000
10,250,0,100,200,300,400,500,600,700,800,900,2,0,1,0,0,0,0,0,0,0,0,0,0,-0.5,-0.5,-0.5,-0.5,-0.5,-0.5,-0.5,-0.5,-0.5,-0.5,-0.5,linear,0.025,TRUE,7,fixmodel,0.0229,-6.377558938846816e-4,0.00695904319799452,0,10000
10,250,0,100,200,300,400,500,600,700,800,900,2,0,1,0,0,0,0,0,0,0,0,0,0,-0.5,-0.5,-0.5,-0.5,-0.5,-0.5,-0.5,-0.5,-0.5,-0.5,-0.5,linear,0.025,TRUE,7,poolmodel,6e-4,-0.10590162814574694,0.01757927356762903,0,10000
10,250,0,100,200,300,400,500,600,700,800,900,2,0,1,0,0,0,0,0,0,0,0,0,0,-0.5,-0.5,-0.5,-0.5,-0.5,-0.5,-0.5,-0.5,-0.5,-0.5,-0.5,linear,0.025,TRUE,7,sepmodel,0.0226,-8.630377815458817e-4,0.00795871330958466,0,10000
10,250,0,100,200,300,400,500,600,700,800,900,2,0,1,0,0,0,0,0,0,0,0,0,0,-0.5,-0.5,-0.5,-0.5,-0.5,-0.5,-0.5,-0.5,-0.5,-0.5,-0.5,linear,0.025,TRUE,8,fixmodel,0.0263,-4.5919389341716473e-4,0.006961679737409309,0,10000
10,250,0,100,200,300,400,500,600,700,800,900,2,0,1,0,0,0,0,0,0,0,0,0,0,-0.5,-0.5,-0.5,-0.5,-0.5,-0.5,-0.5,-0.5,-0.5,-0.5,-0.5,linear,0.025,TRUE,8,poolmodel,3e-4,-0.1165529224303536,0.019960172282366337,0,10000
10,250,0,100,200,300,400,500,600,700,800,900,2,0,1,0,0,0,0,0,0,0,0,0,0,-0.5,-0.5,-0.5,-0.5,-0.5,-0.5,-0.5,-0.5,-0.5,-0.5,-0.5,linear,0.025,TRUE,8,sepmodel,0.0273,-6.73103626318486e-4,0.008032756973771376,0,10000
10,250,0,100,200,300,400,500,600,700,800,900,2,0,1,0,0,0,0,0,0,0,0,0,0,-0.5,-0.5,-0.5,-0.5,-0.5,-0.5,-0.5,-0.5,-0.5,-0.5,-0.5,linear,0.025,TRUE,9,fixmodel,0.0232,3.377915882536324e-4,0.006829485929724267,0,10000
10,250,0,100,200,300,400,500,600,700,800,900,2,0,1,0,0,0,0,0,0,0,0,0,0,-0.5,-0.5,-0.5,-0.5,-0.5,-0.5,-0.5,-0.5,-0.5,-0.5,-0.5,linear,0.025,TRUE,9,poolmodel,1e-4,-0.12481800611880786,0.021841155833359358,0,10000
10,250,0,100,200,300,400,500,600,700,800,900,2,0,1,0,0,0,0,0,0,0,0,0,0,-0.5,-0.5,-0.5,-0.5,-0.5,-0.5,-0.5,-0.5,-0.5,-0.5,-0.5,linear,0.025,TRUE,9,sepmodel,0.0254,1.4836973718555043e-4,0.007937062899269305,0,10000
10,250,0,100,200,300,400,500,600,700,800,900,2,0,1,0,0,0,0,0,0,0,0,0,0,-0.5,-0.5,-0.5,-0.5,-0.5,-0.5,-0.5,-0.5,-0.5,-0.5,-0.5,linear,0.025,TRUE,10,fixmodel,0.0253,-2.1613966164005227e-4,0.00689520811302206,0,10000
10,250,0,100,200,300,400,500,600,700,800,900,2,0,1,0,0,0,0,0,0,0,0,0,0,-0.5,-0.5,-0.5,-0.5,-0.5,-0.5,-0.5,-0.5,-0.5,-0.5,-0.5,linear,0.025,TRUE,10,poolmodel,2e-4,-0.13320443904580942,0.02399026412970148,0,10000
10,250,0,100,200,300,400,500,600,700,800,900,2,0,1,0,0,0,0,0,0,0,0,0,0,-0.5,-0.5,-0.5,-0.5,-0.5,-0.5,-0.5,-0.5,-0.5,-0.5,-0.5,linear,0.025,TRUE,10,sepmodel,0.0239,-6.007532462700956e-4,0.008014549677520865,0,10000
10,250,0,125,250,375,500,625,750,875,1000,1125,2,0,1,0,0,0,0,0,0,0,0,0,0,-0.5,-0.5,-0.5,-0.5,-0.5,-0.5,-0.5,-0.5,-0.5,-0.5,-0.5,linear,0.025,TRUE,2,fixmodel,0.0256,-4.238135044722825e-4,0.007560747346866618,0,10000
10,250,0,125,250,375,500,625,750,875,1000,1125,2,0,1,0,0,0,0,0,0,0,0,0,0,-0.5,-0.5,-0.5,-0.5,-0.5,-0.5,-0.5,-0.5,-0.5,-0.5,-0.5,linear,0.025,TRUE,2,poolmodel,0.0133,-0.025062946099494013,0.007832214483219772,0,10000
10,250,0,125,250,375,500,625,750,875,1000,1125,2,0,1,0,0,0,0,0,0,0,0,0,0,-0.5,-0.5,-0.5,-0.5,-0.5,-0.5,-0.5,-0.5,-0.5,-0.5,-0.5,linear,0.025,TRUE,2,sepmodel,0.0256,-6.494746568830581e-4,0.007962075568005149,0,10000
10,250,0,125,250,375,500,625,750,875,1000,1125,2,0,1,0,0,0,0,0,0,0,0,0,0,-0.5,-0.5,-0.5,-0.5,-0.5,-0.5,-0.5,-0.5,-0.5,-0.5,-0.5,linear,0.025,TRUE,3,fixmodel,0.0231,3.220139813877684e-4,0.007388289808290867,0,10000
10,250,0,125,250,375,500,625,750,875,1000,1125,2,0,1,0,0,0,0,0,0,0,0,0,0,-0.5,-0.5,-0.5,-0.5,-0.5,-0.5,-0.5,-0.5,-0.5,-0.5,-0.5,linear,0.025,TRUE,3,poolmodel,0.0057,-0.0486452773514591,0.00926315700900376,0,10000
10,250,0,125,250,375,500,625,750,875,1000,1125,2,0,1,0,0,0,0,0,0,0,0,0,0,-0.5,-0.5,-0.5,-0.5,-0.5,-0.5,-0.5,-0.5,-0.5,-0.5,-0.5,linear,0.025,TRUE,3,sepmodel,0.0237,1.1774292041039388e-4,0.008046304137330736,0,10000
10,250,0,125,250,375,500,625,750,875,1000,1125,2,0,1,0,0,0,0,0,0,0,0,0,0,-0.5,-0.5,-0.5,-0.5,-0.5,-0.5,-0.5,-0.5,-0.5,-0.5,-0.5,linear,0.025,TRUE,4,fixmodel,0.0257,1.1909703523943424e-4,0.007124518236106701,0,10000
10,250,0,125,250,375,500,625,750,875,1000,1125,2,0,1,0,0,0,0,0,0,0,0,0,0,-0.5,-0.5,-0.5,-0.5,-0.5,-0.5,-0.5,-0.5,-0.5,-0.5,-0.5,linear,0.025,TRUE,4,poolmodel,0.0014,-0.07028853886711244,0.011431324791394644,0,10000
10,250,0,125,250,375,500,625,750,875,1000,1125,2,0,1,0,0,0,0,0,0,0,0,0,0,-0.5,-0.5,-0.5,-0.5,-0.5,-0.5,-0.5,-0.5,-0.5,-0.5,-0.5,linear,0.025,TRUE,4,sepmodel,0.0224,-2.8999105963296547e-4,0.00796052507640843,0,10000
10,250,0,125,250,375,500,625,750,875,1000,1125,2,0,1,0,0,0,0,0,0,0,0,0,0,-0.5,-0.5,-0.5,-0.5,-0.5,-0.5,-0.5,-0.5,-0.5,-0.5,-0.5,linear,0.025,TRUE,5,fixmodel,0.0244,8.311237412600418e-5,0.007086129339970882,0,10000
10,250,0,125,250,375,500,625,750,875,1000,1125,2,0,1,0,0,0,0,0,0,0,0,0,0,-0.5,-0.5,-0.5,-0.5,-0.5,-0.5,-0.5,-0.5,-0.5,-0.5,-0.5,linear,0.025,TRUE,5,poolmodel,5e-4,-0.08929148163761609,0.014429193904696,0,10000
10,250,0,125,250,375,500,625,750,875,1000,1125,2,0,1,0,0,0,0,0,0,0,0,0,0,-0.5,-0.5,-0.5,-0.5,-0.5,-0.5,-0.5,-0.5,-0.5,-0.5,-0.5,linear,0.025,TRUE,5,sepmodel,0.0226,-3.889588698301547e-4,0.007995936915872474,0,10000
10,250,0,125,250,375,500,625,750,875,1000,1125,2,0,1,0,0,0,0,0,0,0,0,0,0,-0.5,-0.5,-0.5,-0.5,-0.5,-0.5,-0.5,-0.5,-0.5,-0.5,-0.5,linear,0.025,TRUE,6,fixmodel,0.0278,5.846421460554504e-4,0.007061056109037591,0,10000
10,250,0,125,250,375,500,625,750,875,1000,1125,2,0,1,0,0,0,0,0,0,0,0,0,0,-0.5,-0.5,-0.5,-0.5,-0.5,-0.5,-0.5,-0.5,-0.5,-0.5,-0.5,linear,0.025,TRUE,6,poolmodel,4e-4,-0.10527335971588059,0.017455307373984322,0,10000
10,250,0,125,250,375,500,625,750,875,1000,1125,2,0,1,0,0,0,0,0,0,0,0,0,0,-0.5,-0.5,-0.5,-0.5,-0.5,-0.5,-0.5,-0.5,-0.5,-0.5,-0.5,linear,0.025,TRUE,6,sepmodel,0.0254,3.1092240244803257e-4,0.008097386270681147,0,10000
10,250,0,125,250,375,500,625,750,875,1000,1125,2,0,1,0,0,0,0,0,0,0,0,0,0,-0.5,-0.5,-0.5,-0.5,-0.5,-0.5,-0.5,-0.5,-0.5,-0.5,-0.5,linear,0.025,TRUE,7,fixmodel,0.0277,0.0011594367871338742,0.007016751692313758,0,10000
10,250,0,125,250,375,500,625,750,875,1000,1125,2,0,1,0,0,0,0,0,0,0,0,0,0,-0.5,-0.5,-0.5,-0.5,-0.5,-0.5,-0.5,-0.5,-0.5,-0.5,-0.5,linear,0.025,TRUE,7,poolmodel,1e-4,-0.11901616079322626,0.02049368728675507,0,10000
10,250,0,125,250,375,500,625,750,875,1000,1125,2,0,1,0,0,0,0,0,0,0,0,0,0,-0.5,-0.5,-0.5,-0.5,-0.5,-0.5,-0.5,-0.5,-0.5,-0.5,-0.5,linear,0.025,TRUE,7,sepmodel,0.0245,6.208121267146277e-4,0.008061566805344695,0,10000
10,250,0,125,250,375,500,625,750,875,1000,1125,2,0,1,0,0,0,0,0,0,0,0,0,0,-0.5,-0.5,-0.5,-0.5,-0.5,-0.5,-0.5,-0.5,-0.5,-0.5,-0.5,linear,0.025,TRUE,8,fixmodel,0.0228,-5.3591917056586406e-5,0.006752917645650706,0,10000
10,250,0,125,250,375,500,625,750,875,1000,1125,2,0,1,0,0,0,0,0,0,0,0,0,0,-0.5,-0.5,-0.5,-0.5,-0.5,-0.5,-0.5,-0.5,-0.5,-0.5,-0.5,linear,0.025,TRUE,8,poolmodel,2e-4,-0.13269554948182513,0.023640658911293775,0,10000
10,250,0,125,250,375,500,625,750,875,1000,1125,2,0,1,0,0,0,0,0,0,0,0,0,0,-0.5,-0.5,-0.5,-0.5,-0.5,-0.5,-0.5,-0.5,-0.5,-0.5,-0.5,linear,0.025,TRUE,8,sepmodel,0.0231,-7.434520489497446e-4,0.007902424972565469,0,10000
10,250,0,125,250,375,500,625,750,875,1000,1125,2,0,1,0,0,0,0,0,0,0,0,0,0,-0.5,-0.5,-0.5,-0.5,-0.5,-0.5,-0.5,-0.5,-0.5,-0.5,-0.5,linear,0.025,TRUE,9,fixmodel,0.0275,3.3526621671098366e-4,0.006916888080845881,0,10000
10,250,0,125,250,375,500,625,750,875,1000,1125,2,0,1,0,0,0,0,0,0,0,0,0,0,-0.5,-0.5,-0.5,-0.5,-0.5,-0.5,-0.5,-0.5,-0.5,-0.5,-0.5,linear,0.025,TRUE,9,poolmodel,0,-0.14279065694528648,0.02659823433228611,0,10000
10,250,0,125,250,375,500,625,750,875,1000,1125,2,0,1,0,0,0,0,0,0,0,0,0,0,-0.5,-0.5,-0.5,-0.5,-0.5,-0.5,-0.5,-0.5,-0.5,-0.5,-0.5,linear,0.025,TRUE,9,sepmodel,0.0249,-1.8114436397430607e-4,0.008086174895908385,0,10000
10,250,0,125,250,375,500,625,750,875,1000,1125,2,0,1,0,0,0,0,0,0,0,0,0,0,-0.5,-0.5,-0.5,-0.5,-0.5,-0.5,-0.5,-0.5,-0.5,-0.5,-0.5,linear,0.025,TRUE,10,fixmodel,0.0266,1.527677023391401e-4,0.006677539874542726,0,10000
10,250,0,125,250,375,500,625,750,875,1000,1125,2,0,1,0,0,0,0,0,0,0,0,0,0,-0.5,-0.5,-0.5,-0.5,-0.5,-0.5,-0.5,-0.5,-0.5,-0.5,-0.5,linear,0.025,TRUE,10,poolmodel,0,-0.15140183307149652,0.02887947913431211,0,10000
10,250,0,125,250,375,500,625,750,875,1000,1125,2,0,1,0,0,0,0,0,0,0,0,0,0,-0.5,-0.5,-0.5,-0.5,-0.5,-0.5,-0.5,-0.5,-0.5,-0.5,-0.5,linear,0.025,TRUE,10,sepmodel,0.0265,-2.1720595773716582e-4,0.007903031221443884,0,10000
10,250,0,150,300,450,600,750,900,1050,1200,1350,2,0,1,0,0,0,0,0,0,0,0,0,0,-0.5,-0.5,-0.5,-0.5,-0.5,-0.5,-0.5,-0.5,-0.5,-0.5,-0.5,linear,0.025,TRUE,2,fixmodel,0.0247,-3.3395240831645247e-4,0.007563601915294543,0,10000
10,250,0,150,300,450,600,750,900,1050,1200,1350,2,0,1,0,0,0,0,0,0,0,0,0,0,-0.5,-0.5,-0.5,-0.5,-0.5,-0.5,-0.5,-0.5,-0.5,-0.5,-0.5,linear,0.025,TRUE,2,poolmodel,0.0121,-0.025107549885625045,0.007718140121874891,0,10000
10,250,0,150,300,450,600,750,900,1050,1200,1350,2,0,1,0,0,0,0,0,0,0,0,0,0,-0.5,-0.5,-0.5,-0.5,-0.5,-0.5,-0.5,-0.5,-0.5,-0.5,-0.5,linear,0.025,TRUE,2,sepmodel,0.0239,-3.00701107766704e-5,0.007990782355917053,0,10000
10,250,0,150,300,450,600,750,900,1050,1200,1350,2,0,1,0,0,0,0,0,0,0,0,0,0,-0.5,-0.5,-0.5,-0.5,-0.5,-0.5,-0.5,-0.5,-0.5,-0.5,-0.5,linear,0.025,TRUE,3,fixmodel,0.0256,-8.534959913719081e-4,0.0074639617234929035,0,10000
10,250,0,150,300,450,600,750,900,1050,1200,1350,2,0,1,0,0,0,0,0,0,0,0,0,0,-0.5,-0.5,-0.5,-0.5,-0.5,-0.5,-0.5,-0.5,-0.5,-0.5,-0.5,linear,0.025,TRUE,3,poolmodel,0.0055,-0.05179877936830873,0.009515934171752009,0,10000
10,250,0,150,300,450,600,750,900,1050,1200,1350,2,0,1,0,0,0,0,0,0,0,0,0,0,-0.5,-0.5,-0.5,-0.5,-0.5,-0.5,-0.5,-0.5,-0.5,-0.5,-0.5,linear,0.025,TRUE,3,sepmodel,0.0255,-7.700964306896742e-4,0.008129008805525046,0,10000
10,250,0,150,300,450,600,750,900,1050,1200,1350,2,0,1,0,0,0,0,0,0,0,0,0,0,-0.5,-0.5,-0.5,-0.5,-0.5,-0.5,-0.5,-0.5,-0.5,-0.5,-0.5,linear,0.025,TRUE,4,fixmodel,0.0268,-8.915092593547463e-4,0.007070732116788613,0,10000
10,250,0,150,300,450,600,750,900,1050,1200,1350,2,0,1,0,0,0,0,0,0,0,0,0,0,-0.5,-0.5,-0.5,-0.5,-0.5,-0.5,-0.5,-0.5,-0.5,-0.5,-0.5,linear,0.025,TRUE,4,poolmodel,0.0015,-0.07605595246680504,0.01210562301838332,0,10000
10,250,0,150,300,450,600,750,900,1050,1200,1350,2,0,1,0,0,0,0,0,0,0,0,0,0,-0.5,-0.5,-0.5,-0.5,-0.5,-0.5,-0.5,-0.5,-0.5,-0.5,-0.5,linear,0.025,TRUE,4,sepmodel,0.025,-9.417319432274438e-4,0.00788570430979091,0,10000
10,250,0,150,300,450,600,750,900,1050,1200,1350,2,0,1,0,0,0,0,0,0,0,0,0,0,-0.5,-0.5,-0.5,-0.5,-0.5,-0.5,-0.5,-0.5,-0.5,-0.5,-0.5,linear,0.025,TRUE,5,fixmodel,0.0244,-0.0017877268860235602,0.007079252681183264,0,10000
10,250,0,150,300,450,600,750,900,1050,1200,1350,2,0,1,0,0,0,0,0,0,0,0,0,0,-0.5,-0.5,-0.5,-0.5,-0.5,-0.5,-0.5,-0.5,-0.5,-0.5,-0.5,linear,0.025,TRUE,5,poolmodel,9e-4,-0.09796488484670988,0.01588128179998074,0,10000
10,250,0,150,300,450,600,750,900,1050,1200,1350,2,0,1,0,0,0,0,0,0,0,0,0,0,-0.5,-0.5,-0.5,-0.5,-0.5,-0.5,-0.5,-0.5,-0.5,-0.5,-0.5,linear,0.025,TRUE,5,sepmodel,0.0226,-0.0018481467383431537,0.008069423318361855,0,10000
10,250,0,150,300,450,600,750,900,1050,1200,1350,2,0,1,0,0,0,0,0,0,0,0,0,0,-0.5,-0.5,-0.5,-0.5,-0.5,-0.5,-0.5,-0.5,-0.5,-0.5,-0.5,linear,0.025,TRUE,6,fixmodel,0.0242,-8.213046320095309e-4,0.006997638991468569,0,10000
10,250,0,150,300,450,600,750,900,1050,1200,1350,2,0,1,0,0,0,0,0,0,0,0,0,0,-0.5,-0.5,-0.5,-0.5,-0.5,-0.5,-0.5,-0.5,-0.5,-0.5,-0.5,linear,0.025,TRUE,6,poolmodel,1e-4,-0.11512559935535963,0.01944252910284307,0,10000
10,250,0,150,300,450,600,750,900,1050,1200,1350,2,0,1,0,0,0,0,0,0,0,0,0,0,-0.5,-0.5,-0.5,-0.5,-0.5,-0.5,-0.5,-0.5,-0.5,-0.5,-0.5,linear,0.025,TRUE,6,sepmodel,0.024,-0.0010581726430823305,0.007980199339325424,0,10000
10,250,0,150,300,450,600,750,900,1050,1200,1350,2,0,1,0,0,0,0,0,0,0,0,0,0,-0.5,-0.5,-0.5,-0.5,-0.5,-0.5,-0.5,-0.5,-0.5,-0.5,-0.5,linear,0.025,TRUE,7,fixmodel,0.023,-0.002414225683811238,0.006817848963302972,0,10000
10,250,0,150,300,450,600,750,900,1050,1200,1350,2,0,1,0,0,0,0,0,0,0,0,0,0,-0.5,-0.5,-0.5,-0.5,-0.5,-0.5,-0.5,-0.5,-0.5,-0.5,-0.5,linear,0.025,TRUE,7,poolmodel,0,-0.13287811787015244,0.023717607140697247,0,10000
10,250,0,150,300,450,600,750,900,1050,1200,1350,2,0,1,0,0,0,0,0,0,0,0,0,0,-0.5,-0.5,-0.5,-0.5,-0.5,-0.5,-0.5,-0.5,-0.5,-0.5,-0.5,linear,0.025,TRUE,7,sepmodel,0.0203,-0.002511477730681104,0.007835307435015816,0,10000
10,250,0,150,300,450,600,750,900,1050,1200,1350,2,0,1,0,0,0,0,0,0,0,0,0,0,-0.5,-0.5,-0.5,-0.5,-0.5,-0.5,-0.5,-0.5,-0.5,-0.5,-0.5,linear,0.025,TRUE,8,fixmodel,0.0233,-2.8698958301690658e-5,0.006782996344722599,0,10000
10,250,0,150,300,450,600,750,900,1050,1200,1350,2,0,1,0,0,0,0,0,0,0,0,0,0,-0.5,-0.5,-0.5,-0.5,-0.5,-0.5,-0.5,-0.5,-0.5,-0.5,-0.5,linear,0.025,TRUE,8,poolmodel,0,-0.14463244901552527,0.02687555366574702,0,10000
10,250,0,150,300,450,600,750,900,1050,1200,1350,2,0,1,0,0,0,0,0,0,0,0,0,0,-0.5,-0.5,-0.5,-0.5,-0.5,-0.5,-0.5,-0.5,-0.5,-0.5,-0.5,linear,0.025,TRUE,8,sepmodel,0.0232,4.760973025686174e-6,0.007963592930049033,0,10000
10,250,0,150,300,450,600,750,900,1050,1200,1350,2,0,1,0,0,0,0,0,0,0,0,0,0,-0.5,-0.5,-0.5,-0.5,-0.5,-0.5,-0.5,-0.5,-0.5,-0.5,-0.5,linear,0.025,TRUE,9,fixmodel,0.022,-0.0015088894566969045,0.006687894003407586,0,10000
10,250,0,150,300,450,600,750,900,1050,1200,1350,2,0,1,0,0,0,0,0,0,0,0,0,0,-0.5,-0.5,-0.5,-0.5,-0.5,-0.5,-0.5,-0.5,-0.5,-0.5,-0.5,linear,0.025,TRUE,9,poolmodel,0,-0.15803932134981802,0.030843562497732794,0,10000
10,250,0,150,300,450,600,750,900,1050,1200,1350,2,0,1,0,0,0,0,0,0,0,0,0,0,-0.5,-0.5,-0.5,-0.5,-0.5,-0.5,-0.5,-0.5,-0.5,-0.5,-0.5,linear,0.025,TRUE,9,sepmodel,0.0242,-0.00124684701232075,0.007881556164759586,0,10000
10,250,0,150,300,450,600,750,900,1050,1200,1350,2,0,1,0,0,0,0,0,0,0,0,0,0,-0.5,-0.5,-0.5,-0.5,-0.5,-0.5,-0.5,-0.5,-0.5,-0.5,-0.5,linear,0.025,TRUE,10,fixmodel,0.0241,-0.0016024471931829986,0.006893068041302614,0,10000
10,250,0,150,300,450,600,750,900,1050,1200,1350,2,0,1,0,0,0,0,0,0,0,0,0,0,-0.5,-0.5,-0.5,-0.5,-0.5,-0.5,-0.5,-0.5,-0.5,-0.5,-0.5,linear,0.025,TRUE,10,poolmodel,0,-0.16862630092571756,0.03436695296609556,0,10000
10,250,0,150,300,450,600,750,900,1050,1200,1350,2,0,1,0,0,0,0,0,0,0,0,0,0,-0.5,-0.5,-0.5,-0.5,-0.5,-0.5,-0.5,-0.5,-0.5,-0.5,-0.5,linear,0.025,TRUE,10,sepmodel,0.0235,-0.0014789894887095234,0.0081207982053215309,0,10000
10,250,0,175,350,525,700,875,1050,1225,1400,1575,2,0,1,0,0,0,0,0,0,0,0,0,0,-0.5,-0.5,-0.5,-0.5,-0.5,-0.5,-0.5,-0.5,-0.5,-0.5,-0.5,linear,0.025,TRUE,2,fixmodel,0.0269,-2.714247111157948e-4,0.007582478840181235,0,10000
10,250,0,175,350,525,700,875,1050,1225,1400,1575,2,0,1,0,0,0,0,0,0,0,0,0,0,-0.5,-0.5,-0.5,-0.5,-0.5,-0.5,-0.5,-0.5,-0.5,-0.5,-0.5,linear,0.025,TRUE,2,poolmodel,0.0136,-0.025809465255541304,0.007657789056329503,0,10000
10,250,0,175,350,525,700,875,1050,1225,1400,1575,2,0,1,0,0,0,0,0,0,0,0,0,0,-0.5,-0.5,-0.5,-0.5,-0.5,-0.5,-0.5,-0.5,-0.5,-0.5,-0.5,linear,0.025,TRUE,2,sepmodel,0.0251,2.025959886737119e-4,0.00804754325083407,0,10000
10,250,0,175,350,525,700,875,1050,1225,1400,1575,2,0,1,0,0,0,0,0,0,0,0,0,0,-0.5,-0.5,-0.5,-0.5,-0.5,-0.5,-0.5,-0.5,-0.5,-0.5,-0.5,linear,0.025,TRUE,3,fixmodel,0.0245,-8.623768104083146e-4,0.007370218343789944,0,10000
10,250,0,175,350,525,700,875,1050,1225,1400,1575,2,0,1,0,0,0,0,0,0,0,0,0,0,-0.5,-0.5,-0.5,-0.5,-0.5,-0.5,-0.5,-0.5,-0.5,-0.5,-0.5,linear,0.025,TRUE,3,poolmodel,0.0055,-0.052690179093078215,0.0093203573413295,0,10000
10,250,0,175,350,525,700,875,1050,1225,1400,1575,2,0,1,0,0,0,0,0,0,0,0,0,0,-0.5,-0.5,-0.5,-0.5,-0.5,-0.5,-0.5,-0.5,-0.5,-0.5,-0.5,linear,0.025,TRUE,3,sepmodel,0.0275,-3.6331262944976533e-4,0.008110489465478278,0,10000
10,250,0,175,350,525,700,875,1050,1225,1400,1575,2,0,1,0,0,0,0,0,0,0,0,0,0,-0.5,-0.5,-0.5,-0.5,-0.5,-0.5,-0.5,-0.5,-0.5,-0.5,-0.5,linear,0.025,TRUE,4,fixmodel,0.0237,-0.0018294911448432714,0.0070903359196285015,0,10000
10,250,0,175,350,525,700,875,1050,1225,1400,1575,2,0,1,0,0,0,0,0,0,0,0,0,0,-0.5,-0.5,-0.5,-0.5,-0.5,-0.5,-0.5,-0.5,-0.5,-0.5,-0.5,linear,0.025,TRUE,4,poolmodel,0.0021,-0.07918491420848149,0.012496055473086373,0,10000
10,250,0,175,350,525,700,875,1050,1225,1400,1575,2,0,1,0,0,0,0,0,0,0,0,0,0,-0.5,-0.5,-0.5,-0.5,-0.5,-0.5,-0.5,-0.5,-0.5,-0.5,-0.5,linear,0.025,TRUE,4,sepmodel,0.0243,-0.0011861204841987182,0.007956830796082146,0,10000
10,250,0,175,350,525,700,875,1050,1225,1400,1575,2,0,1,0,0,0,0,0,0,0,0,0,0,-0.5,-0.5,-0.5,-0.5,-0.5,-0.5,-0.5,-0.5,-0.5,-0.5,-0.5,linear,0.025,TRUE,5,fixmodel,0.0247,3.5431894853581847e-4,0.007124293292328591,0,10000
10,250,0,175,350,525,700,875,1050,1225,1400,1575,2,0,1,0,0,0,0,0,0,0,0,0,0,-0.5,-0.5,-0.5,-0.5,-0.5,-0.5,-0.5,-0.5,-0.5,-0.5,-0.5,linear,0.025,TRUE,5,poolmodel,3e-4,-0.09973782863091614,0.016036055166611808,0,10000
10,250,0,175,350,525,700,875,1050,1225,1400,1575,2,0,1,0,0,0,0,0,0,0,0,0,0,-0.5,-0.5,-0.5,-0.5,-0.5,-0.5,-0.5,-0.5,-0.5,-0.5,-0.5,linear,0.025,TRUE,5,sepmodel,0.0254,7.873432463235181e-4,0.008099982493230918,0,10000
10,250,0,175,350,525,700,875,1050,1225,1400,1575,2,0,1,0,0,0,0,0,0,0,0,0,0,-0.5,-0.5,-0.5,-0.5,-0.5,-0.5,-0.5,-0.5,-0.5,-0.5,-0.5,linear,0.025,TRUE,6,fixmodel,0.0252,-2.9780700965442426e-4,0.007065098401624633,0,10000
10,250,0,175,350,525,700,875,1050,1225,1400,1575,2,0,1,0,0,0,0,0,0,0,0,0,0,-0.5,-0.5,-0.5,-0.5,-0.5,-0.5,-0.5,-0.5,-0.5,-0.5,-0.5,linear,0.025,TRUE,6,poolmodel,5e-4,-0.12040604079021855,0.020593396757496052,0,10000
10,250,0,175,350,525,700,875,1050,1225,1400,1575,2,0,1,0,0,0,0,0,0,0,0,0,0,-0.5,-0.5,-0.5,-0.5,-0.5,-0.5,-0.5,-0.5,-0.5,-0.5,-0.5,linear,0.025,TRUE,6,sepmodel,0.0272,2.6038592163915466e-4,0.008115486125179048,0,10000
10,250,0,175,350,525,700,875,1050,1225,1400,1575,2,0,1,0,0,0,0,0,0,0,0,0,0,-0.5,-0.5,-0.5,-0.5,-0.5,-0.5,-0.5,-0.5,-0.5,-0.5,-0.5,linear,0.025,TRUE,7,fixmodel,0.0229,-0.0014029842583228236,0.006771343536362446,0,10000
10,250,0,175,350,525,700,875,1050,1225,1400,1575,2,0,1,0,0,0,0,0,0,0,0,0,0,-0.5,-0.5,-0.5,-0.5,-0.5,-0.5,-0.5,-0.5,-0.5,-0.5,-0.5,linear,0.025,TRUE,7,poolmodel,1e-4,-0.14099316981435903,0.02576607763084921,0,10000
10,250,0,175,350,525,700,875,1050,1225,1400,1575,2,0,1,0,0,0,0,0,0,0,0,0,0,-0.5,-0.5,-0.5,-0.5,-0.5,-0.5,-0.5,-0.5,-0.5,-0.5,-0.5,linear,0.025,TRUE,7,sepmodel,0.0217,-9.701458552439787e-4,0.007832108782554708,0,10000
10,250,0,175,350,525,700,875,1050,1225,1400,1575,2,0,1,0,0,0,0,0,0,0,0,0,0,-0.5,-0.5,-0.5,-0.5,-0.5,-0.5,-0.5,-0.5,-0.5,-0.5,-0.5,linear,0.025,TRUE,8,fixmodel,0.0265,-7.297501579513649e-4,0.006863804182899435,0,10000
10,250,0,175,350,525,700,875,1050,1225,1400,1575,2,0,1,0,0,0,0,0,0,0,0,0,0,-0.5,-0.5,-0.5,-0.5,-0.5,-0.5,-0.5,-0.5,-0.5,-0.5,-0.5,linear,0.025,TRUE,8,poolmodel,1e-4,-0.15659261855587855,0.03036484710798547,0,10000
10,250,0,175,350,525,700,875,1050,1225,1400,1575,2,0,1,0,0,0,0,0,0,0,0,0,0,-0.5,-0.5,-0.5,-0.5,-0.5,-0.5,-0.5,-0.5,-0.5,-0.5,-0.5,linear,0.025,TRUE,8,sepmodel,0.0261,-5.600480597274301e-4,0.00807555310220422,0,10000
10,250,0,175,350,525,700,875,1050,1225,1400,1575,2,0,1,0,0,0,0,0,0,0,0,0,0,-0.5,-0.5,-0.5,-0.5,-0.5,-0.5,-0.5,-0.5,-0.5,-0.5,-0.5,linear,0.025,TRUE,9,fixmodel,0.0261,-2.9424391904094536e-4,0.006706629415197009,0,10000
10,250,0,175,350,525,700,875,1050,1225,1400,1575,2,0,1,0,0,0,0,0,0,0,0,0,0,-0.5,-0.5,-0.5,-0.5,-0.5,-0.5,-0.5,-0.5,-0.5,-0.5,-0.5,linear,0.025,TRUE,9,poolmodel,0,-0.16978921575065867,0.03449954053106711,0,10000
10,250,0,175,350,525,700,875,1050,1225,1400,1575,2,0,1,0,0,0,0,0,0,0,0,0,0,-0.5,-0.5,-0.5,-0.5,-0.5,-0.5,-0.5,-0.5,-0.5,-0.5,-0.5,linear,0.025,TRUE,9,sepmodel,0.0242,-1.8442546722951102e-4,0.007882294388369964,0,10000
10,250,0,175,350,525,700,875,1050,1225,1400,1575,2,0,1,0,0,0,0,0,0,0,0,0,0,-0.5,-0.5,-0.5,-0.5,-0.5,-0.5,-0.5,-0.5,-0.5,-0.5,-0.5,linear,0.025,TRUE,10,fixmodel,0.0244,1.2716915076551815e-4,0.006680437167023879,0,10000
10,250,0,175,350,525,700,875,1050,1225,1400,1575,2,0,1,0,0,0,0,0,0,0,0,0,0,-0.5,-0.5,-0.5,-0.5,-0.5,-0.5,-0.5,-0.5,-0.5,-0.5,-0.5,linear,0.025,TRUE,10,poolmodel,0,-0.18095816367570133,0.03841798300444617,0,10000
10,250,0,175,350,525,700,875,1050,1225,1400,1575,2,0,1,0,0,0,0,0,0,0,0,0,0,-0.5,-0.5,-0.5,-0.5,-0.5,-0.5,-0.5,-0.5,-0.5,-0.5,-0.5,linear,0.025,TRUE,10,sepmodel,0.0255,5.719201512595478e-4,0.007860570815475705,0,10000
10,250,0,200,400,600,800,1000,1200,1400,1600,1800,2,0,1,0,0,0,0,0,0,0,0,0,0,-0.5,-0.5,-0.5,-0.5,-0.5,-0.5,-0.5,-0.5,-0.5,-0.5,-0.5,linear,0.025,TRUE,2,fixmodel,0.0237,-6.838719356694536e-4,0.007509818373852722,0,10000
10,250,0,200,400,600,800,1000,1200,1400,1600,1800,2,0,1,0,0,0,0,0,0,0,0,0,0,-0.5,-0.5,-0.5,-0.5,-0.5,-0.5,-0.5,-0.5,-0.5,-0.5,-0.5,linear,0.025,TRUE,2,poolmodel,0.0114,-0.026740509110055544,0.007516566113512658,0,10000
10,250,0,200,400,600,800,1000,1200,1400,1600,1800,2,0,1,0,0,0,0,0,0,0,0,0,0,-0.5,-0.5,-0.5,-0.5,-0.5,-0.5,-0.5,-0.5,-0.5,-0.5,-0.5,linear,0.025,TRUE,2,sepmodel,0.0242,-8.051337007760506e-4,0.008031954373796293,0,10000
10,250,0,200,400,600,800,1000,1200,1400,1600,1800,2,0,1,0,0,0,0,0,0,0,0,0,0,-0.5,-0.5,-0.5,-0.5,-0.5,-0.5,-0.5,-0.5,-0.5,-0.5,-0.5,linear,0.025,TRUE,3,fixmodel,0.0249,3.217521283630376e-4,0.00720210957964346,0,10000
10,250,0,200,400,600,800,1000,1200,1400,1600,1800,2,0,1,0,0,0,0,0,0,0,0,0,0,-0.5,-0.5,-0.5,-0.5,-0.5,-0.5,-0.5,-0.5,-0.5,-0.5,-0.5,linear,0.025,TRUE,3,poolmodel,0.0046,-0.05249775824507522,0.009208861611313145,0,10000
10,250,0,200,400,600,800,1000,1200,1400,1600,1800,2,0,1,0,0,0,0,0,0,0,0,0,0,-0.5,-0.5,-0.5,-0.5,-0.5,-0.5,-0.5,-0.5,-0.5,-0.5,-0.5,linear,0.025,TRUE,3,sepmodel,0.0268,4.25381232201205e-4,0.007980526862867406,0,10000
10,250,0,200,400,600,800,1000,1200,1400,1600,1800,2,0,1,0,0,0,0,0,0,0,0,0,0,-0.5,-0.5,-0.5,-0.5,-0.5,-0.5,-0.5,-0.5,-0.5,-0.5,-0.5,linear,0.025,TRUE,4,fixmodel,0.0253,-0.0012011616817657036,0.007357984552086248,0,10000
10,250,0,200,400,600,800,1000,1200,1400,1600,1800,2,0,1,0,0,0,0,0,0,0,0,0,0,-0.5,-0.5,-0.5,-0.5,-0.5,-0.5,-0.5,-0.5,-0.5,-0.5,-0.5,linear,0.025,TRUE,4,poolmodel,0.0019,-0.07923726288679049,0.01258064076326726,0,10000
10,250,0,200,400,600,800,1000,1200,1400,1600,1800,2,0,1,0,0,0,0,0,0,0,0,0,0,-0.5,-0.5,-0.5,-0.5,-0.5,-0.5,-0.5,-0.5,-0.5,-0.5,-0.5,linear,0.025,TRUE,4,sepmodel,0.0265,-9.128300539443891e-4,0.008237046924277316,0,10000
10,250,0,200,400,600,800,1000,1200,1400,1600,1800,2,0,1,0,0,0,0,0,0,0,0,0,0,-0.5,-0.5,-0.5,-0.5,-0.5,-0.5,-0.5,-0.5,-0.5,-0.5,-0.5,linear,0.025,TRUE,5,fixmodel,0.0238,-0.0012880395418621569,0.006971386245199797,0,10000
10,250,0,200,400,600,800,1000,1200,1400,1600,1800,2,0,1,0,0,0,0,0,0,0,0,0,0,-0.5,-0.5,-0.5,-0.5,-0.5,-0.5,-0.5,-0.5,-0.5,-0.5,-0.5,linear,0.025,TRUE,5,poolmodel,7e-4,-0.1031768932296757,0.016556675226764034,0,10000
10,250,0,200,400,600,800,1000,1200,1400,1600,1800,2,0,1,0,0,0,0,0,0,0,0,0,0,-0.5,-0.5,-0.5,-0.5,-0.5,-0.5,-0.5,-0.5,-0.5,-0.5,-0.5,linear,0.025,TRUE,5,sepmodel,0.0244,-9.448211195974619e-4,0.007927883718072097,0,10000
10,250,0,200,400,600,800,1000,1200,1400,1600,1800,2,0,1,0,0,0,0,0,0,0,0,0,0,-0.5,-0.5,-0.5,-0.5,-0.5,-0.5,-0.5,-0.5,-0.5,-0.5,-0.5,linear,0.025,TRUE,6,fixmodel,0.024,-1.1441254848418035e-5,0.0070177285947557845,0,10000
10,250,0,200,400,600,800,1000,1200,1400,1600,1800,2,0,1,0,0,0,0,0,0,0,0,0,0,-0.5,-0.5,-0.5,-0.5,-0.5,-0.5,-0.5,-0.5,-0.5,-0.5,-0.5,linear,0.025,TRUE,6,poolmodel,2e-4,-0.126271322170091,0.021851789242875678,0,10000
10,250,0,200,400,600,800,1000,1200,1400,1600,1800,2,0,1,0,0,0,0,0,0,0,0,0,0,-0.5,-0.5,-0.5,-0.5,-0.5,-0.5,-0.5,-0.5,-0.5,-0.5,-0.5,linear,0.025,TRUE,6,sepmodel,0.0231,4.570786855524852e-4,0.008103344870183802,0,10000
10,250,0,200,400,600,800,1000,1200,1400,1600,1800,2,0,1,0,0,0,0,0,0,0,0,0,0,-0.5,-0.5,-0.5,-0.5,-0.5,-0.5,-0.5,-0.5,-0.5,-0.5,-0.5,linear,0.025,TRUE,7,fixmodel,0.0259,1.5512935371257916e-4,0.006957205887961319,0,10000
10,250,0,200,400,600,800,1000,1200,1400,1600,1800,2,0,1,0,0,0,0,0,0,0,0,0,0,-0.5,-0.5,-0.5,-0.5,-0.5,-0.5,-0.5,-0.5,-0.5,-0.5,-0.5,linear,0.025,TRUE,7,poolmodel,0,-0.14641942631308805,0.027266318467567583,0,10000
10,250,0,200,400,600,800,1000,1200,1400,1600,1800,2,0,1,0,0,0,0,0,0,0,0,0,0,-0.5,-0.5,-0.5,-0.5,-0.5,-0.5,-0.5,-0.5,-0.5,-0.5,-0.5,linear,0.025,TRUE,7,sepmodel,0.0255,2.0202812783341574e-4,0.008101797553201574,0,10000
10,250,0,200,400,600,800,1000,1200,1400,1600,1800,2,0,1,0,0,0,0,0,0,0,0,0,0,-0.5,-0.5,-0.5,-0.5,-0.5,-0.5,-0.5,-0.5,-0.5,-0.5,-0.5,linear,0.025,TRUE,8,fixmodel,0.0293,6.374964611027915e-5,0.006989301597580207,0,10000
10,250,0,200,400,600,800,1000,1200,1400,1600,1800,2,0,1,0,0,0,0,0,0,0,0,0,0,-0.5,-0.5,-0.5,-0.5,-0.5,-0.5,-0.5,-0.5,-0.5,-0.5,-0.5,linear,0.025,TRUE,8,poolmodel,0,-0.16469840043263045,0.03287264695314611,0,10000
10,250,0,200,400,600,800,1000,1200,1400,1600,1800,2,0,1,0,0,0,0,0,0,0,0,0,0,-0.5,-0.5,-0.5,-0.5,-0.5,-0.5,-0.5,-0.5,-0.5,-0.5,-0.5,linear,0.025,TRUE,8,sepmodel,0.0265,5.38620991871574e-5,0.008247488428979247,0,10000
10,250,0,200,400,600,800,1000,1200,1400,1600,1800,2,0,1,0,0,0,0,0,0,0,0,0,0,-0.5,-0.5,-0.5,-0.5,-0.5,-0.5,-0.5,-0.5,-0.5,-0.5,-0.5,linear,0.025,TRUE,9,fixmodel,0.0233,-6.790669023621564e-4,0.0066944393826133056,0,10000
10,250,0,200,400,600,800,1000,1200,1400,1600,1800,2,0,1,0,0,0,0,0,0,0,0,0,0,-0.5,-0.5,-0.5,-0.5,-0.5,-0.5,-0.5,-0.5,-0.5,-0.5,-0.5,linear,0.025,TRUE,9,poolmodel,0,-0.18103848348747162,0.038222967856981045,0,10000
10,250,0,200,400,600,800,1000,1200,1400,1600,1800,2,0,1,0,0,0,0,0,0,0,0,0,0,-0.5,-0.5,-0.5,-0.5,-0.5,-0.5,-0.5,-0.5,-0.5,-0.5,-0.5,linear,0.025,TRUE,9,sepmodel,0.0256,-4.421056645525371e-4,0.008029627400954135,0,10000
10,250,0,200,400,600,800,1000,1200,1400,1600,1800,2,0,1,0,0,0,0,0,0,0,0,0,0,-0.5,-0.5,-0.5,-0.5,-0.5,-0.5,-0.5,-0.5,-0.5,-0.5,-0.5,linear,0.025,TRUE,10,fixmodel,0.0245,-3.4147360198164326e-4,0.006802624752399771,0,10000
10,250,0,200,400,600,800,1000,1200,1400,1600,1800,2,0,1,0,0,0,0,0,0,0,0,0,0,-0.5,-0.5,-0.5,-0.5,-0.5,-0.5,-0.5,-0.5,-0.5,-0.5,-0.5,linear,0.025,TRUE,10,poolmodel,0,-0.193120691130011,0.042857980298204305,0,10000
10,250,0,200,400,600,800,1000,1200,1400,1600,1800,2,0,1,0,0,0,0,0,0,0,0,0,0,-0.5,-0.5,-0.5,-0.5,-0.5,-0.5,-0.5,-0.5,-0.5,-0.5,-0.5,linear,0.025,TRUE,10,sepmodel,0.0241,-2.2114727256945457e-4,0.008178829983003701,0,10000
10,250,0,225,450,675,900,1125,1350,1575,1800,2025,2,0,1,0,0,0,0,0,0,0,0,0,0,-0.5,-0.5,-0.5,-0.5,-0.5,-0.5,-0.5,-0.5,-0.5,-0.5,-0.5,linear,0.025,TRUE,2,fixmodel,0.0238,7.048855104266063e-4,0.0072894488696126315,0,10000
10,250,0,225,450,675,900,1125,1350,1575,1800,2025,2,0,1,0,0,0,0,0,0,0,0,0,0,-0.5,-0.5,-0.5,-0.5,-0.5,-0.5,-0.5,-0.5,-0.5,-0.5,-0.5,linear,0.025,TRUE,2,poolmodel,0.0106,-0.026404916512287803,0.007349642571721914,0,10000
10,250,0,225,450,675,900,1125,1350,1575,1800,2025,2,0,1,0,0,0,0,0,0,0,0,0,0,-0.5,-0.5,-0.5,-0.5,-0.5,-0.5,-0.5,-0.5,-0.5,-0.5,-0.5,linear,0.025,TRUE,2,sepmodel,0.0243,7.198644932468869e-4,0.0078536569518787,0,10000
10,250,0,225,450,675,900,1125,1350,1575,1800,2025,2,0,1,0,0,0,0,0,0,0,0,0,0,-0.5,-0.5,-0.5,-0.5,-0.5,-0.5,-0.5,-0.5,-0.5,-0.5,-0.5,linear,0.025,TRUE,3,fixmodel,0.0265,-2.1712322012831114e-4,0.0073173847363906,0,10000
10,250,0,225,450,675,900,1125,1350,1575,1800,2025,2,0,1,0,0,0,0,0,0,0,0,0,0,-0.5,-0.5,-0.5,-0.5,-0.5,-0.5,-0.5,-0.5,-0.5,-0.5,-0.5,linear,0.025,TRUE,3,poolmodel,0.0045,-0.05354565893178217,0.00919511533754592,0,10000
10,250,0,225,450,675,900,1125,1350,1575,1800,2025,2,0,1,0,0,0,0,0,0,0,0,0,0,-0.5,-0.5,-0.5,-0.5,-0.5,-0.5,-0.5,-0.5,-0.5,-0.5,-0.5,linear,0.025,TRUE,3,sepmodel,0.0269,-1.7294489797234613e-4,0.00808062613896295,0,10000
10,250,0,225,450,675,900,1125,1350,1575,1800,2025,2,0,1,0,0,0,0,0,0,0,0,0,0,-0.5,-0.5,-0.5,-0.5,-0.5,-0.5,-0.5,-0.5,-0.5,-0.5,-0.5,linear,0.025,TRUE,4,fixmodel,0.0261,8.955603174071355e-4,0.007231477291020486,0,10000
10,250,0,225,450,675,900,1125,1350,1575,1800,2025,2,0,1,0,0,0,0,0,0,0,0,0,0,-0.5,-0.5,-0.5,-0.5,-0.5,-0.5,-0.5,-0.5,-0.5,-0.5,-0.5,linear,0.025,TRUE,4,poolmodel,0.0019,-0.0760704994256519,0.011875852911408427,0,10000
10,250,0,225,450,675,900,1125,1350,1575,1800,2025,2,0,1,0,0,0,0,0,0,0,0,0,0,-0.5,-0.5,-0.5,-0.5,-0.5,-0.5,-0.5,-0.5,-0.5,-0.5,-0.5,linear,0.025,TRUE,4,sepmodel,0.0242,9.937441006104258e-4,0.008049794365444448,0,10000
10,250,0,225,450,675,900,1125,1350,1575,1800,2025,2,0,1,0,0,0,0,0,0,0,0,0,0,-0.5,-0.5,-0.5,-0.5,-0.5,-0.5,-0.5,-0.5,-0.5,-0.5,-0.5,linear,0.025,TRUE,5,fixmodel,0.0266,8.516592802816008e-4,0.00713326086989554,0,10000
10,250,0,225,450,675,900,1125,1350,1575,1800,2025,2,0,1,0,0,0,0,0,0,0,0,0,0,-0.5,-0.5,-0.5,-0.5,-0.5,-0.5,-0.5,-0.5,-0.5,-0.5,-0.5,linear,0.025,TRUE,5,poolmodel,5e-4,-0.10328541750203109,0.016577878811921666,0,10000
10,250,0,225,450,675,900,1125,1350,1575,1800,2025,2,0,1,0,0,0,0,0,0,0,0,0,0,-0.5,-0.5,-0.5,-0.5,-0.5,-0.5,-0.5,-0.5,-0.5,-0.5,-0.5,linear,0.025,TRUE,5,sepmodel,0.0256,7.891898142033804e-4,0.008037444328576818,0,10000
10,250,0,225,450,675,900,1125,1350,1575,1800,2025,2,0,1,0,0,0,0,0,0,0,0,0,0,-0.5,-0.5,-0.5,-0.5,-0.5,-0.5,-0.5,-0.5,-0.5,-0.5,-0.5,linear,0.025,TRUE,6,fixmodel,0.0238,5.82191011927908e-4,0.007006239015539643,0,10000
10,250,0,225,450,675,900,1125,1350,1575,1800,2025,2,0,1,0,0,0,0,0,0,0,0,0,0,-0.5,-0.5,-0.5,-0.5,-0.5,-0.5,-0.5,-0.5,-0.5,-0.5,-0.5,linear,0.025,TRUE,6,poolmodel,0,-0.1280500531451284,0.022124645118795826,0,10000
10,250,0,225,450,675,900,1125,1350,1575,1800,2025,2,0,1,0,0,0,0,0,0,0,0,0,0,-0.5,-0.5,-0.5,-0.5,-0.5,-0.5,-0.5,-0.5,-0.5,-0.5,-0.5,linear,0.025,TRUE,6,sepmodel,0.0244,1.2481618718379814e-4,0.007987707975321333,0,10000
10,250,0,225,450,675,900,1125,1350,1575,1800,2025,2,0,1,0,0,0,0,0,0,0,0,0,0,-0.5,-0.5,-0.5,-0.5,-0.5,-0.5,-0.5,-0.5,-0.5,-0.5,-0.5,linear,0.025,TRUE,7,fixmodel,0.0236,-7.911803969873187e-5,0.006767248809327549,0,10000
10,250,0,225,450,675,900,1125,1350,1575,1800,2025,2,0,1,0,0,0,0,0,0,0,0,0,0,-0.5,-0.5,-0.5,-0.5,-0.5,-0.5,-0.5,-0.5,-0.5,-0.5,-0.5,linear,0.025,TRUE,7,poolmodel,1e-4,-0.1511032115932089,0.02834428152954093,0,10000
10,250,0,225,450,675,900,1125,1350,1575,1800,2025,2,0,1,0,0,0,0,0,0,0,0,0,0,-0.5,-0.5,-0.5,-0.5,-0.5,-0.5,-0.5,-0.5,-0.5,-0.5,-0.5,linear,0.025,TRUE,7,sepmodel,0.0228,-6.074529390045655e-4,0.007845610890631563,0,10000
10,250,0,225,450,675,900,1125,1350,1575,1800,2025,2,0,1,0,0,0,0,0,0,0,0,0,0,-0.5,-0.5,-0.5,-0.5,-0.5,-0.5,-0.5,-0.5,-0.5,-0.5,-0.5,linear,0.025,TRUE,8,fixmodel,0.0247,3.865257523293467e-4,0.006815015729078601,0,10000
10,250,0,225,450,675,900,1125,1350,1575,1800,2025,2,0,1,0,0,0,0,0,0,0,0,0,0,-0.5,-0.5,-0.5,-0.5,-0.5,-0.5,-0.5,-0.5,-0.5,-0.5,-0.5,linear,0.025,TRUE,8,poolmodel,1e-4,-0.17071553474028978,0.03455607099854327,0,10000
10,250,0,225,450,675,900,1125,1350,1575,1800,2025,2,0,1,0,0,0,0,0,0,0,0,0,0,-0.5,-0.5,-0.5,-0.5,-0.5,-0.5,-0.5,-0.5,-0.5,-0.5,-0.5,linear,0.025,TRUE,8,sepmodel,0.0247,1.4709757154765578e-4,0.007988372725039501,0,10000
10,250,0,225,450,675,900,1125,1350,1575,1800,2025,2,0,1,0,0,0,0,0,0,0,0,0,0,-0.5,-0.5,-0.5,-0.5,-0.5,-0.5,-0.5,-0.5,-0.5,-0.5,-0.5,linear,0.025,TRUE,9,fixmodel,0.0269,-1.554370515109535e-4,0.006988636013009895,0,10000
10,250,0,225,450,675,900,1125,1350,1575,1800,2025,2,0,1,0,0,0,0,0,0,0,0,0,0,-0.5,-0.5,-0.5,-0.5,-0.5,-0.5,-0.5,-0.5,-0.5,-0.5,-0.5,linear,0.025,TRUE,9,poolmodel,0,-0.18790528302144247,0.04087749119595562,0,10000
10,250,0,225,450,675,900,1125,1350,1575,1800,2025,2,0,1,0,0,0,0,0,0,0,0,0,0,-0.5,-0.5,-0.5,-0.5,-0.5,-0.5,-0.5,-0.5,-0.5,-0.5,-0.5,linear,0.025,TRUE,9,sepmodel,0.0253,-4.6265501591915073e-4,0.008246620617434999,0,10000
10,250,0,225,450,675,900,1125,1350,1575,1800,2025,2,0,1,0,0,0,0,0,0,0,0,0,0,-0.5,-0.5,-0.5,-0.5,-0.5,-0.5,-0.5,-0.5,-0.5,-0.5,-0.5,linear,0.025,TRUE,10,fixmodel,0.0238,-0.0011691498529535441,0.00693043752698135,0,10000
10,250,0,225,450,675,900,1125,1350,1575,1800,2025,2,0,1,0,0,0,0,0,0,0,0,0,0,-0.5,-0.5,-0.5,-0.5,-0.5,-0.5,-0.5,-0.5,-0.5,-0.5,-0.5,linear,0.025,TRUE,10,poolmodel,0,-0.2023239553007606,0.046384646835022816,0,10000
10,250,0,225,450,675,900,1125,1350,1575,1800,2025,2,0,1,0,0,0,0,0,0,0,0,0,0,-0.5,-0.5,-0.5,-0.5,-0.5,-0.5,-0.5,-0.5,-0.5,-0.5,-0.5,linear,0.025,TRUE,10,sepmodel,0.0255,-0.0012213236798248788,0.008199894825708983,0,10000
10,250,0,250,500,750,1000,1250,1500,1750,2000,2250,2,0,1,0,0,0,0,0,0,0,0,0,0,-0.5,-0.5,-0.5,-0.5,-0.5,-0.5,-0.5,-0.5,-0.5,-0.5,-0.5,linear,0.025,TRUE,2,fixmodel,0.0241,2.9391133810887656e-4,0.007531119227186693,0,10000
10,250,0,250,500,750,1000,1250,1500,1750,2000,2250,2,0,1,0,0,0,0,0,0,0,0,0,0,-0.5,-0.5,-0.5,-0.5,-0.5,-0.5,-0.5,-0.5,-0.5,-0.5,-0.5,linear,0.025,TRUE,2,poolmodel,0.0096,-0.02715432869143458,0.007466989796388906,0,10000
10,250,0,250,500,750,1000,1250,1500,1750,2000,2250,2,0,1,0,0,0,0,0,0,0,0,0,0,-0.5,-0.5,-0.5,-0.5,-0.5,-0.5,-0.5,-0.5,-0.5,-0.5,-0.5,linear,0.025,TRUE,2,sepmodel,0.0245,1.8305515761656504e-4,0.008055095032688357,0,10000
10,250,0,250,500,750,1000,1250,1500,1750,2000,2250,2,0,1,0,0,0,0,0,0,0,0,0,0,-0.5,-0.5,-0.5,-0.5,-0.5,-0.5,-0.5,-0.5,-0.5,-0.5,-0.5,linear,0.025,TRUE,3,fixmodel,0.026,-5.438775322363843e-4,0.007413508927161401,0,10000
10,250,0,250,500,750,1000,1250,1500,1750,2000,2250,2,0,1,0,0,0,0,0,0,0,0,0,0,-0.5,-0.5,-0.5,-0.5,-0.5,-0.5,-0.5,-0.5,-0.5,-0.5,-0.5,linear,0.025,TRUE,3,poolmodel,0.0032,-0.05380439442100784,0.0090937445445339,0,10000
10,250,0,250,500,750,1000,1250,1500,1750,2000,2250,2,0,1,0,0,0,0,0,0,0,0,0,0,-0.5,-0.5,-0.5,-0.5,-0.5,-0.5,-0.5,-0.5,-0.5,-0.5,-0.5,linear,0.025,TRUE,3,sepmodel,0.0247,-4.5212085787782187e-4,0.008046615672178268,0,10000
10,250,0,250,500,750,1000,1250,1500,1750,2000,2250,2,0,1,0,0,0,0,0,0,0,0,0,0,-0.5,-0.5,-0.5,-0.5,-0.5,-0.5,-0.5,-0.5,-0.5,-0.5,-0.5,linear,0.025,TRUE,4,fixmodel,0.0271,7.782587480201452e-4,0.00735536858226564,0,10000
10,250,0,250,500,750,1000,1250,1500,1750,2000,2250,2,0,1,0,0,0,0,0,0,0,0,0,0,-0.5,-0.5,-0.5,-0.5,-0.5,-0.5,-0.5,-0.5,-0.5,-0.5,-0.5,linear,0.025,TRUE,4,poolmodel,0.0016,-0.07766394693238415,0.012033080007878425,0,10000
10,250,0,250,500,750,1000,1250,1500,1750,2000,2250,2,0,1,0,0,0,0,0,0,0,0,0,0,-0.5,-0.5,-0.5,-0.5,-0.5,-0.5,-0.5,-0.5,-0.5,-0.5,-0.5,linear,0.025,TRUE,4,sepmodel,0.0246,0.001237418248923454,0.00811637132787461,0,10000
10,250,0,250,500,750,1000,1250,1500,1750,2000,2250,2,0,1,0,0,0,0,0,0,0,0,0,0,-0.5,-0.5,-0.5,-0.5,-0.5,-0.5,-0.5,-0.5,-0.5,-0.5,-0.5,linear,0.025,TRUE,5,fixmodel,0.0263,6.919739421490311e-4,0.0070156035994855806,0,10000
10,250,0,250,500,750,1000,1250,1500,1750,2000,2250,2,0,1,0,0,0,0,0,0,0,0,0,0,-0.5,-0.5,-0.5,-0.5,-0.5,-0.5,-0.5,-0.5,-0.5,-0.5,-0.5,linear,0.025,TRUE,5,poolmodel,2e-4,-0.10451112013932265,0.016589246245539712,0,10000
10,250,0,250,500,750,1000,1250,1500,1750,2000,2250,2,0,1,0,0,0,0,0,0,0,0,0,0,-0.5,-0.5,-0.5,-0.5,-0.5,-0.5,-0.5,-0.5,-0.5,-0.5,-0.5,linear,0.025,TRUE,5,sepmodel,0.0262,7.024611221540799e-4,0.007938459676259358,0,10000
10,250,0,250,500,750,1000,1250,1500,1750,2000,2250,2,0,1,0,0,0,0,0,0,0,0,0,0,-0.5,-0.5,-0.5,-0.5,-0.5,-0.5,-0.5,-0.5,-0.5,-0.5,-0.5,linear,0.025,TRUE,6,fixmodel,0.0249,-3.1773121171450175e-4,0.006955895381686557,0,10000
10,250,0,250,500,750,1000,1250,1500,1750,2000,2250,2,0,1,0,0,0,0,0,0,0,0,0,0,-0.5,-0.5,-0.5,-0.5,-0.5,-0.5,-0.5,-0.5,-0.5,-0.5,-0.5,linear,0.025,TRUE,6,poolmodel,0,-0.1302742370909902,0.022528255596696627,0,10000
10,250,0,250,500,750,1000,1250,1500,1750,2000,2250,2,0,1,0,0,0,0,0,0,0,0,0,0,-0.5,-0.5,-0.5,-0.5,-0.5,-0.5,-0.5,-0.5,-0.5,-0.5,-0.5,linear,0.025,TRUE,6,sepmodel,0.0238,-2.218831508956974e-4,0.007928157729568829,0,10000
10,250,0,250,500,750,1000,1250,1500,1750,2000,2250,2,0,1,0,0,0,0,0,0,0,0,0,0,-0.5,-0.5,-0.5,-0.5,-0.5,-0.5,-0.5,-0.5,-0.5,-0.5,-0.5,linear,0.025,TRUE,7,fixmodel,0.0275,-2.837396168556445e-4,0.006903810104368651,0,10000
10,250,0,250,500,750,1000,1250,1500,1750,2000,2250,2,0,1,0,0,0,0,0,0,0,0,0,0,-0.5,-0.5,-0.5,-0.5,-0.5,-0.5,-0.5,-0.5,-0.5,-0.5,-0.5,linear,0.025,TRUE,7,poolmodel,0,-0.15431953956510164,0.029150260245759143,0,10000
10,250,0,250,500,750,1000,1250,1500,1750,2000,2250,2,0,1,0,0,0,0,0,0,0,0,0,0,-0.5,-0.5,-0.5,-0.5,-0.5,-0.5,-0.5,-0.5,-0.5,-0.5,-0.5,linear,0.025,TRUE,7,sepmodel,0.0255,1.7455066468783728e-4,0.00799477070072316,0,10000
10,250,0,250,500,750,1000,1250,1500,1750,2000,2250,2,0,1,0,0,0,0,0,0,0,0,0,0,-0.5,-0.5,-0.5,-0.5,-0.5,-0.5,-0.5,-0.5,-0.5,-0.5,-0.5,linear,0.025,TRUE,8,fixmodel,0.0285,-2.7128653308963047e-4,0.007029654249738035,0,10000
10,250,0,250,500,750,1000,1250,1500,1750,2000,2250,2,0,1,0,0,0,0,0,0,0,0,0,0,-0.5,-0.5,-0.5,-0.5,-0.5,-0.5,-0.5,-0.5,-0.5,-0.5,-0.5,linear,0.025,TRUE,8,poolmodel,0,-0.17615475862242946,0.0363840255967684,0,10000
10,250,0,250,500,750,1000,1250,1500,1750,2000,2250,2,0,1,0,0,0,0,0,0,0,0,0,0,-0.5,-0.5,-0.5,-0.5,-0.5,-0.5,-0.5,-0.5,-0.5,-0.5,-0.5,linear,0.025,TRUE,8,sepmodel,0.0277,2.2640186939748612e-4,0.008222180578564754,0,10000
10,250,0,250,500,750,1000,1250,1500,1750,2000,2250,2,0,1,0,0,0,0,0,0,0,0,0,0,-0.5,-0.5,-0.5,-0.5,-0.5,-0.5,-0.5,-0.5,-0.5,-0.5,-0.5,linear,0.025,TRUE,9,fixmodel,0.0248,-4.955153651137082e-4,0.006814795012311049,0,10000
10,250,0,250,500,750,1000,1250,1500,1750,2000,2250,2,0,1,0,0,0,0,0,0,0,0,0,0,-0.5,-0.5,-0.5,-0.5,-0.5,-0.5,-0.5,-0.5,-0.5,-0.5,-0.5,linear,0.025,TRUE,9,poolmodel,0,-0.19472361353845843,0.04312186882842689,0,10000
10,250,0,250,500,750,1000,1250,1500,1750,2000,2250,2,0,1,0,0,0,0,0,0,0,0,0,0,-0.5,-0.5,-0.5,-0.5,-0.5,-0.5,-0.5,-0.5,-0.5,-0.5,-0.5,linear,0.025,TRUE,9,sepmodel,0.0249,-3.654249892771262e-4,0.007924938570902372,0,10000
10,250,0,250,500,750,1000,1250,1500,1750,2000,2250,2,0,1,0,0,0,0,0,0,0,0,0,0,-0.5,-0.5,-0.5,-0.5,-0.5,-0.5,-0.5,-0.5,-0.5,-0.5,-0.5,linear,0.025,TRUE,10,fixmodel,0.0237,5.833671777935963e-4,0.006885346416546358,0,10000
10,250,0,250,500,750,1000,1250,1500,1750,2000,2250,2,0,1,0,0,0,0,0,0,0,0,0,0,-0.5,-0.5,-0.5,-0.5,-0.5,-0.5,-0.5,-0.5,-0.5,-0.5,-0.5,linear,0.025,TRUE,10,poolmodel,0,-0.20829114589415854,0.048617336199724054,0,10000
10,250,0,250,500,750,1000,1250,1500,1750,2000,2250,2,0,1,0,0,0,0,0,0,0,0,0,0,-0.5,-0.5,-0.5,-0.5,-0.5,-0.5,-0.5,-0.5,-0.5,-0.5,-0.5,linear,0.025,TRUE,10,sepmodel,0.0241,7.373561539931986e-4,0.008035122142208488,0,10000
10,250,0,275,550,825,1100,1375,1650,1925,2200,2475,2,0,1,0,0,0,0,0,0,0,0,0,0,-0.5,-0.5,-0.5,-0.5,-0.5,-0.5,-0.5,-0.5,-0.5,-0.5,-0.5,linear,0.025,TRUE,2,fixmodel,0.0241,-6.49819179509754e-4,0.0073776684463104664,0,10000
10,250,0,275,550,825,1100,1375,1650,1925,2200,2475,2,0,1,0,0,0,0,0,0,0,0,0,0,-0.5,-0.5,-0.5,-0.5,-0.5,-0.5,-0.5,-0.5,-0.5,-0.5,-0.5,linear,0.025,TRUE,2,poolmodel,0.0094,-0.028571627913138168,0.007351252142683579,0,10000
10,250,0,275,550,825,1100,1375,1650,1925,2200,2475,2,0,1,0,0,0,0,0,0,0,0,0,0,-0.5,-0.5,-0.5,-0.5,-0.5,-0.5,-0.5,-0.5,-0.5,-0.5,-0.5,linear,0.025,TRUE,2,sepmodel,0.0244,-3.3503406693147686e-4,0.007997843402237824,0,10000
10,250,0,275,550,825,1100,1375,1650,1925,2200,2475,2,0,1,0,0,0,0,0,0,0,0,0,0,-0.5,-0.5,-0.5,-0.5,-0.5,-0.5,-0.5,-0.5,-0.5,-0.5,-0.5,linear,0.025,TRUE,3,fixmodel,0.0236,-8.633979533709624e-4,0.007407841944690663,0,10000
10,250,0,275,550,825,1100,1375,1650,1925,2200,2475,2,0,1,0,0,0,0,0,0,0,0,0,0,-0.5,-0.5,-0.5,-0.5,-0.5,-0.5,-0.5,-0.5,-0.5,-0.5,-0.5,linear,0.025,TRUE,3,poolmodel,0.0044,-0.053750843995307884,0.008926526524143134,0,10000
10,250,0,275,550,825,1100,1375,1650,1925,2200,2475,2,0,1,0,0,0,0,0,0,0,0,0,0,-0.5,-0.5,-0.5,-0.5,-0.5,-0.5,-0.5,-0.5,-0.5,-0.5,-0.5,linear,0.025,TRUE,3,sepmodel,0.0248,-0.0010082875578608231,0.008072558864065157,0,10000
10,250,0,275,550,825,1100,1375,1650,1925,2200,2475,2,0,1,0,0,0,0,0,0,0,0,0,0,-0.5,-0.5,-0.5,-0.5,-0.5,-0.5,-0.5,-0.5,-0.5,-0.5,-0.5,linear,0.025,TRUE,4,fixmodel,0.0255,5.736745076168889e-5,0.007141586726136031,0,10000
10,250,0,275,550,825,1100,1375,1650,1925,2200,2475,2,0,1,0,0,0,0,0,0,0,0,0,0,-0.5,-0.5,-0.5,-0.5,-0.5,-0.5,-0.5,-0.5,-0.5,-0.5,-0.5,linear,0.025,TRUE,4,poolmodel,0.0017,-0.07948906276457028,0.012047958502181308,0,10000
10,250,0,275,550,825,1100,1375,1650,1925,2200,2475,2,0,1,0,0,0,0,0,0,0,0,0,0,-0.5,-0.5,-0.5,-0.5,-0.5,-0.5,-0.5,-0.5,-0.5,-0.5,-0.5,linear,0.025,TRUE,4,sepmodel,0.0246,-5.378197842409804e-5,0.007952070734958717,0,10000
10,250,0,275,550,825,1100,1375,1650,1925,2200,2475,2,0,1,0,0,0,0,0,0,0,0,0,0,-0.5,-0.5,-0.5,-0.5,-0.5,-0.5,-0.5,-0.5,-0.5,-0.5,-0.5,linear,0.025,TRUE,5,fixmodel,0.0256,1.1733494178182665e-4,0.0071598999970509504,0,10000
10,250,0,275,550,825,1100,1375,1650,1925,2200,2475,2,0,1,0,0,0,0,0,0,0,0,0,0,-0.5,-0.5,-0.5,-0.5,-0.5,-0.5,-0.5,-0.5,-0.5,-0.5,-0.5,linear,0.025,TRUE,5,poolmodel,3e-4,-0.10455581913016176,0.01648101515977538,0,10000
10,250,0,275,550,825,1100,1375,1650,1925,2200,2475,2,0,1,0,0,0,0,0,0,0,0,0,0,-0.5,-0.5,-0.5,-0.5,-0.5,-0.5,-0.5,-0.5,-0.5,-0.5,-0.5,linear,0.025,TRUE,5,sepmodel,0.0238,1.3984318385254274e-4,0.00806077689119681,0,10000
10,250,0,275,550,825,1100,1375,1650,1925,2200,2475,2,0,1,0,0,0,0,0,0,0,0,0,0,-0.5,-0.5,-0.5,-0.5,-0.5,-0.5,-0.5,-0.5,-0.5,-0.5,-0.5,linear,0.025,TRUE,6,fixmodel,0.0251,0.0010340122151305945,0.007101363427367363,0,10000
10,250,0,275,550,825,1100,1375,1650,1925,2200,2475,2,0,1,0,0,0,0,0,0,0,0,0,0,-0.5,-0.5,-0.5,-0.5,-0.5,-0.5,-0.5,-0.5,-0.5,-0.5,-0.5,linear,0.025,TRUE,6,poolmodel,1e-4,-0.12966705299457684,0.022255982523772297,0,10000
10,250,0,275,550,825,1100,1375,1650,1925,2200,2475,2,0,1,0,0,0,0,0,0,0,0,0,0,-0.5,-0.5,-0.5,-0.5,-0.5,-0.5,-0.5,-0.5,-0.5,-0.5,-0.5,linear,0.025,TRUE,6,sepmodel,0.0261,9.938674667626306e-4,0.008075346657643218,0,10000
10,250,0,275,550,825,1100,1375,1650,1925,2200,2475,2,0,1,0,0,0,0,0,0,0,0,0,0,-0.5,-0.5,-0.5,-0.5,-0.5,-0.5,-0.5,-0.5,-0.5,-0.5,-0.5,linear,0.025,TRUE,7,fixmodel,0.0255,0.001569817797813005,0.006977124469349119,0,10000
10,250,0,275,550,825,1100,1375,1650,1925,2200,2475,2,0,1,0,0,0,0,0,0,0,0,0,0,-0.5,-0.5,-0.5,-0.5,-0.5,-0.5,-0.5,-0.5,-0.5,-0.5,-0.5,linear,0.025,TRUE,7,poolmodel,0,-0.15453021207102938,0.029171541049069525,0,10000
10,250,0,275,550,825,1100,1375,1650,1925,2200,2475,2,0,1,0,0,0,0,0,0,0,0,0,0,-0.5,-0.5,-0.5,-0.5,-0.5,-0.5,-0.5,-0.5,-0.5,-0.5,-0.5,linear,0.025,TRUE,7,sepmodel,0.027,0.001509677667583255,0.007983385411150132,0,10000
10,250,0,275,550,825,1100,1375,1650,1925,2200,2475,2,0,1,0,0,0,0,0,0,0,0,0,0,-0.5,-0.5,-0.5,-0.5,-0.5,-0.5,-0.5,-0.5,-0.5,-0.5,-0.5,linear,0.025,TRUE,8,fixmodel,0.0272,8.187149386655094e-4,0.007187644252159802,0,10000
10,250,0,275,550,825,1100,1375,1650,1925,2200,2475,2,0,1,0,0,0,0,0,0,0,0,0,0,-0.5,-0.5,-0.5,-0.5,-0.5,-0.5,-0.5,-0.5,-0.5,-0.5,-0.5,linear,0.025,TRUE,8,poolmodel,0,-0.17763490219452438,0.03690001227835843,0,10000
10,250,0,275,550,825,1100,1375,1650,1925,2200,2475,2,0,1,0,0,0,0,0,0,0,0,0,0,-0.5,-0.5,-0.5,-0.5,-0.5,-0.5,-0.5,-0.5,-0.5,-0.5,-0.5,linear,0.025,TRUE,8,sepmodel,0.0281,0.0010048567769292197,0.00819139345095552,0,10000
10,250,0,275,550,825,1100,1375,1650,1925,2200,2475,2,0,1,0,0,0,0,0,0,0,0,0,0,-0.5,-0.5,-0.5,-0.5,-0.5,-0.5,-0.5,-0.5,-0.5,-0.5,-0.5,linear,0.025,TRUE,9,fixmodel,0.0248,3.558816922024888e-4,0.0069711525674215225,0,10000
10,250,0,275,550,825,1100,1375,1650,1925,2200,2475,2,0,1,0,0,0,0,0,0,0,0,0,0,-0.5,-0.5,-0.5,-0.5,-0.5,-0.5,-0.5,-0.5,-0.5,-0.5,-0.5,linear,0.025,TRUE,9,poolmodel,0,-0.19806799157078503,0.044394172681613914,0,10000
10,250,0,275,550,825,1100,1375,1650,1925,2200,2475,2,0,1,0,0,0,0,0,0,0,0,0,0,-0.5,-0.5,-0.5,-0.5,-0.5,-0.5,-0.5,-0.5,-0.5,-0.5,-0.5,linear,0.025,TRUE,9,sepmodel,0.0266,4.6385076193093314e-4,0.008068947549238228,0,10000
10,250,0,275,550,825,1100,1375,1650,1925,2200,2475,2,0,1,0,0,0,0,0,0,0,0,0,0,-0.5,-0.5,-0.5,-0.5,-0.5,-0.5,-0.5,-0.5,-0.5,-0.5,-0.5,linear,0.025,TRUE,10,fixmodel,0.0269,-4.619809110966402e-4,0.0069731175524568485,0,10000
10,250,0,275,550,825,1100,1375,1650,1925,2200,2475,2,0,1,0,0,0,0,0,0,0,0,0,0,-0.5,-0.5,-0.5,-0.5,-0.5,-0.5,-0.5,-0.5,-0.5,-0.5,-0.5,linear,0.025,TRUE,10,poolmodel,0,-0.21470147728849026,0.05115183482403288,0,10000
10,250,0,275,550,825,1100,1375,1650,1925,2200,2475,2,0,1,0,0,0,0,0,0,0,0,0,0,-0.5,-0.5,-0.5,-0.5,-0.5,-0.5,-0.5,-0.5,-0.5,-0.5,-0.5,linear,0.025,TRUE,10,sepmodel,0.0253,-3.925901126755619e-4,0.008048172572477547,0,10000
10,250,0,300,600,900,1200,1500,1800,2100,2400,2700,2,0,1,0,0,0,0,0,0,0,0,0,0,-0.5,-0.5,-0.5,-0.5,-0.5,-0.5,-0.5,-0.5,-0.5,-0.5,-0.5,linear,0.025,TRUE,2,fixmodel,0.0246,1.8057876052481468e-4,0.007377592346067568,0,10000
10,250,0,300,600,900,1200,1500,1800,2100,2400,2700,2,0,1,0,0,0,0,0,0,0,0,0,0,-0.5,-0.5,-0.5,-0.5,-0.5,-0.5,-0.5,-0.5,-0.5,-0.5,-0.5,linear,0.025,TRUE,2,poolmodel,0.0109,-0.027600880343330348,0.007238751051975306,0,10000
10,250,0,300,600,900,1200,1500,1800,2100,2400,2700,2,0,1,0,0,0,0,0,0,0,0,0,0,-0.5,-0.5,-0.5,-0.5,-0.5,-0.5,-0.5,-0.5,-0.5,-0.5,-0.5,linear,0.025,TRUE,2,sepmodel,0.0246,2.918524228727718e-4,0.0078876405742193,0,10000
10,250,0,300,600,900,1200,1500,1800,2100,2400,2700,2,0,1,0,0,0,0,0,0,0,0,0,0,-0.5,-0.5,-0.5,-0.5,-0.5,-0.5,-0.5,-0.5,-0.5,-0.5,-0.5,linear,0.025,TRUE,3,fixmodel,0.0248,7.374428396607518e-4,0.007394885489981498,0,10000
10,250,0,300,600,900,1200,1500,1800,2100,2400,2700,2,0,1,0,0,0,0,0,0,0,0,0,0,-0.5,-0.5,-0.5,-0.5,-0.5,-0.5,-0.5,-0.5,-0.5,-0.5,-0.5,linear,0.025,TRUE,3,poolmodel,0.0047,-0.051077646129349265,0.008575884069872903,0,10000
10,250,0,300,600,900,1200,1500,1800,2100,2400,2700,2,0,1,0,0,0,0,0,0,0,0,0,0,-0.5,-0.5,-0.5,-0.5,-0.5,-0.5,-0.5,-0.5,-0.5,-0.5,-0.5,linear,0.025,TRUE,3,sepmodel,0.0248,0.001018470065688646,0.0079474306535511,0,10000
10,250,0,300,600,900,1200,1500,1800,2100,2400,2700,2,0,1,0,0,0,0,0,0,0,0,0,0,-0.5,-0.5,-0.5,-0.5,-0.5,-0.5,-0.5,-0.5,-0.5,-0.5,-0.5,linear,0.025,TRUE,4,fixmodel,0.0263,0.0013746553949673557,0.007240896419210153,0,10000
10,250,0,300,600,900,1200,1500,1800,2100,2400,2700,2,0,1,0,0,0,0,0,0,0,0,0,0,-0.5,-0.5,-0.5,-0.5,-0.5,-0.5,-0.5,-0.5,-0.5,-0.5,-0.5,linear,0.025,TRUE,4,poolmodel,0.0013,-0.07797181512570102,0.011732603536022543,0,10000
10,250,0,300,600,900,1200,1500,1800,2100,2400,2700,2,0,1,0,0,0,0,0,0,0,0,0,0,-0.5,-0.5,-0.5,-0.5,-0.5,-0.5,-0.5,-0.5,-0.5,-0.5,-0.5,linear,0.025,TRUE,4,sepmodel,0.0247,0.0017046685276366673,0.008039269385841048,0,10000
10,250,0,300,600,900,1200,1500,1800,2100,2400,2700,2,0,1,0,0,0,0,0,0,0,0,0,0,-0.5,-0.5,-0.5,-0.5,-0.5,-0.5,-0.5,-0.5,-0.5,-0.5,-0.5,linear,0.025,TRUE,5,fixmodel,0.0227,5.312096109028137e-6,0.007062874104615085,0,10000
10,250,0,300,600,900,1200,1500,1800,2100,2400,2700,2,0,1,0,0,0,0,0,0,0,0,0,0,-0.5,-0.5,-0.5,-0.5,-0.5,-0.5,-0.5,-0.5,-0.5,-0.5,-0.5,linear,0.025,TRUE,5,poolmodel,2e-4,-0.10474405771953721,0.0163236483342501,0,10000
10,250,0,300,600,900,1200,1500,1800,2100,2400,2700,2,0,1,0,0,0,0,0,0,0,0,0,0,-0.5,-0.5,-0.5,-0.5,-0.5,-0.5,-0.5,-0.5,-0.5,-0.5,-0.5,linear,0.025,TRUE,5,sepmodel,0.0229,2.820139168942793e-4,0.007843425271481052,0,10000
10,250,0,300,600,900,1200,1500,1800,2100,2400,2700,2,0,1,0,0,0,0,0,0,0,0,0,0,-0.5,-0.5,-0.5,-0.5,-0.5,-0.5,-0.5,-0.5,-0.5,-0.5,-0.5,linear,0.025,TRUE,6,fixmodel,0.0256,-5.160370059480038e-4,0.007206322287514644,0,10000
10,250,0,300,600,900,1200,1500,1800,2100,2400,2700,2,0,1,0,0,0,0,0,0,0,0,0,0,-0.5,-0.5,-0.5,-0.5,-0.5,-0.5,-0.5,-0.5,-0.5,-0.5,-0.5,linear,0.025,TRUE,6,poolmodel,1e-4,-0.130190595757023,0.022269240280271663,0,10000
10,250,0,300,600,900,1200,1500,1800,2100,2400,2700,2,0,1,0,0,0,0,0,0,0,0,0,0,-0.5,-0.5,-0.5,-0.5,-0.5,-0.5,-0.5,-0.5,-0.5,-0.5,-0.5,linear,0.025,TRUE,6,sepmodel,0.0259,-3.8821051524839267e-4,0.00797408515039331,0,10000
10,250,0,300,600,900,1200,1500,1800,2100,2400,2700,2,0,1,0,0,0,0,0,0,0,0,0,0,-0.5,-0.5,-0.5,-0.5,-0.5,-0.5,-0.5,-0.5,-0.5,-0.5,-0.5,linear,0.025,TRUE,7,fixmodel,0.0216,4.5293214506304417e-4,0.006926748582993581,0,10000
10,250,0,300,600,900,1200,1500,1800,2100,2400,2700,2,0,1,0,0,0,0,0,0,0,0,0,0,-0.5,-0.5,-0.5,-0.5,-0.5,-0.5,-0.5,-0.5,-0.5,-0.5,-0.5,linear,0.025,TRUE,7,poolmodel,0,-0.15470111034669765,0.02910352497633204,0,10000
10,250,0,300,600,900,1200,1500,1800,2100,2400,2700,2,0,1,0,0,0,0,0,0,0,0,0,0,-0.5,-0.5,-0.5,-0.5,-0.5,-0.5,-0.5,-0.5,-0.5,-0.5,-0.5,linear,0.025,TRUE,7,sepmodel,0.0221,1.9371760864910064e-4,0.007736750691647609,0,10000
10,250,0,300,600,900,1200,1500,1800,2100,2400,2700,2,0,1,0,0,0,0,0,0,0,0,0,0,-0.5,-0.5,-0.5,-0.5,-0.5,-0.5,-0.5,-0.5,-0.5,-0.5,-0.5,linear,0.025,TRUE,8,fixmodel,0.0258,8.074968382426796e-4,0.006997585278858783,0,10000
10,250,0,300,600,900,1200,1500,1800,2100,2400,2700,2,0,1,0,0,0,0,0,0,0,0,0,0,-0.5,-0.5,-0.5,-0.5,-0.5,-0.5,-0.5,-0.5,-0.5,-0.5,-0.5,linear,0.025,TRUE,8,poolmodel,0,-0.17873104160611486,0.03697824708594271,0,10000
10,250,0,300,600,900,1200,1500,1800,2100,2400,2700,2,0,1,0,0,0,0,0,0,0,0,0,0,-0.5,-0.5,-0.5,-0.5,-0.5,-0.5,-0.5,-0.5,-0.5,-0.5,-0.5,linear,0.025,TRUE,8,sepmodel,0.0256,1.9121909238166635e-4,0.007896096701016734,0,10000
10,250,0,300,600,900,1200,1500,1800,2100,2400,2700,2,0,1,0,0,0,0,0,0,0,0,0,0,-0.5,-0.5,-0.5,-0.5,-0.5,-0.5,-0.5,-0.5,-0.5,-0.5,-0.5,linear,0.025,TRUE,9,fixmodel,0.0269,5.919290417520604e-4,0.007008412925044355,0,10000
10,250,0,300,600,900,1200,1500,1800,2100,2400,2700,2,0,1,0,0,0,0,0,0,0,0,0,0,-0.5,-0.5,-0.5,-0.5,-0.5,-0.5,-0.5,-0.5,-0.5,-0.5,-0.5,linear,0.025,TRUE,9,poolmodel,0,-0.20051707089696988,0.045093045754431,0,10000
10,250,0,300,600,900,1200,1500,1800,2100,2400,2700,2,0,1,0,0,0,0,0,0,0,0,0,0,-0.5,-0.5,-0.5,-0.5,-0.5,-0.5,-0.5,-0.5,-0.5,-0.5,-0.5,linear,0.025,TRUE,9,sepmodel,0.0277,-1.4296700920573584e-4,0.008011554986361252,0,10000
10,250,0,300,600,900,1200,1500,1800,2100,2400,2700,2,0,1,0,0,0,0,0,0,0,0,0,0,-0.5,-0.5,-0.5,-0.5,-0.5,-0.5,-0.5,-0.5,-0.5,-0.5,-0.5,linear,0.025,TRUE,10,fixmodel,0.0247,3.184957734223321e-4,0.0070328349120466396,0,10000
10,250,0,300,600,900,1200,1500,1800,2100,2400,2700,2,0,1,0,0,0,0,0,0,0,0,0,0,-0.5,-0.5,-0.5,-0.5,-0.5,-0.5,-0.5,-0.5,-0.5,-0.5,-0.5,linear,0.025,TRUE,10,poolmodel,0,-0.2176645645779888,0.05225058202115783,0,10000
10,250,0,300,600,900,1200,1500,1800,2100,2400,2700,2,0,1,0,0,0,0,0,0,0,0,0,0,-0.5,-0.5,-0.5,-0.5,-0.5,-0.5,-0.5,-0.5,-0.5,-0.5,-0.5,linear,0.025,TRUE,10,sepmodel,0.025,-5.060898490018593e-4,0.007923468873705587,0,10000
10,250,0,325,650,975,1300,1625,1950,2275,2600,2925,2,0,1,0,0,0,0,0,0,0,0,0,0,-0.5,-0.5,-0.5,-0.5,-0.5,-0.5,-0.5,-0.5,-0.5,-0.5,-0.5,linear,0.025,TRUE,2,fixmodel,0.0247,-1.6818774904092668e-4,0.0074884811123326405,0,10000
10,250,0,325,650,975,1300,1625,1950,2275,2600,2925,2,0,1,0,0,0,0,0,0,0,0,0,0,-0.5,-0.5,-0.5,-0.5,-0.5,-0.5,-0.5,-0.5,-0.5,-0.5,-0.5,linear,0.025,TRUE,2,poolmodel,0.0107,-0.02798625681146285,0.0071977431936261415,0,10000
10,250,0,325,650,975,1300,1625,1950,2275,2600,2925,2,0,1,0,0,0,0,0,0,0,0,0,0,-0.5,-0.5,-0.5,-0.5,-0.5,-0.5,-0.5,-0.5,-0.5,-0.5,-0.5,linear,0.025,TRUE,2,sepmodel,0.024,-6.535015532057851e-4,0.008001860189494992,0,10000
10,250,0,325,650,975,1300,1625,1950,2275,2600,2925,2,0,1,0,0,0,0,0,0,0,0,0,0,-0.5,-0.5,-0.5,-0.5,-0.5,-0.5,-0.5,-0.5,-0.5,-0.5,-0.5,linear,0.025,TRUE,3,fixmodel,0.0227,-9.488250903828757e-4,0.007199689085327416,0,10000
10,250,0,325,650,975,1300,1625,1950,2275,2600,2925,2,0,1,0,0,0,0,0,0,0,0,0,0,-0.5,-0.5,-0.5,-0.5,-0.5,-0.5,-0.5,-0.5,-0.5,-0.5,-0.5,linear,0.025,TRUE,3,poolmodel,0.0042,-0.05375414902804639,0.008628859631966218,0,10000
10,250,0,325,650,975,1300,1625,1950,2275,2600,2925,2,0,1,0,0,0,0,0,0,0,0,0,0,-0.5,-0.5,-0.5,-0.5,-0.5,-0.5,-0.5,-0.5,-0.5,-0.5,-0.5,linear,0.025,TRUE,3,sepmodel,0.0213,-0.0013661064973998051,0.007749007980335954,0,10000
10,250,0,325,650,975,1300,1625,1950,2275,2600,2925,2,0,1,0,0,0,0,0,0,0,0,0,0,-0.5,-0.5,-0.5,-0.5,-0.5,-0.5,-0.5,-0.5,-0.5,-0.5,-0.5,linear,0.025,TRUE,4,fixmodel,0.0232,1.0601291087951525e-4,0.007122165662130697,0,10000
10,250,0,325,650,975,1300,1625,1950,2275,2600,2925,2,0,1,0,0,0,0,0,0,0,0,0,0,-0.5,-0.5,-0.5,-0.5,-0.5,-0.5,-0.5,-0.5,-0.5,-0.5,-0.5,linear,0.025,TRUE,4,poolmodel,9e-4,-0.07869272156005097,0.011656246533065571,0,10000
10,250,0,325,650,975,1300,1625,1950,2275,2600,2925,2,0,1,0,0,0,0,0,0,0,0,0,0,-0.5,-0.5,-0.5,-0.5,-0.5,-0.5,-0.5,-0.5,-0.5,-0.5,-0.5,linear,0.025,TRUE,4,sepmodel,0.0235,5.972548249158528e-4,0.007889146229947025,0,10000
10,250,0,325,650,975,1300,1625,1950,2275,2600,2925,2,0,1,0,0,0,0,0,0,0,0,0,0,-0.5,-0.5,-0.5,-0.5,-0.5,-0.5,-0.5,-0.5,-0.5,-0.5,-0.5,linear,0.025,TRUE,5,fixmodel,0.026,-0.0012708925393330652,0.007446297274686718,0,10000
10,250,0,325,650,975,1300,1625,1950,2275,2600,2925,2,0,1,0,0,0,0,0,0,0,0,0,0,-0.5,-0.5,-0.5,-0.5,-0.5,-0.5,-0.5,-0.5,-0.5,-0.5,-0.5,linear,0.025,TRUE,5,poolmodel,6e-4,-0.10544749567744341,0.016457883935869312,0,10000
10,250,0,325,650,975,1300,1625,1950,2275,2600,2925,2,0,1,0,0,0,0,0,0,0,0,0,0,-0.5,-0.5,-0.5,-0.5,-0.5,-0.5,-0.5,-0.5,-0.5,-0.5,-0.5,linear,0.025,TRUE,5,sepmodel,0.027,-6.058211664449377e-4,0.008232565100528126,0,10000
10,250,0,325,650,975,1300,1625,1950,2275,2600,2925,2,0,1,0,0,0,0,0,0,0,0,0,0,-0.5,-0.5,-0.5,-0.5,-0.5,-0.5,-0.5,-0.5,-0.5,-0.5,-0.5,linear,0.025,TRUE,6,fixmodel,0.0249,1.1291988559063944e-4,0.007381728493569053,0,10000
10,250,0,325,650,975,1300,1625,1950,2275,2600,2925,2,0,1,0,0,0,0,0,0,0,0,0,0,-0.5,-0.5,-0.5,-0.5,-0.5,-0.5,-0.5,-0.5,-0.5,-0.5,-0.5,linear,0.025,TRUE,6,poolmodel,1e-4,-0.12935435415236654,0.021977050865252087,0,10000
10,250,0,325,650,975,1300,1625,1950,2275,2600,2925,2,0,1,0,0,0,0,0,0,0,0,0,0,-0.5,-0.5,-0.5,-0.5,-0.5,-0.5,-0.5,-0.5,-0.5,-0.5,-0.5,linear,0.025,TRUE,6,sepmodel,0.026,4.1421327454157873e-4,0.008189691547921612,0,10000
10,250,0,325,650,975,1300,1625,1950,2275,2600,2925,2,0,1,0,0,0,0,0,0,0,0,0,0,-0.5,-0.5,-0.5,-0.5,-0.5,-0.5,-0.5,-0.5,-0.5,-0.5,-0.5,linear,0.025,TRUE,7,fixmodel,0.0262,3.2826490200121763e-4,0.0073157179886314426,0,10000
10,250,0,325,650,975,1300,1625,1950,2275,2600,2925,2,0,1,0,0,0,0,0,0,0,0,0,0,-0.5,-0.5,-0.5,-0.5,-0.5,-0.5,-0.5,-0.5,-0.5,-0.5,-0.5,linear,0.025,TRUE,7,poolmodel,0,-0.15396913798285677,0.02886264250909005,0,10000
10,250,0,325,650,975,1300,1625,1950,2275,2600,2925,2,0,1,0,0,0,0,0,0,0,0,0,0,-0.5,-0.5,-0.5,-0.5,-0.5,-0.5,-0.5,-0.5,-0.5,-0.5,-0.5,linear,0.025,TRUE,7,sepmodel,0.0241,3.663324930013122e-4,0.008114103833605968,0,10000
10,250,0,325,650,975,1300,1625,1950,2275,2600,2925,2,0,1,0,0,0,0,0,0,0,0,0,0,-0.5,-0.5,-0.5,-0.5,-0.5,-0.5,-0.5,-0.5,-0.5,-0.5,-0.5,linear,0.025,TRUE,8,fixmodel,0.0288,2.2497940920340203e-5,0.007361834393439328,0,10000
10,250,0,325,650,975,1300,1625,1950,2275,2600,2925,2,0,1,0,0,0,0,0,0,0,0,0,0,-0.5,-0.5,-0.5,-0.5,-0.5,-0.5,-0.5,-0.5,-0.5,-0.5,-0.5,linear,0.025,TRUE,8,poolmodel,0,-0.17907895166934507,0.03708540296382653,0,10000
10,250,0,325,650,975,1300,1625,1950,2275,2600,2925,2,0,1,0,0,0,0,0,0,0,0,0,0,-0.5,-0.5,-0.5,-0.5,-0.5,-0.5,-0.5,-0.5,-0.5,-0.5,-0.5,linear,0.025,TRUE,8,sepmodel,0.0276,9.990108622871158e-5,0.008187723298636929,0,10000
10,250,0,325,650,975,1300,1625,1950,2275,2600,2925,2,0,1,0,0,0,0,0,0,0,0,0,0,-0.5,-0.5,-0.5,-0.5,-0.5,-0.5,-0.5,-0.5,-0.5,-0.5,-0.5,linear,0.025,TRUE,9,fixmodel,0.0257,-1.1221349470414759e-4,0.007253121604346347,0,10000
10,250,0,325,650,975,1300,1625,1950,2275,2600,2925,2,0,1,0,0,0,0,0,0,0,0,0,0,-0.5,-0.5,-0.5,-0.5,-0.5,-0.5,-0.5,-0.5,-0.5,-0.5,-0.5,linear,0.025,TRUE,9,poolmodel,0,-0.20213413215073975,0.04576589116795737,0,10000
10,250,0,325,650,975,1300,1625,1950,2275,2600,2925,2,0,1,0,0,0,0,0,0,0,0,0,0,-0.5,-0.5,-0.5,-0.5,-0.5,-0.5,-0.5,-0.5,-0.5,-0.5,-0.5,linear,0.025,TRUE,9,sepmodel,0.0247,1.4868649550057105e-4,0.008044059290336188,0,10000
10,250,0,325,650,975,1300,1625,1950,2275,2600,2925,2,0,1,0,0,0,0,0,0,0,0,0,0,-0.5,-0.5,-0.5,-0.5,-0.5,-0.5,-0.5,-0.5,-0.5,-0.5,-0.5,linear,0.025,TRUE,10,fixmodel,0.0242,-0.0011822763998482727,0.007315317518061553,0,10000
10,250,0,325,650,975,1300,1625,1950,2275,2600,2925,2,0,1,0,0,0,0,0,0,0,0,0,0,-0.5,-0.5,-0.5,-0.5,-0.5,-0.5,-0.5,-0.5,-0.5,-0.5,-0.5,linear,0.025,TRUE,10,poolmodel,0,-0.22129771737856355,0.05384208881869531,0,10000
10,250,0,325,650,975,1300,1625,1950,2275,2600,2925,2,0,1,0,0,0,0,0,0,0,0,0,0,-0.5,-0.5,-0.5,-0.5,-0.5,-0.5,-0.5,-0.5,-0.5,-0.5,-0.5,linear,0.025,TRUE,10,sepmodel,0.0264,-7.818968269890141e-4,0.008043946365566459,0,10000
10,250,0,350,700,1050,1400,1750,2100,2450,2800,3150,2,0,1,0,0,0,0,0,0,0,0,0,0,-0.5,-0.5,-0.5,-0.5,-0.5,-0.5,-0.5,-0.5,-0.5,-0.5,-0.5,linear,0.025,TRUE,2,fixmodel,0.026,4.108518392924751e-5,0.007615959912836982,0,10000
10,250,0,350,700,1050,1400,1750,2100,2450,2800,3150,2,0,1,0,0,0,0,0,0,0,0,0,0,-0.5,-0.5,-0.5,-0.5,-0.5,-0.5,-0.5,-0.5,-0.5,-0.5,-0.5,linear,0.025,TRUE,2,poolmodel,0.0116,-0.027299426965722916,0.007199975058176603,0,10000
10,250,0,350,700,1050,1400,1750,2100,2450,2800,3150,2,0,1,0,0,0,0,0,0,0,0,0,0,-0.5,-0.5,-0.5,-0.5,-0.5,-0.5,-0.5,-0.5,-0.5,-0.5,-0.5,linear,0.025,TRUE,2,sepmodel,0.0265,1.3458209497191985e-4,0.008112436171586695,0,10000
10,250,0,350,700,1050,1400,1750,2100,2450,2800,3150,2,0,1,0,0,0,0,0,0,0,0,0,0,-0.5,-0.5,-0.5,-0.5,-0.5,-0.5,-0.5,-0.5,-0.5,-0.5,-0.5,linear,0.025,TRUE,3,fixmodel,0.0241,-5.870202282018597e-4,0.007471918115234484,0,10000
10,250,0,350,700,1050,1400,1750,2100,2450,2800,3150,2,0,1,0,0,0,0,0,0,0,0,0,0,-0.5,-0.5,-0.5,-0.5,-0.5,-0.5,-0.5,-0.5,-0.5,-0.5,-0.5,linear,0.025,TRUE,3,poolmodel,0.0044,-0.053168295467822216,0.008635551199596886,0,10000
10,250,0,350,700,1050,1400,1750,2100,2450,2800,3150,2,0,1,0,0,0,0,0,0,0,0,0,0,-0.5,-0.5,-0.5,-0.5,-0.5,-0.5,-0.5,-0.5,-0.5,-0.5,-0.5,linear,0.025,TRUE,3,sepmodel,0.0239,-7.290489571781701e-4,0.0080430040827734,0,10000
10,250,0,350,700,1050,1400,1750,2100,2450,2800,3150,2,0,1,0,0,0,0,0,0,0,0,0,0,-0.5,-0.5,-0.5,-0.5,-0.5,-0.5,-0.5,-0.5,-0.5,-0.5,-0.5,linear,0.025,TRUE,4,fixmodel,0.0259,-4.85902272569646e-4,0.007545444487910603,0,10000
10,250,0,350,700,1050,1400,1750,2100,2450,2800,3150,2,0,1,0,0,0,0,0,0,0,0,0,0,-0.5,-0.5,-0.5,-0.5,-0.5,-0.5,-0.5,-0.5,-0.5,-0.5,-0.5,linear,0.025,TRUE,4,poolmodel,0.0013,-0.07831562594035078,0.01165891953618629,0,10000
10,250,0,350,700,1050,1400,1750,2100,2450,2800,3150,2,0,1,0,0,0,0,0,0,0,0,0,0,-0.5,-0.5,-0.5,-0.5,-0.5,-0.5,-0.5,-0.5,-0.5,-0.5,-0.5,linear,0.025,TRUE,4,sepmodel,0.0265,-4.664960542910873e-4,0.00812544432427918,0,10000
10,250,0,350,700,1050,1400,1750,2100,2450,2800,3150,2,0,1,0,0,0,0,0,0,0,0,0,0,-0.5,-0.5,-0.5,-0.5,-0.5,-0.5,-0.5,-0.5,-0.5,-0.5,-0.5,linear,0.025,TRUE,5,fixmodel,0.0239,-9.425444398669336e-4,0.007393958221970085,0,10000
10,250,0,350,700,1050,1400,1750,2100,2450,2800,3150,2,0,1,0,0,0,0,0,0,0,0,0,0,-0.5,-0.5,-0.5,-0.5,-0.5,-0.5,-0.5,-0.5,-0.5,-0.5,-0.5,linear,0.025,TRUE,5,poolmodel,7e-4,-0.10409309234174473,0.016072146591166993,0,10000
10,250,0,350,700,1050,1400,1750,2100,2450,2800,3150,2,0,1,0,0,0,0,0,0,0,0,0,0,-0.5,-0.5,-0.5,-0.5,-0.5,-0.5,-0.5,-0.5,-0.5,-0.5,-0.5,linear,0.025,TRUE,5,sepmodel,0.0245,-0.0010386523308165629,0.008052294480956434,0,10000
10,250,0,350,700,1050,1400,1750,2100,2450,2800,3150,2,0,1,0,0,0,0,0,0,0,0,0,0,-0.5,-0.5,-0.5,-0.5,-0.5,-0.5,-0.5,-0.5,-0.5,-0.5,-0.5,linear,0.025,TRUE,6,fixmodel,0.0246,-4.275698103975971e-4,0.0072712884023755945,0,10000
10,250,0,350,700,1050,1400,1750,2100,2450,2800,3150,2,0,1,0,0,0,0,0,0,0,0,0,0,-0.5,-0.5,-0.5,-0.5,-0.5,-0.5,-0.5,-0.5,-0.5,-0.5,-0.5,linear,0.025,TRUE,6,poolmodel,2e-4,-0.12822080213754217,0.02147376260322755,0,10000
10,250,0,350,700,1050,1400,1750,2100,2450,2800,3150,2,0,1,0,0,0,0,0,0,0,0,0,0,-0.5,-0.5,-0.5,-0.5,-0.5,-0.5,-0.5,-0.5,-0.5,-0.5,-0.5,linear,0.025,TRUE,6,sepmodel,0.0251,-3.3297191542767745e-4,0.007913912518690887,0,10000
10,250,0,350,700,1050,1400,1750,2100,2450,2800,3150,2,0,1,0,0,0,0,0,0,0,0,0,0,-0.5,-0.5,-0.5,-0.5,-0.5,-0.5,-0.5,-0.5,-0.5,-0.5,-0.5,linear,0.025,TRUE,7,fixmodel,0.0287,6.331338313590246e-4,0.0072755615718783796,0,10000
10,250,0,350,700,1050,1400,1750,2100,2450,2800,3150,2,0,1,0,0,0,0,0,0,0,0,0,0,-0.5,-0.5,-0.5,-0.5,-0.5,-0.5,-0.5,-0.5,-0.5,-0.5,-0.5,linear,0.025,TRUE,7,poolmodel,0,-0.15296273471480962,0.028313692981165116,0,10000
10,250,0,350,700,1050,1400,1750,2100,2450,2800,3150,2,0,1,0,0,0,0,0,0,0,0,0,0,-0.5,-0.5,-0.5,-0.5,-0.5,-0.5,-0.5,-0.5,-0.5,-0.5,-0.5,linear,0.025,TRUE,7,sepmodel,0.0268,6.43040760656816e-4,0.007921754781962496,0,10000
10,250,0,350,700,1050,1400,1750,2100,2450,2800,3150,2,0,1,0,0,0,0,0,0,0,0,0,0,-0.5,-0.5,-0.5,-0.5,-0.5,-0.5,-0.5,-0.5,-0.5,-0.5,-0.5,linear,0.025,TRUE,8,fixmodel,0.0257,2.5754900018266534e-4,0.007281340868949717,0,10000
10,250,0,350,700,1050,1400,1750,2100,2450,2800,3150,2,0,1,0,0,0,0,0,0,0,0,0,0,-0.5,-0.5,-0.5,-0.5,-0.5,-0.5,-0.5,-0.5,-0.5,-0.5,-0.5,linear,0.025,TRUE,8,poolmodel,0,-0.17809095935580443,0.03659331373340131,0,10000
10,250,0,350,700,1050,1400,1750,2100,2450,2800,3150,2,0,1,0,0,0,0,0,0,0,0,0,0,-0.5,-0.5,-0.5,-0.5,-0.5,-0.5,-0.5,-0.5,-0.5,-0.5,-0.5,linear,0.025,TRUE,8,sepmodel,0.024,4.692794885844955e-4,0.007959770683148263,0,10000
10,250,0,350,700,1050,1400,1750,2100,2450,2800,3150,2,0,1,0,0,0,0,0,0,0,0,0,0,-0.5,-0.5,-0.5,-0.5,-0.5,-0.5,-0.5,-0.5,-0.5,-0.5,-0.5,linear,0.025,TRUE,9,fixmodel,0.0251,3.8095578171021944e-4,0.007318717466009716,0,10000
10,250,0,350,700,1050,1400,1750,2100,2450,2800,3150,2,0,1,0,0,0,0,0,0,0,0,0,0,-0.5,-0.5,-0.5,-0.5,-0.5,-0.5,-0.5,-0.5,-0.5,-0.5,-0.5,linear,0.025,TRUE,9,poolmodel,0,-0.20141758689409592,0.04532711447551433,0,10000
10,250,0,350,700,1050,1400,1750,2100,2450,2800,3150,2,0,1,0,0,0,0,0,0,0,0,0,0,-0.5,-0.5,-0.5,-0.5,-0.5,-0.5,-0.5,-0.5,-0.5,-0.5,-0.5,linear,0.025,TRUE,9,sepmodel,0.0261,4.325054575732708e-4,0.008080855188591302,0,10000
10,250,0,350,700,1050,1400,1750,2100,2450,2800,3150,2,0,1,0,0,0,0,0,0,0,0,0,0,-0.5,-0.5,-0.5,-0.5,-0.5,-0.5,-0.5,-0.5,-0.5,-0.5,-0.5,linear,0.025,TRUE,10,fixmodel,0.0251,2.389252420281596e-4,0.007259620309255182,0,10000
10,250,0,350,700,1050,1400,1750,2100,2450,2800,3150,2,0,1,0,0,0,0,0,0,0,0,0,0,-0.5,-0.5,-0.5,-0.5,-0.5,-0.5,-0.5,-0.5,-0.5,-0.5,-0.5,linear,0.025,TRUE,10,poolmodel,0,-0.22113141177340184,0.0536474086587801,0,10000
10,250,0,350,700,1050,1400,1750,2100,2450,2800,3150,2,0,1,0,0,0,0,0,0,0,0,0,0,-0.5,-0.5,-0.5,-0.5,-0.5,-0.5,-0.5,-0.5,-0.5,-0.5,-0.5,linear,0.025,TRUE,10,sepmodel,0.0255,-5.047738672310548e-5,0.008030445463689004,0,10000
10,250,0,375,750,1125,1500,1875,2250,2625,3000,3375,2,0,1,0,0,0,0,0,0,0,0,0,0,-0.5,-0.5,-0.5,-0.5,-0.5,-0.5,-0.5,-0.5,-0.5,-0.5,-0.5,linear,0.025,TRUE,2,fixmodel,0.0263,0.0011156644614693113,0.007583261803477299,0,10000
10,250,0,375,750,1125,1500,1875,2250,2625,3000,3375,2,0,1,0,0,0,0,0,0,0,0,0,0,-0.5,-0.5,-0.5,-0.5,-0.5,-0.5,-0.5,-0.5,-0.5,-0.5,-0.5,linear,0.025,TRUE,2,poolmodel,0.0114,-0.026576803932780606,0.007000734911801897,0,10000
10,250,0,375,750,1125,1500,1875,2250,2625,3000,3375,2,0,1,0,0,0,0,0,0,0,0,0,0,-0.5,-0.5,-0.5,-0.5,-0.5,-0.5,-0.5,-0.5,-0.5,-0.5,-0.5,linear,0.025,TRUE,2,sepmodel,0.0245,8.701802633260334e-4,0.008002070251575016,0,10000
10,250,0,375,750,1125,1500,1875,2250,2625,3000,3375,2,0,1,0,0,0,0,0,0,0,0,0,0,-0.5,-0.5,-0.5,-0.5,-0.5,-0.5,-0.5,-0.5,-0.5,-0.5,-0.5,linear,0.025,TRUE,3,fixmodel,0.0262,-1.4226842332653631e-4,0.007489192719878354,0,10000
10,250,0,375,750,1125,1500,1875,2250,2625,3000,3375,2,0,1,0,0,0,0,0,0,0,0,0,0,-0.5,-0.5,-0.5,-0.5,-0.5,-0.5,-0.5,-0.5,-0.5,-0.5,-0.5,linear,0.025,TRUE,3,poolmodel,0.0041,-0.053050600198886515,0.008491355899791816,0,10000
10,250,0,375,750,1125,1500,1875,2250,2625,3000,3375,2,0,1,0,0,0,0,0,0,0,0,0,0,-0.5,-0.5,-0.5,-0.5,-0.5,-0.5,-0.5,-0.5,-0.5,-0.5,-0.5,linear,0.025,TRUE,3,sepmodel,0.0252,1.7822628112321523e-4,0.008090638583448872,0,10000
10,250,0,375,750,1125,1500,1875,2250,2625,3000,3375,2,0,1,0,0,0,0,0,0,0,0,0,0,-0.5,-0.5,-0.5,-0.5,-0.5,-0.5,-0.5,-0.5,-0.5,-0.5,-0.5,linear,0.025,TRUE,4,fixmodel,0.0253,-2.864980560068048e-4,0.007487388524811048,0,10000
10,250,0,375,750,1125,1500,1875,2250,2625,3000,3375,2,0,1,0,0,0,0,0,0,0,0,0,0,-0.5,-0.5,-0.5,-0.5,-0.5,-0.5,-0.5,-0.5,-0.5,-0.5,-0.5,linear,0.025,TRUE,4,poolmodel,0.0012,-0.0782011497677511,0.011482431540326087,0,10000
10,250,0,375,750,1125,1500,1875,2250,2625,3000,3375,2,0,1,0,0,0,0,0,0,0,0,0,0,-0.5,-0.5,-0.5,-0.5,-0.5,-0.5,-0.5,-0.5,-0.5,-0.5,-0.5,linear,0.025,TRUE,4,sepmodel,0.0256,-7.46853694110405e-4,0.00800247525987762,0,10000
10,250,0,375,750,1125,1500,1875,2250,2625,3000,3375,2,0,1,0,0,0,0,0,0,0,0,0,0,-0.5,-0.5,-0.5,-0.5,-0.5,-0.5,-0.5,-0.5,-0.5,-0.5,-0.5,linear,0.025,TRUE,5,fixmodel,0.0237,1.813318782118609e-5,0.007155990609748439,0,10000
10,250,0,375,750,1125,1500,1875,2250,2625,3000,3375,2,0,1,0,0,0,0,0,0,0,0,0,0,-0.5,-0.5,-0.5,-0.5,-0.5,-0.5,-0.5,-0.5,-0.5,-0.5,-0.5,linear,0.025,TRUE,5,poolmodel,1e-4,-0.1034032425499268,0.015678451820845086,0,10000
10,250,0,375,750,1125,1500,1875,2250,2625,3000,3375,2,0,1,0,0,0,0,0,0,0,0,0,0,-0.5,-0.5,-0.5,-0.5,-0.5,-0.5,-0.5,-0.5,-0.5,-0.5,-0.5,linear,0.025,TRUE,5,sepmodel,0.0227,5.545162553667515e-4,0.007694594992192998,0,10000
10,250,0,375,750,1125,1500,1875,2250,2625,3000,3375,2,0,1,0,0,0,0,0,0,0,0,0,0,-0.5,-0.5,-0.5,-0.5,-0.5,-0.5,-0.5,-0.5,-0.5,-0.5,-0.5,linear,0.025,TRUE,6,fixmodel,0.0266,-7.919309871077315e-4,0.007520891544692204,0,10000
10,250,0,375,750,1125,1500,1875,2250,2625,3000,3375,2,0,1,0,0,0,0,0,0,0,0,0,0,-0.5,-0.5,-0.5,-0.5,-0.5,-0.5,-0.5,-0.5,-0.5,-0.5,-0.5,linear,0.025,TRUE,6,poolmodel,0,-0.12907778515186813,0.021792463506855382,0,10000
10,250,0,375,750,1125,1500,1875,2250,2625,3000,3375,2,0,1,0,0,0,0,0,0,0,0,0,0,-0.5,-0.5,-0.5,-0.5,-0.5,-0.5,-0.5,-0.5,-0.5,-0.5,-0.5,linear,0.025,TRUE,6,sepmodel,0.0253,-0.00071760776903097615,0.008021684391590561,0,10000
10,250,0,375,750,1125,1500,1875,2250,2625,3000,3375,2,0,1,0,0,0,0,0,0,0,0,0,0,-0.5,-0.5,-0.5,-0.5,-0.5,-0.5,-0.5,-0.5,-0.5,-0.5,-0.5,linear,0.025,TRUE,7,fixmodel,0.0239,3.008451322761185e-4,0.007251908740958224,0,10000
10,250,0,375,750,1125,1500,1875,2250,2625,3000,3375,2,0,1,0,0,0,0,0,0,0,0,0,0,-0.5,-0.5,-0.5,-0.5,-0.5,-0.5,-0.5,-0.5,-0.5,-0.5,-0.5,linear,0.025,TRUE,7,poolmodel,0,-0.1527441725194173,0.028151117445485117,0,10000
10,250,0,375,750,1125,1500,1875,2250,2625,3000,3375,2,0,1,0,0,0,0,0,0,0,0,0,0,-0.5,-0.5,-0.5,-0.5,-0.5,-0.5,-0.5,-0.5,-0.5,-0.5,-0.5,linear,0.025,TRUE,7,sepmodel,0.024,1.8530753344793096e-4,0.007855041687686483,0,10000
10,250,0,375,750,1125,1500,1875,2250,2625,3000,3375,2,0,1,0,0,0,0,0,0,0,0,0,0,-0.5,-0.5,-0.5,-0.5,-0.5,-0.5,-0.5,-0.5,-0.5,-0.5,-0.5,linear,0.025,TRUE,8,fixmodel,0.024,0.0013555148495505626,0.007469076865163776,0,10000
10,250,0,375,750,1125,1500,1875,2250,2625,3000,3375,2,0,1,0,0,0,0,0,0,0,0,0,0,-0.5,-0.5,-0.5,-0.5,-0.5,-0.5,-0.5,-0.5,-0.5,-0.5,-0.5,linear,0.025,TRUE,8,poolmodel,0,-0.1763530930736539,0.03591449365922158,0,10000
10,250,0,375,750,1125,1500,1875,2250,2625,3000,3375,2,0,1,0,0,0,0,0,0,0,0,0,0,-0.5,-0.5,-0.5,-0.5,-0.5,-0.5,-0.5,-0.5,-0.5,-0.5,-0.5,linear,0.025,TRUE,8,sepmodel,0.0242,0.0011610091999720224,0.00803615410548561,0,10000
10,250,0,375,750,1125,1500,1875,2250,2625,3000,3375,2,0,1,0,0,0,0,0,0,0,0,0,0,-0.5,-0.5,-0.5,-0.5,-0.5,-0.5,-0.5,-0.5,-0.5,-0.5,-0.5,linear,0.025,TRUE,9,fixmodel,0.0263,0.0010676125242234955,0.007519996442637591,0,10000
10,250,0,375,750,1125,1500,1875,2250,2625,3000,3375,2,0,1,0,0,0,0,0,0,0,0,0,0,-0.5,-0.5,-0.5,-0.5,-0.5,-0.5,-0.5,-0.5,-0.5,-0.5,-0.5,linear,0.025,TRUE,9,poolmodel,0,-0.20101188736065922,0.045103355029589,0,10000
10,250,0,375,750,1125,1500,1875,2250,2625,3000,3375,2,0,1,0,0,0,0,0,0,0,0,0,0,-0.5,-0.5,-0.5,-0.5,-0.5,-0.5,-0.5,-0.5,-0.5,-0.5,-0.5,linear,0.025,TRUE,9,sepmodel,0.0256,0.0010113644194627831,0.008076333655456862,0,10000
10,250,0,375,750,1125,1500,1875,2250,2625,3000,3375,2,0,1,0,0,0,0,0,0,0,0,0,0,-0.5,-0.5,-0.5,-0.5,-0.5,-0.5,-0.5,-0.5,-0.5,-0.5,-0.5,linear,0.025,TRUE,10,fixmodel,0.0238,1.4689839565028162e-4,0.0073763449089954,0,10000
10,250,0,375,750,1125,1500,1875,2250,2625,3000,3375,2,0,1,0,0,0,0,0,0,0,0,0,0,-0.5,-0.5,-0.5,-0.5,-0.5,-0.5,-0.5,-0.5,-0.5,-0.5,-0.5,linear,0.025,TRUE,10,poolmodel,0,-0.22276013997468816,0.05420540011173473,0,10000
10,250,0,375,750,1125,1500,1875,2250,2625,3000,3375,2,0,1,0,0,0,0,0,0,0,0,0,0,-0.5,-0.5,-0.5,-0.5,-0.5,-0.5,-0.5,-0.5,-0.5,-0.5,-0.5,linear,0.025,TRUE,10,sepmodel,0.0248,2.8184147400950777e-4,0.00801342144502844,0,10000
10,250,0,400,800,1200,1600,2000,2400,2800,3200,3600,2,0,1,0,0,0,0,0,0,0,0,0,0,-0.5,-0.5,-0.5,-0.5,-0.5,-0.5,-0.5,-0.5,-0.5,-0.5,-0.5,linear,0.025,TRUE,2,fixmodel,0.0235,-0.0016474367562949877,0.007743739819439731,0,10000
10,250,0,400,800,1200,1600,2000,2400,2800,3200,3600,2,0,1,0,0,0,0,0,0,0,0,0,0,-0.5,-0.5,-0.5,-0.5,-0.5,-0.5,-0.5,-0.5,-0.5,-0.5,-0.5,linear,0.025,TRUE,2,poolmodel,0.0114,-0.028536651995393437,0.0070345288896239795,0,10000
10,250,0,400,800,1200,1600,2000,2400,2800,3200,3600,2,0,1,0,0,0,0,0,0,0,0,0,0,-0.5,-0.5,-0.5,-0.5,-0.5,-0.5,-0.5,-0.5,-0.5,-0.5,-0.5,linear,0.025,TRUE,2,sepmodel,0.0238,-0.001632004199681501,0.008149435654896977,0,10000
10,250,0,400,800,1200,1600,2000,2400,2800,3200,3600,2,0,1,0,0,0,0,0,0,0,0,0,0,-0.5,-0.5,-0.5,-0.5,-0.5,-0.5,-0.5,-0.5,-0.5,-0.5,-0.5,linear,0.025,TRUE,3,fixmodel,0.0244,-5.922765782330542e-4,0.007490800656624653,0,10000
10,250,0,400,800,1200,1600,2000,2400,2800,3200,3600,2,0,1,0,0,0,0,0,0,0,0,0,0,-0.5,-0.5,-0.5,-0.5,-0.5,-0.5,-0.5,-0.5,-0.5,-0.5,-0.5,linear,0.025,TRUE,3,poolmodel,0.0037,-0.05337982144726815,0.008459316388577614,0,10000
10,250,0,400,800,1200,1600,2000,2400,2800,3200,3600,2,0,1,0,0,0,0,0,0,0,0,0,0,-0.5,-0.5,-0.5,-0.5,-0.5,-0.5,-0.5,-0.5,-0.5,-0.5,-0.5,linear,0.025,TRUE,3,sepmodel,0.0247,-5.258698594469624e-4,0.008005278064872771,0,10000
10,250,0,400,800,1200,1600,2000,2400,2800,3200,3600,2,0,1,0,0,0,0,0,0,0,0,0,0,-0.5,-0.5,-0.5,-0.5,-0.5,-0.5,-0.5,-0.5,-0.5,-0.5,-0.5,linear,0.025,TRUE,4,fixmodel,0.0244,-7.795531094829468e-4,0.007547027841958229,0,10000
10,250,0,400,800,1200,1600,2000,2400,2800,3200,3600,2,0,1,0,0,0,0,0,0,0,0,0,0,-0.5,-0.5,-0.5,-0.5,-0.5,-0.5,-0.5,-0.5,-0.5,-0.5,-0.5,linear,0.025,TRUE,4,poolmodel,0.0013,-0.0790918718914367,0.0116161377715353,0,10000
10,250,0,400,800,1200,1600,2000,2400,2800,3200,3600,2,0,1,0,0,0,0,0,0,0,0,0,0,-0.5,-0.5,-0.5,-0.5,-0.5,-0.5,-0.5,-0.5,-0.5,-0.5,-0.5,linear,0.025,TRUE,4,sepmodel,0.0235,-3.2087153138001743e-4,0.007992324460140613,0,10000
10,250,0,400,800,1200,1600,2000,2400,2800,3200,3600,2,0,1,0,0,0,0,0,0,0,0,0,0,-0.5,-0.5,-0.5,-0.5,-0.5,-0.5,-0.5,-0.5,-0.5,-0.5,-0.5,linear,0.025,TRUE,5,fixmodel,0.0272,1.561788673768312e-4,0.007478227588074462,0,10000
10,250,0,400,800,1200,1600,2000,2400,2800,3200,3600,2,0,1,0,0,0,0,0,0,0,0,0,0,-0.5,-0.5,-0.5,-0.5,-0.5,-0.5,-0.5,-0.5,-0.5,-0.5,-0.5,linear,0.025,TRUE,5,poolmodel,6e-4,-0.10280741918598,0.01559837059295691,0,10000
10,250,0,400,800,1200,1600,2000,2400,2800,3200,3600,2,0,1,0,0,0,0,0,0,0,0,0,0,-0.5,-0.5,-0.5,-0.5,-0.5,-0.5,-0.5,-0.5,-0.5,-0.5,-0.5,linear,0.025,TRUE,5,sepmodel,0.0253,2.3746085306032287e-4,0.007931371973781862,0,10000
10,250,0,400,800,1200,1600,2000,2400,2800,3200,3600,2,0,1,0,0,0,0,0,0,0,0,0,0,-0.5,-0.5,-0.5,-0.5,-0.5,-0.5,-0.5,-0.5,-0.5,-0.5,-0.5,linear,0.025,TRUE,6,fixmodel,0.0222,5.279042238295106e-4,0.007221589592557467,0,10000
10,250,0,400,800,1200,1600,2000,2400,2800,3200,3600,2,0,1,0,0,0,0,0,0,0,0,0,0,-0.5,-0.5,-0.5,-0.5,-0.5,-0.5,-0.5,-0.5,-0.5,-0.5,-0.5,linear,0.025,TRUE,6,poolmodel,1e-4,-0.12731220637911989,0.021073122999571012,0,10000
10,250,0,400,800,1200,1600,2000,2400,2800,3200,3600,2,0,1,0,0,0,0,0,0,0,0,0,0,-0.5,-0.5,-0.5,-0.5,-0.5,-0.5,-0.5,-0.5,-0.5,-0.5,-0.5,linear,0.025,TRUE,6,sepmodel,0.0234,7.116442775461084e-4,0.00773950308167937,0,10000
10,250,0,400,800,1200,1600,2000,2400,2800,3200,3600,2,0,1,0,0,0,0,0,0,0,0,0,0,-0.5,-0.5,-0.5,-0.5,-0.5,-0.5,-0.5,-0.5,-0.5,-0.5,-0.5,linear,0.025,TRUE,7,fixmodel,0.0271,-1.3749906455198943e-5,0.007473511795706939,0,10000
10,250,0,400,800,1200,1600,2000,2400,2800,3200,3600,2,0,1,0,0,0,0,0,0,0,0,0,0,-0.5,-0.5,-0.5,-0.5,-0.5,-0.5,-0.5,-0.5,-0.5,-0.5,-0.5,linear,0.025,TRUE,7,poolmodel,0,-0.15287014122333378,0.028131555475446348,0,10000
10,250,0,400,800,1200,1600,2000,2400,2800,3200,3600,2,0,1,0,0,0,0,0,0,0,0,0,0,-0.5,-0.5,-0.5,-0.5,-0.5,-0.5,-0.5,-0.5,-0.5,-0.5,-0.5,linear,0.025,TRUE,7,sepmodel,0.0249,-1.572788623367161e-4,0.008066359548903473,0,10000
10,250,0,400,800,1200,1600,2000,2400,2800,3200,3600,2,0,1,0,0,0,0,0,0,0,0,0,0,-0.5,-0.5,-0.5,-0.5,-0.5,-0.5,-0.5,-0.5,-0.5,-0.5,-0.5,linear,0.025,TRUE,8,fixmodel,0.0288,7.076144869191992e-4,0.007625281962399481,0,10000
10,250,0,400,800,1200,1600,2000,2400,2800,3200,3600,2,0,1,0,0,0,0,0,0,0,0,0,0,-0.5,-0.5,-0.5,-0.5,-0.5,-0.5,-0.5,-0.5,-0.5,-0.5,-0.5,linear,0.025,TRUE,8,poolmodel,0,-0.17653890923716312,0.03584147853431329,0,10000
10,250,0,400,800,1200,1600,2000,2400,2800,3200,3600,2,0,1,0,0,0,0,0,0,0,0,0,0,-0.5,-0.5,-0.5,-0.5,-0.5,-0.5,-0.5,-0.5,-0.5,-0.5,-0.5,linear,0.025,TRUE,8,sepmodel,0.0285,6.952695517881603e-4,0.008188705854856272,0,10000
10,250,0,400,800,1200,1600,2000,2400,2800,3200,3600,2,0,1,0,0,0,0,0,0,0,0,0,0,-0.5,-0.5,-0.5,-0.5,-0.5,-0.5,-0.5,-0.5,-0.5,-0.5,-0.5,linear,0.025,TRUE,9,fixmodel,0.0264,0.001995220444051773,0.007300404994695261,0,10000
10,250,0,400,800,1200,1600,2000,2400,2800,3200,3600,2,0,1,0,0,0,0,0,0,0,0,0,0,-0.5,-0.5,-0.5,-0.5,-0.5,-0.5,-0.5,-0.5,-0.5,-0.5,-0.5,linear,0.025,TRUE,9,poolmodel,0,-0.1993994709607859,0.044426077528769765,0,10000
10,250,0,400,800,1200,1600,2000,2400,2800,3200,3600,2,0,1,0,0,0,0,0,0,0,0,0,0,-0.5,-0.5,-0.5,-0.5,-0.5,-0.5,-0.5,-0.5,-0.5,-0.5,-0.5,linear,0.025,TRUE,9,sepmodel,0.0259,0.0017521315352511087,0.007808414525922132,0,10000
10,250,0,400,800,1200,1600,2000,2400,2800,3200,3600,2,0,1,0,0,0,0,0,0,0,0,0,0,-0.5,-0.5,-0.5,-0.5,-0.5,-0.5,-0.5,-0.5,-0.5,-0.5,-0.5,linear,0.025,TRUE,10,fixmodel,0.0232,3.844605656643857e-4,0.007399893781743289,0,10000
10,250,0,400,800,1200,1600,2000,2400,2800,3200,3600,2,0,1,0,0,0,0,0,0,0,0,0,0,-0.5,-0.5,-0.5,-0.5,-0.5,-0.5,-0.5,-0.5,-0.5,-0.5,-0.5,linear,0.025,TRUE,10,poolmodel,0,-0.22309880080240335,0.05444304197947975,0,10000
10,250,0,400,800,1200,1600,2000,2400,2800,3200,3600,2,0,1,0,0,0,0,0,0,0,0,0,0,-0.5,-0.5,-0.5,-0.5,-0.5,-0.5,-0.5,-0.5,-0.5,-0.5,-0.5,linear,0.025,TRUE,10,sepmodel,0.0236,3.5364535385626144e-4,0.007938233842233024,0,10000
10,250,0,425,850,1275,1700,2125,2550,2975,3400,3825,2,0,1,0,0,0,0,0,0,0,0,0,0,-0.5,-0.5,-0.5,-0.5,-0.5,-0.5,-0.5,-0.5,-0.5,-0.5,-0.5,linear,0.025,TRUE,2,fixmodel,0.0252,-7.81307154698113e-5,0.007807720207268646,0,10000
10,250,0,425,850,1275,1700,2125,2550,2975,3400,3825,2,0,1,0,0,0,0,0,0,0,0,0,0,-0.5,-0.5,-0.5,-0.5,-0.5,-0.5,-0.5,-0.5,-0.5,-0.5,-0.5,linear,0.025,TRUE,2,poolmodel,0.0108,-0.025992674514005346,0.006926005327927699,0,10000
10,250,0,425,850,1275,1700,2125,2550,2975,3400,3825,2,0,1,0,0,0,0,0,0,0,0,0,0,-0.5,-0.5,-0.5,-0.5,-0.5,-0.5,-0.5,-0.5,-0.5,-0.5,-0.5,linear,0.025,TRUE,2,sepmodel,0.0247,-1.0460641801766445e-4,0.008176049576863922,0,10000
10,250,0,425,850,1275,1700,2125,2550,2975,3400,3825,2,0,1,0,0,0,0,0,0,0,0,0,0,-0.5,-0.5,-0.5,-0.5,-0.5,-0.5,-0.5,-0.5,-0.5,-0.5,-0.5,linear,0.025,TRUE,3,fixmodel,0.0252,-0.0011911073445583177,0.007445877749679338,0,10000
10,250,0,425,850,1275,1700,2125,2550,2975,3400,3825,2,0,1,0,0,0,0,0,0,0,0,0,0,-0.5,-0.5,-0.5,-0.5,-0.5,-0.5,-0.5,-0.5,-0.5,-0.5,-0.5,linear,0.025,TRUE,3,poolmodel,0.0037,-0.05231573602361973,0.008085328558296542,0,10000
