pavlakrotka/MASTERARBEIT/simulations_final/results/results_setting_4_alpha.csv
num_arms,n_arm,d1,d2,d3,d4,d5,d6,d7,period_blocks,mu0,sigma,theta1,theta2,theta3,theta4,theta5,theta6,theta7,lambda0,lambda1,lambda2,lambda3,lambda4,lambda5,lambda6,lambda7,trend,alpha,ncc,unit_size,ci,bs_degree,n_wave,N_peak,study_arm,model,reject_h0,bias,MSE,failed,nsim
7,250,0,250,250,500,500,750,750,2,0,1,0,0,0,0,0,0,0,-0.5,-0.5,-0.5,-0.5,-0.5,-0.5,-0.5,-0.5,linear,0.025,TRUE,25,FALSE,1,NA,NA,2,fixmodel,0.0261,0.0017667372055719648,0.007560880919366429,0,10000
7,250,0,250,250,500,500,750,750,2,0,1,0,0,0,0,0,0,0,-0.5,-0.5,-0.5,-0.5,-0.5,-0.5,-0.5,-0.5,linear,0.025,TRUE,25,FALSE,1,NA,NA,2,sepmodel,0.025,0.0018482095782547897,0.008099449225303857,0,10000
7,250,0,250,250,500,500,750,750,2,0,1,0,0,0,0,0,0,0,-0.5,-0.5,-0.5,-0.5,-0.5,-0.5,-0.5,-0.5,linear,0.025,TRUE,25,FALSE,1,NA,NA,2,splines,0.0253,0.0019021853523244893,0.007394985792350834,0,10000
7,250,0,250,250,500,500,750,750,2,0,1,0,0,0,0,0,0,0,-0.5,-0.5,-0.5,-0.5,-0.5,-0.5,-0.5,-0.5,linear,0.025,TRUE,25,FALSE,1,NA,NA,2,splines_cal,0.0261,0.0017411777922593664,0.0075249056363116025,0,10000
7,250,0,250,250,500,500,750,750,2,0,1,0,0,0,0,0,0,0,-0.5,-0.5,-0.5,-0.5,-0.5,-0.5,-0.5,-0.5,linear,0.025,TRUE,25,FALSE,1,NA,NA,3,fixmodel,0.0247,1.799772777980617e-4,0.007508977367626491,0,10000
7,250,0,250,250,500,500,750,750,2,0,1,0,0,0,0,0,0,0,-0.5,-0.5,-0.5,-0.5,-0.5,-0.5,-0.5,-0.5,linear,0.025,TRUE,25,FALSE,1,NA,NA,3,sepmodel,0.0246,2.61449650480394e-4,0.008005211037922049,0,10000
7,250,0,250,250,500,500,750,750,2,0,1,0,0,0,0,0,0,0,-0.5,-0.5,-0.5,-0.5,-0.5,-0.5,-0.5,-0.5,linear,0.025,TRUE,25,FALSE,1,NA,NA,3,splines,0.0232,3.127665487635671e-4,0.007349603597468494,0,10000
7,250,0,250,250,500,500,750,750,2,0,1,0,0,0,0,0,0,0,-0.5,-0.5,-0.5,-0.5,-0.5,-0.5,-0.5,-0.5,linear,0.025,TRUE,25,FALSE,1,NA,NA,3,splines_cal,0.0236,1.8152661665434095e-4,0.007471155127356708,0,10000
7,250,0,250,250,500,500,750,750,2,0,1,0,0,0,0,0,0,0,-0.5,-0.5,-0.5,-0.5,-0.5,-0.5,-0.5,-0.5,linear,0.025,TRUE,25,FALSE,1,NA,NA,4,fixmodel,0.0247,3.350936335882999e-4,0.007102886879906996,0,10000
7,250,0,250,250,500,500,750,750,2,0,1,0,0,0,0,0,0,0,-0.5,-0.5,-0.5,-0.5,-0.5,-0.5,-0.5,-0.5,linear,0.025,TRUE,25,FALSE,1,NA,NA,4,sepmodel,0.0239,4.934120839972618e-4,0.0079155940361214025,0,10000
7,250,0,250,250,500,500,750,750,2,0,1,0,0,0,0,0,0,0,-0.5,-0.5,-0.5,-0.5,-0.5,-0.5,-0.5,-0.5,linear,0.025,TRUE,25,FALSE,1,NA,NA,4,splines,0.0253,4.146381285446694e-4,0.007039163785631764,0,10000
7,250,0,250,250,500,500,750,750,2,0,1,0,0,0,0,0,0,0,-0.5,-0.5,-0.5,-0.5,-0.5,-0.5,-0.5,-0.5,linear,0.025,TRUE,25,FALSE,1,NA,NA,4,splines_cal,0.0248,2.7572719361291327e-4,0.007073001757700396,0,10000
7,250,0,250,250,500,500,750,750,2,0,1,0,0,0,0,0,0,0,-0.5,-0.5,-0.5,-0.5,-0.5,-0.5,-0.5,-0.5,linear,0.025,TRUE,25,FALSE,1,NA,NA,5,fixmodel,0.0238,-4.115340154164633e-4,0.0070843053470546445,0,10000
7,250,0,250,250,500,500,750,750,2,0,1,0,0,0,0,0,0,0,-0.5,-0.5,-0.5,-0.5,-0.5,-0.5,-0.5,-0.5,linear,0.025,TRUE,25,FALSE,1,NA,NA,5,sepmodel,0.026,-2.532155650074828e-4,0.007917476619772197,0,10000
7,250,0,250,250,500,500,750,750,2,0,1,0,0,0,0,0,0,0,-0.5,-0.5,-0.5,-0.5,-0.5,-0.5,-0.5,-0.5,linear,0.025,TRUE,25,FALSE,1,NA,NA,5,splines,0.0241,-3.3264014362550584e-4,0.0070336938558814505,0,10000
7,250,0,250,250,500,500,750,750,2,0,1,0,0,0,0,0,0,0,-0.5,-0.5,-0.5,-0.5,-0.5,-0.5,-0.5,-0.5,linear,0.025,TRUE,25,FALSE,1,NA,NA,5,splines_cal,0.024,-4.7386755481113914e-4,0.007068485180790433,0,10000
7,250,0,250,250,500,500,750,750,2,0,1,0,0,0,0,0,0,0,-0.5,-0.5,-0.5,-0.5,-0.5,-0.5,-0.5,-0.5,linear,0.025,TRUE,25,FALSE,1,NA,NA,6,fixmodel,0.0259,5.690909737819833e-4,0.006904102550263655,0,10000
7,250,0,250,250,500,500,750,750,2,0,1,0,0,0,0,0,0,0,-0.5,-0.5,-0.5,-0.5,-0.5,-0.5,-0.5,-0.5,linear,0.025,TRUE,25,FALSE,1,NA,NA,6,sepmodel,0.0255,5.818121817752113e-4,0.007961550478513485,0,10000
7,250,0,250,250,500,500,750,750,2,0,1,0,0,0,0,0,0,0,-0.5,-0.5,-0.5,-0.5,-0.5,-0.5,-0.5,-0.5,linear,0.025,TRUE,25,FALSE,1,NA,NA,6,splines,0.0249,5.674026466291836e-4,0.006871888236310567,0,10000
7,250,0,250,250,500,500,750,750,2,0,1,0,0,0,0,0,0,0,-0.5,-0.5,-0.5,-0.5,-0.5,-0.5,-0.5,-0.5,linear,0.025,TRUE,25,FALSE,1,NA,NA,6,splines_cal,0.0249,4.6282200487835536e-4,0.006913034462610597,0,10000
7,250,0,250,250,500,500,750,750,2,0,1,0,0,0,0,0,0,0,-0.5,-0.5,-0.5,-0.5,-0.5,-0.5,-0.5,-0.5,linear,0.025,TRUE,25,FALSE,1,NA,NA,7,fixmodel,0.0256,4.818650312587322e-4,0.0069643753299670815,0,10000
7,250,0,250,250,500,500,750,750,2,0,1,0,0,0,0,0,0,0,-0.5,-0.5,-0.5,-0.5,-0.5,-0.5,-0.5,-0.5,linear,0.025,TRUE,25,FALSE,1,NA,NA,7,sepmodel,0.0235,4.945862392518731e-4,0.007965557723959252,0,10000
7,250,0,250,250,500,500,750,750,2,0,1,0,0,0,0,0,0,0,-0.5,-0.5,-0.5,-0.5,-0.5,-0.5,-0.5,-0.5,linear,0.025,TRUE,25,FALSE,1,NA,NA,7,splines,0.0254,4.8035754931964445e-4,0.006920331381428742,0,10000
7,250,0,250,250,500,500,750,750,2,0,1,0,0,0,0,0,0,0,-0.5,-0.5,-0.5,-0.5,-0.5,-0.5,-0.5,-0.5,linear,0.025,TRUE,25,FALSE,1,NA,NA,7,splines_cal,0.0249,4.33592225740555e-4,0.00698618749606915,0,10000
7,250,0,250,250,500,500,750,750,2,0,1,0,0,0,0,0,0,0,-0.5,-0.5,-0.5,-0.5,-0.5,-0.5,-0.5,-0.5,linear,0.025,TRUE,25,FALSE,2,NA,NA,2,fixmodel,0.0282,5.553215416618051e-4,0.007399596623832378,0,10000
7,250,0,250,250,500,500,750,750,2,0,1,0,0,0,0,0,0,0,-0.5,-0.5,-0.5,-0.5,-0.5,-0.5,-0.5,-0.5,linear,0.025,TRUE,25,FALSE,2,NA,NA,2,sepmodel,0.0287,0.0011017321590998013,0.007981986950809537,0,10000
7,250,0,250,250,500,500,750,750,2,0,1,0,0,0,0,0,0,0,-0.5,-0.5,-0.5,-0.5,-0.5,-0.5,-0.5,-0.5,linear,0.025,TRUE,25,FALSE,2,NA,NA,2,splines,0.0276,4.764777904572249e-4,0.007296138164891176,0,10000
7,250,0,250,250,500,500,750,750,2,0,1,0,0,0,0,0,0,0,-0.5,-0.5,-0.5,-0.5,-0.5,-0.5,-0.5,-0.5,linear,0.025,TRUE,25,FALSE,2,NA,NA,2,splines_cal,0.0285,4.963267106200107e-4,0.007408056158410983,0,10000
7,250,0,250,250,500,500,750,750,2,0,1,0,0,0,0,0,0,0,-0.5,-0.5,-0.5,-0.5,-0.5,-0.5,-0.5,-0.5,linear,0.025,TRUE,25,FALSE,2,NA,NA,3,fixmodel,0.0251,1.441685395979739e-4,0.007364181340466206,0,10000
7,250,0,250,250,500,500,750,750,2,0,1,0,0,0,0,0,0,0,-0.5,-0.5,-0.5,-0.5,-0.5,-0.5,-0.5,-0.5,linear,0.025,TRUE,25,FALSE,2,NA,NA,3,sepmodel,0.0255,6.905791570354909e-4,0.007887154916087014,0,10000
7,250,0,250,250,500,500,750,750,2,0,1,0,0,0,0,0,0,0,-0.5,-0.5,-0.5,-0.5,-0.5,-0.5,-0.5,-0.5,linear,0.025,TRUE,25,FALSE,2,NA,NA,3,splines,0.0259,6.366582186493695e-5,0.007282466676582615,0,10000
7,250,0,250,250,500,500,750,750,2,0,1,0,0,0,0,0,0,0,-0.5,-0.5,-0.5,-0.5,-0.5,-0.5,-0.5,-0.5,linear,0.025,TRUE,25,FALSE,2,NA,NA,3,splines_cal,0.0249,5.812425776924974e-5,0.007352171534399856,0,10000
7,250,0,250,250,500,500,750,750,2,0,1,0,0,0,0,0,0,0,-0.5,-0.5,-0.5,-0.5,-0.5,-0.5,-0.5,-0.5,linear,0.025,TRUE,25,FALSE,2,NA,NA,4,fixmodel,0.0238,9.764820987407037e-4,0.006981837448307031,0,10000
7,250,0,250,250,500,500,750,750,2,0,1,0,0,0,0,0,0,0,-0.5,-0.5,-0.5,-0.5,-0.5,-0.5,-0.5,-0.5,linear,0.025,TRUE,25,FALSE,2,NA,NA,4,sepmodel,0.0229,0.0010523275861944288,0.007863139344372348,0,10000
7,250,0,250,250,500,500,750,750,2,0,1,0,0,0,0,0,0,0,-0.5,-0.5,-0.5,-0.5,-0.5,-0.5,-0.5,-0.5,linear,0.025,TRUE,25,FALSE,2,NA,NA,4,splines,0.0237,9.392248002547653e-4,0.006936454586431631,0,10000
7,250,0,250,250,500,500,750,750,2,0,1,0,0,0,0,0,0,0,-0.5,-0.5,-0.5,-0.5,-0.5,-0.5,-0.5,-0.5,linear,0.025,TRUE,25,FALSE,2,NA,NA,4,splines_cal,0.0243,9.844713178408e-4,0.006977577090658531,0,10000
7,250,0,250,250,500,500,750,750,2,0,1,0,0,0,0,0,0,0,-0.5,-0.5,-0.5,-0.5,-0.5,-0.5,-0.5,-0.5,linear,0.025,TRUE,25,FALSE,2,NA,NA,5,fixmodel,0.0264,-1.788398309186791e-4,0.007259053938266583,0,10000
7,250,0,250,250,500,500,750,750,2,0,1,0,0,0,0,0,0,0,-0.5,-0.5,-0.5,-0.5,-0.5,-0.5,-0.5,-0.5,linear,0.025,TRUE,25,FALSE,2,NA,NA,5,sepmodel,0.0269,-1.0299434346493069e-4,0.008176849778861696,0,10000
7,250,0,250,250,500,500,750,750,2,0,1,0,0,0,0,0,0,0,-0.5,-0.5,-0.5,-0.5,-0.5,-0.5,-0.5,-0.5,linear,0.025,TRUE,25,FALSE,2,NA,NA,5,splines,0.0273,-2.1511609633061433e-4,0.007217152943831015,0,10000
7,250,0,250,250,500,500,750,750,2,0,1,0,0,0,0,0,0,0,-0.5,-0.5,-0.5,-0.5,-0.5,-0.5,-0.5,-0.5,linear,0.025,TRUE,25,FALSE,2,NA,NA,5,splines_cal,0.0255,-1.9288140986363888e-4,0.007244067229179177,0,10000
7,250,0,250,250,500,500,750,750,2,0,1,0,0,0,0,0,0,0,-0.5,-0.5,-0.5,-0.5,-0.5,-0.5,-0.5,-0.5,linear,0.025,TRUE,25,FALSE,2,NA,NA,6,fixmodel,0.0242,-2.513654863149593e-4,0.00696929239998861,0,10000
7,250,0,250,250,500,500,750,750,2,0,1,0,0,0,0,0,0,0,-0.5,-0.5,-0.5,-0.5,-0.5,-0.5,-0.5,-0.5,linear,0.025,TRUE,25,FALSE,2,NA,NA,6,sepmodel,0.0251,-4.785801331591713e-4,0.008043600675594315,0,10000
7,250,0,250,250,500,500,750,750,2,0,1,0,0,0,0,0,0,0,-0.5,-0.5,-0.5,-0.5,-0.5,-0.5,-0.5,-0.5,linear,0.025,TRUE,25,FALSE,2,NA,NA,6,splines,0.0243,-0.00027223368812524194,0.0069593473267519175,0,10000
7,250,0,250,250,500,500,750,750,2,0,1,0,0,0,0,0,0,0,-0.5,-0.5,-0.5,-0.5,-0.5,-0.5,-0.5,-0.5,linear,0.025,TRUE,25,FALSE,2,NA,NA,6,splines_cal,0.0243,-2.7982830785063044e-4,0.007005692848875783,0,10000
7,250,0,250,250,500,500,750,750,2,0,1,0,0,0,0,0,0,0,-0.5,-0.5,-0.5,-0.5,-0.5,-0.5,-0.5,-0.5,linear,0.025,TRUE,25,FALSE,2,NA,NA,7,fixmodel,0.0251,-3.715736122750063e-4,0.006946184735079678,0,10000
7,250,0,250,250,500,500,750,750,2,0,1,0,0,0,0,0,0,0,-0.5,-0.5,-0.5,-0.5,-0.5,-0.5,-0.5,-0.5,linear,0.025,TRUE,25,FALSE,2,NA,NA,7,sepmodel,0.0247,-5.987882591193137e-4,0.007963612667899043,0,10000
7,250,0,250,250,500,500,750,750,2,0,1,0,0,0,0,0,0,0,-0.5,-0.5,-0.5,-0.5,-0.5,-0.5,-0.5,-0.5,linear,0.025,TRUE,25,FALSE,2,NA,NA,7,splines,0.0253,-3.916211197335879e-4,0.0069245995184564965,0,10000
7,250,0,250,250,500,500,750,750,2,0,1,0,0,0,0,0,0,0,-0.5,-0.5,-0.5,-0.5,-0.5,-0.5,-0.5,-0.5,linear,0.025,TRUE,25,FALSE,2,NA,NA,7,splines_cal,0.0246,-3.887701856384681e-4,0.006975742101178065,0,10000
7,250,0,250,250,500,500,750,750,2,0,1,0,0,0,0,0,0,0,-0.5,-0.5,-0.5,-0.5,-0.5,-0.5,-0.5,-0.5,linear,0.025,TRUE,25,FALSE,3,NA,NA,2,fixmodel,0.0246,4.3691381257002e-4,0.007373904816873252,0,10000
7,250,0,250,250,500,500,750,750,2,0,1,0,0,0,0,0,0,0,-0.5,-0.5,-0.5,-0.5,-0.5,-0.5,-0.5,-0.5,linear,0.025,TRUE,25,FALSE,3,NA,NA,2,sepmodel,0.0261,6.251779203241708e-4,0.007923980720933158,0,10000
7,250,0,250,250,500,500,750,750,2,0,1,0,0,0,0,0,0,0,-0.5,-0.5,-0.5,-0.5,-0.5,-0.5,-0.5,-0.5,linear,0.025,TRUE,25,FALSE,3,NA,NA,2,splines,0.026,5.406364772913633e-4,0.007270519883194096,0,10000
7,250,0,250,250,500,500,750,750,2,0,1,0,0,0,0,0,0,0,-0.5,-0.5,-0.5,-0.5,-0.5,-0.5,-0.5,-0.5,linear,0.025,TRUE,25,FALSE,3,NA,NA,2,splines_cal,0.0253,4.90358019948786e-4,0.007348286339057979,0,10000
7,250,0,250,250,500,500,750,750,2,0,1,0,0,0,0,0,0,0,-0.5,-0.5,-0.5,-0.5,-0.5,-0.5,-0.5,-0.5,linear,0.025,TRUE,25,FALSE,3,NA,NA,3,fixmodel,0.0253,0.0011717957085426065,0.007320680493623017,0,10000
7,250,0,250,250,500,500,750,750,2,0,1,0,0,0,0,0,0,0,-0.5,-0.5,-0.5,-0.5,-0.5,-0.5,-0.5,-0.5,linear,0.025,TRUE,25,FALSE,3,NA,NA,3,sepmodel,0.0236,0.0013600598162962702,0.007914627109752003,0,10000
7,250,0,250,250,500,500,750,750,2,0,1,0,0,0,0,0,0,0,-0.5,-0.5,-0.5,-0.5,-0.5,-0.5,-0.5,-0.5,linear,0.025,TRUE,25,FALSE,3,NA,NA,3,splines,0.0253,0.0012757354979299612,0.00725555042485567,0,10000
7,250,0,250,250,500,500,750,750,2,0,1,0,0,0,0,0,0,0,-0.5,-0.5,-0.5,-0.5,-0.5,-0.5,-0.5,-0.5,linear,0.025,TRUE,25,FALSE,3,NA,NA,3,splines_cal,0.0254,0.0012461873272797876,0.007295225570935909,0,10000
7,250,0,250,250,500,500,750,750,2,0,1,0,0,0,0,0,0,0,-0.5,-0.5,-0.5,-0.5,-0.5,-0.5,-0.5,-0.5,linear,0.025,TRUE,25,FALSE,3,NA,NA,4,fixmodel,0.0254,2.605158847386792e-4,0.007262613572428966,0,10000
7,250,0,250,250,500,500,750,750,2,0,1,0,0,0,0,0,0,0,-0.5,-0.5,-0.5,-0.5,-0.5,-0.5,-0.5,-0.5,linear,0.025,TRUE,25,FALSE,3,NA,NA,4,sepmodel,0.0257,6.375762948379734e-4,0.00812128388041029,0,10000
7,250,0,250,250,500,500,750,750,2,0,1,0,0,0,0,0,0,0,-0.5,-0.5,-0.5,-0.5,-0.5,-0.5,-0.5,-0.5,linear,0.025,TRUE,25,FALSE,3,NA,NA,4,splines,0.0247,3.294661568901318e-4,0.007213019324224675,0,10000
7,250,0,250,250,500,500,750,750,2,0,1,0,0,0,0,0,0,0,-0.5,-0.5,-0.5,-0.5,-0.5,-0.5,-0.5,-0.5,linear,0.025,TRUE,25,FALSE,3,NA,NA,4,splines_cal,0.0258,2.452571629722677e-4,0.007240810413971895,0,10000
7,250,0,250,250,500,500,750,750,2,0,1,0,0,0,0,0,0,0,-0.5,-0.5,-0.5,-0.5,-0.5,-0.5,-0.5,-0.5,linear,0.025,TRUE,25,FALSE,3,NA,NA,5,fixmodel,0.0252,-3.474297443570936e-4,0.007157560676581167,0,10000
7,250,0,250,250,500,500,750,750,2,0,1,0,0,0,0,0,0,0,-0.5,-0.5,-0.5,-0.5,-0.5,-0.5,-0.5,-0.5,linear,0.025,TRUE,25,FALSE,3,NA,NA,5,sepmodel,0.0263,2.963066574220814e-5,0.00807690016253194,0,10000
7,250,0,250,250,500,500,750,750,2,0,1,0,0,0,0,0,0,0,-0.5,-0.5,-0.5,-0.5,-0.5,-0.5,-0.5,-0.5,linear,0.025,TRUE,25,FALSE,3,NA,NA,5,splines,0.0252,-2.779118130749163e-4,0.007113439552912801,0,10000
7,250,0,250,250,500,500,750,750,2,0,1,0,0,0,0,0,0,0,-0.5,-0.5,-0.5,-0.5,-0.5,-0.5,-0.5,-0.5,linear,0.025,TRUE,25,FALSE,3,NA,NA,5,splines_cal,0.0243,-4.481476541266869e-4,0.007127959124346261,0,10000
7,250,0,250,250,500,500,750,750,2,0,1,0,0,0,0,0,0,0,-0.5,-0.5,-0.5,-0.5,-0.5,-0.5,-0.5,-0.5,linear,0.025,TRUE,25,FALSE,3,NA,NA,6,fixmodel,0.0282,0.001029674489408405,0.007074533074842716,0,10000
7,250,0,250,250,500,500,750,750,2,0,1,0,0,0,0,0,0,0,-0.5,-0.5,-0.5,-0.5,-0.5,-0.5,-0.5,-0.5,linear,0.025,TRUE,25,FALSE,3,NA,NA,6,sepmodel,0.0256,0.001344748212849144,0.008116289650817865,0,10000
7,250,0,250,250,500,500,750,750,2,0,1,0,0,0,0,0,0,0,-0.5,-0.5,-0.5,-0.5,-0.5,-0.5,-0.5,-0.5,linear,0.025,TRUE,25,FALSE,3,NA,NA,6,splines,0.0282,9.584148746649133e-4,0.007032459388682697,0,10000
7,250,0,250,250,500,500,750,750,2,0,1,0,0,0,0,0,0,0,-0.5,-0.5,-0.5,-0.5,-0.5,-0.5,-0.5,-0.5,linear,0.025,TRUE,25,FALSE,3,NA,NA,6,splines_cal,0.028,9.337048487560669e-4,0.007075628624107021,0,10000
7,250,0,250,250,500,500,750,750,2,0,1,0,0,0,0,0,0,0,-0.5,-0.5,-0.5,-0.5,-0.5,-0.5,-0.5,-0.5,linear,0.025,TRUE,25,FALSE,3,NA,NA,7,fixmodel,0.0268,-5.024066251600849e-4,0.007208835767698205,0,10000
7,250,0,250,250,500,500,750,750,2,0,1,0,0,0,0,0,0,0,-0.5,-0.5,-0.5,-0.5,-0.5,-0.5,-0.5,-0.5,linear,0.025,TRUE,25,FALSE,3,NA,NA,7,sepmodel,0.027,-1.8733290171942945e-4,0.008335378357248438,0,10000
7,250,0,250,250,500,500,750,750,2,0,1,0,0,0,0,0,0,0,-0.5,-0.5,-0.5,-0.5,-0.5,-0.5,-0.5,-0.5,linear,0.025,TRUE,25,FALSE,3,NA,NA,7,splines,0.0265,-5.719361126629014e-4,0.007175562339469314,0,10000
7,250,0,250,250,500,500,750,750,2,0,1,0,0,0,0,0,0,0,-0.5,-0.5,-0.5,-0.5,-0.5,-0.5,-0.5,-0.5,linear,0.025,TRUE,25,FALSE,3,NA,NA,7,splines_cal,0.0271,-5.240035704823013e-4,0.007214110614757785,0,10000
7,250,0,250,250,500,500,750,750,2,0,1,0,0,0,0,0,0,0,-0.5,-0.5,-0.5,-0.5,-0.5,-0.5,-0.5,-0.5,linear,0.025,TRUE,50,FALSE,1,NA,NA,2,fixmodel,0.0258,5.878672037125717e-4,0.007354162534697509,0,10000
7,250,0,250,250,500,500,750,750,2,0,1,0,0,0,0,0,0,0,-0.5,-0.5,-0.5,-0.5,-0.5,-0.5,-0.5,-0.5,linear,0.025,TRUE,50,FALSE,1,NA,NA,2,sepmodel,0.0256,8.960512076814996e-4,0.007906323696057873,0,10000
7,250,0,250,250,500,500,750,750,2,0,1,0,0,0,0,0,0,0,-0.5,-0.5,-0.5,-0.5,-0.5,-0.5,-0.5,-0.5,linear,0.025,TRUE,50,FALSE,1,NA,NA,2,splines,0.0249,4.8196353391692366e-4,0.007211364824315298,0,10000
7,250,0,250,250,500,500,750,750,2,0,1,0,0,0,0,0,0,0,-0.5,-0.5,-0.5,-0.5,-0.5,-0.5,-0.5,-0.5,linear,0.025,TRUE,50,FALSE,1,NA,NA,2,splines_cal,0.0253,4.684215136181065e-4,0.007291019666096165,0,10000
7,250,0,250,250,500,500,750,750,2,0,1,0,0,0,0,0,0,0,-0.5,-0.5,-0.5,-0.5,-0.5,-0.5,-0.5,-0.5,linear,0.025,TRUE,50,FALSE,1,NA,NA,3,fixmodel,0.0252,0.0015644538132015666,0.0074256434800171744,0,10000
7,250,0,250,250,500,500,750,750,2,0,1,0,0,0,0,0,0,0,-0.5,-0.5,-0.5,-0.5,-0.5,-0.5,-0.5,-0.5,linear,0.025,TRUE,50,FALSE,1,NA,NA,3,sepmodel,0.0249,0.001872637817169994,0.00799026795962799,0,10000
7,250,0,250,250,500,500,750,750,2,0,1,0,0,0,0,0,0,0,-0.5,-0.5,-0.5,-0.5,-0.5,-0.5,-0.5,-0.5,linear,0.025,TRUE,50,FALSE,1,NA,NA,3,splines,0.0249,0.001460067393813601,0.007244565426037816,0,10000
7,250,0,250,250,500,500,750,750,2,0,1,0,0,0,0,0,0,0,-0.5,-0.5,-0.5,-0.5,-0.5,-0.5,-0.5,-0.5,linear,0.025,TRUE,50,FALSE,1,NA,NA,3,splines_cal,0.0248,0.0014630752288683896,0.0073376319251212485,0,10000
7,250,0,250,250,500,500,750,750,2,0,1,0,0,0,0,0,0,0,-0.5,-0.5,-0.5,-0.5,-0.5,-0.5,-0.5,-0.5,linear,0.025,TRUE,50,FALSE,1,NA,NA,4,fixmodel,0.0255,4.067300896982391e-4,0.007149589981780859,0,10000
7,250,0,250,250,500,500,750,750,2,0,1,0,0,0,0,0,0,0,-0.5,-0.5,-0.5,-0.5,-0.5,-0.5,-0.5,-0.5,linear,0.025,TRUE,50,FALSE,1,NA,NA,4,sepmodel,0.0249,6.3101688943826e-4,0.00809942497314555,0,10000
7,250,0,250,250,500,500,750,750,2,0,1,0,0,0,0,0,0,0,-0.5,-0.5,-0.5,-0.5,-0.5,-0.5,-0.5,-0.5,linear,0.025,TRUE,50,FALSE,1,NA,NA,4,splines,0.0263,4.3279359429927104e-4,0.00707682603944282,0,10000
7,250,0,250,250,500,500,750,750,2,0,1,0,0,0,0,0,0,0,-0.5,-0.5,-0.5,-0.5,-0.5,-0.5,-0.5,-0.5,linear,0.025,TRUE,50,FALSE,1,NA,NA,4,splines_cal,0.0254,3.0755342429436084e-4,0.007064882960759776,0,10000
7,250,0,250,250,500,500,750,750,2,0,1,0,0,0,0,0,0,0,-0.5,-0.5,-0.5,-0.5,-0.5,-0.5,-0.5,-0.5,linear,0.025,TRUE,50,FALSE,1,NA,NA,5,fixmodel,0.0264,5.048449279372974e-4,0.007087641868493812,0,10000
7,250,0,250,250,500,500,750,750,2,0,1,0,0,0,0,0,0,0,-0.5,-0.5,-0.5,-0.5,-0.5,-0.5,-0.5,-0.5,linear,0.025,TRUE,50,FALSE,1,NA,NA,5,sepmodel,0.0268,7.291317276773436e-4,0.008004217084321568,0,10000
7,250,0,250,250,500,500,750,750,2,0,1,0,0,0,0,0,0,0,-0.5,-0.5,-0.5,-0.5,-0.5,-0.5,-0.5,-0.5,linear,0.025,TRUE,50,FALSE,1,NA,NA,5,splines,0.0257,5.295006083163805e-4,0.0070164687385635815,0,10000
7,250,0,250,250,500,500,750,750,2,0,1,0,0,0,0,0,0,0,-0.5,-0.5,-0.5,-0.5,-0.5,-0.5,-0.5,-0.5,linear,0.025,TRUE,50,FALSE,1,NA,NA,5,splines_cal,0.0257,4.941797527828495e-4,0.006985416287382926,0,10000
7,250,0,250,250,500,500,750,750,2,0,1,0,0,0,0,0,0,0,-0.5,-0.5,-0.5,-0.5,-0.5,-0.5,-0.5,-0.5,linear,0.025,TRUE,50,FALSE,1,NA,NA,6,fixmodel,0.0284,5.514998151339832e-4,0.007045461517560765,0,10000
7,250,0,250,250,500,500,750,750,2,0,1,0,0,0,0,0,0,0,-0.5,-0.5,-0.5,-0.5,-0.5,-0.5,-0.5,-0.5,linear,0.025,TRUE,50,FALSE,1,NA,NA,6,sepmodel,0.0255,7.090885518332218e-4,0.007951975536529644,0,10000
7,250,0,250,250,500,500,750,750,2,0,1,0,0,0,0,0,0,0,-0.5,-0.5,-0.5,-0.5,-0.5,-0.5,-0.5,-0.5,linear,0.025,TRUE,50,FALSE,1,NA,NA,6,splines,0.0283,5.711324989668444e-4,0.006977372566837104,0,10000
7,250,0,250,250,500,500,750,750,2,0,1,0,0,0,0,0,0,0,-0.5,-0.5,-0.5,-0.5,-0.5,-0.5,-0.5,-0.5,linear,0.025,TRUE,50,FALSE,1,NA,NA,6,splines_cal,0.0288,5.203591327330503e-4,0.007021713268614845,0,10000
7,250,0,250,250,500,500,750,750,2,0,1,0,0,0,0,0,0,0,-0.5,-0.5,-0.5,-0.5,-0.5,-0.5,-0.5,-0.5,linear,0.025,TRUE,50,FALSE,1,NA,NA,7,fixmodel,0.0272,0.0010278341113952524,0.0071280114241566465,0,10000
7,250,0,250,250,500,500,750,750,2,0,1,0,0,0,0,0,0,0,-0.5,-0.5,-0.5,-0.5,-0.5,-0.5,-0.5,-0.5,linear,0.025,TRUE,50,FALSE,1,NA,NA,7,sepmodel,0.0261,0.0011854228480943885,0.008152994323498293,0,10000
7,250,0,250,250,500,500,750,750,2,0,1,0,0,0,0,0,0,0,-0.5,-0.5,-0.5,-0.5,-0.5,-0.5,-0.5,-0.5,linear,0.025,TRUE,50,FALSE,1,NA,NA,7,splines,0.0276,0.0010441525759069853,0.00707348757534082,0,10000
7,250,0,250,250,500,500,750,750,2,0,1,0,0,0,0,0,0,0,-0.5,-0.5,-0.5,-0.5,-0.5,-0.5,-0.5,-0.5,linear,0.025,TRUE,50,FALSE,1,NA,NA,7,splines_cal,0.0278,9.746587413709913e-4,0.007111476070843298,0,10000
7,250,0,250,250,500,500,750,750,2,0,1,0,0,0,0,0,0,0,-0.5,-0.5,-0.5,-0.5,-0.5,-0.5,-0.5,-0.5,linear,0.025,TRUE,50,FALSE,2,NA,NA,2,fixmodel,0.0261,1.4442152889574327e-4,0.007569293382327689,0,10000
7,250,0,250,250,500,500,750,750,2,0,1,0,0,0,0,0,0,0,-0.5,-0.5,-0.5,-0.5,-0.5,-0.5,-0.5,-0.5,linear,0.025,TRUE,50,FALSE,2,NA,NA,2,sepmodel,0.026,4.337207031479377e-4,0.008107291234819253,0,10000
7,250,0,250,250,500,500,750,750,2,0,1,0,0,0,0,0,0,0,-0.5,-0.5,-0.5,-0.5,-0.5,-0.5,-0.5,-0.5,linear,0.025,TRUE,50,FALSE,2,NA,NA,2,splines,0.0258,1.182860387650391e-4,0.007495062735215273,0,10000
7,250,0,250,250,500,500,750,750,2,0,1,0,0,0,0,0,0,0,-0.5,-0.5,-0.5,-0.5,-0.5,-0.5,-0.5,-0.5,linear,0.025,TRUE,50,FALSE,2,NA,NA,2,splines_cal,0.027,1.2086626671985523e-4,0.0075210304350662345,0,10000
7,250,0,250,250,500,500,750,750,2,0,1,0,0,0,0,0,0,0,-0.5,-0.5,-0.5,-0.5,-0.5,-0.5,-0.5,-0.5,linear,0.025,TRUE,50,FALSE,2,NA,NA,3,fixmodel,0.0257,-2.030263282887018e-4,0.007573322373254922,0,10000
7,250,0,250,250,500,500,750,750,2,0,1,0,0,0,0,0,0,0,-0.5,-0.5,-0.5,-0.5,-0.5,-0.5,-0.5,-0.5,linear,0.025,TRUE,50,FALSE,2,NA,NA,3,sepmodel,0.0265,8.627284596301798e-5,0.008064652007945358,0,10000
7,250,0,250,250,500,500,750,750,2,0,1,0,0,0,0,0,0,0,-0.5,-0.5,-0.5,-0.5,-0.5,-0.5,-0.5,-0.5,linear,0.025,TRUE,50,FALSE,2,NA,NA,3,splines,0.0249,-2.3127173149910008e-4,0.007501059427025255,0,10000
7,250,0,250,250,500,500,750,750,2,0,1,0,0,0,0,0,0,0,-0.5,-0.5,-0.5,-0.5,-0.5,-0.5,-0.5,-0.5,linear,0.025,TRUE,50,FALSE,2,NA,NA,3,splines_cal,0.0253,-2.4161586411185928e-4,0.007542788461927418,0,10000
7,250,0,250,250,500,500,750,750,2,0,1,0,0,0,0,0,0,0,-0.5,-0.5,-0.5,-0.5,-0.5,-0.5,-0.5,-0.5,linear,0.025,TRUE,50,FALSE,2,NA,NA,4,fixmodel,0.0252,-0.0014642666220224087,0.00724190465795684,0,10000
7,250,0,250,250,500,500,750,750,2,0,1,0,0,0,0,0,0,0,-0.5,-0.5,-0.5,-0.5,-0.5,-0.5,-0.5,-0.5,linear,0.025,TRUE,50,FALSE,2,NA,NA,4,sepmodel,0.0252,-0.0011336597021766638,0.00814261594434155,0,10000
7,250,0,250,250,500,500,750,750,2,0,1,0,0,0,0,0,0,0,-0.5,-0.5,-0.5,-0.5,-0.5,-0.5,-0.5,-0.5,linear,0.025,TRUE,50,FALSE,2,NA,NA,4,splines,0.0266,-0.0014805296484682838,0.007198371782298045,0,10000
7,250,0,250,250,500,500,750,750,2,0,1,0,0,0,0,0,0,0,-0.5,-0.5,-0.5,-0.5,-0.5,-0.5,-0.5,-0.5,linear,0.025,TRUE,50,FALSE,2,NA,NA,4,splines_cal,0.0251,-0.0013572586216594445,0.007160963931942756,0,10000
7,250,0,250,250,500,500,750,750,2,0,1,0,0,0,0,0,0,0,-0.5,-0.5,-0.5,-0.5,-0.5,-0.5,-0.5,-0.5,linear,0.025,TRUE,50,FALSE,2,NA,NA,5,fixmodel,0.0241,-7.371520581335388e-5,0.007121238689758518,0,10000
7,250,0,250,250,500,500,750,750,2,0,1,0,0,0,0,0,0,0,-0.5,-0.5,-0.5,-0.5,-0.5,-0.5,-0.5,-0.5,linear,0.025,TRUE,50,FALSE,2,NA,NA,5,sepmodel,0.0242,2.568917140323995e-4,0.007947294029823526,0,10000
7,250,0,250,250,500,500,750,750,2,0,1,0,0,0,0,0,0,0,-0.5,-0.5,-0.5,-0.5,-0.5,-0.5,-0.5,-0.5,linear,0.025,TRUE,50,FALSE,2,NA,NA,5,splines,0.0245,-8.891238080039327e-5,0.007095720697228466,0,10000
7,250,0,250,250,500,500,750,750,2,0,1,0,0,0,0,0,0,0,-0.5,-0.5,-0.5,-0.5,-0.5,-0.5,-0.5,-0.5,linear,0.025,TRUE,50,FALSE,2,NA,NA,5,splines_cal,0.0244,7.618750611247921e-6,0.007039451996652492,0,10000
7,250,0,250,250,500,500,750,750,2,0,1,0,0,0,0,0,0,0,-0.5,-0.5,-0.5,-0.5,-0.5,-0.5,-0.5,-0.5,linear,0.025,TRUE,50,FALSE,2,NA,NA,6,fixmodel,0.0242,0.001524358044451719,0.006983051640988541,0,10000
7,250,0,250,250,500,500,750,750,2,0,1,0,0,0,0,0,0,0,-0.5,-0.5,-0.5,-0.5,-0.5,-0.5,-0.5,-0.5,linear,0.025,TRUE,50,FALSE,2,NA,NA,6,sepmodel,0.0253,0.0020071977530561626,0.008047970214402893,0,10000
7,250,0,250,250,500,500,750,750,2,0,1,0,0,0,0,0,0,0,-0.5,-0.5,-0.5,-0.5,-0.5,-0.5,-0.5,-0.5,linear,0.025,TRUE,50,FALSE,2,NA,NA,6,splines,0.0245,0.0015417668908113333,0.006977482664654402,0,10000
7,250,0,250,250,500,500,750,750,2,0,1,0,0,0,0,0,0,0,-0.5,-0.5,-0.5,-0.5,-0.5,-0.5,-0.5,-0.5,linear,0.025,TRUE,50,FALSE,2,NA,NA,6,splines_cal,0.0246,0.0015438800440606873,0.006989809453310597,0,10000
7,250,0,250,250,500,500,750,750,2,0,1,0,0,0,0,0,0,0,-0.5,-0.5,-0.5,-0.5,-0.5,-0.5,-0.5,-0.5,linear,0.025,TRUE,50,FALSE,2,NA,NA,7,fixmodel,0.0253,2.915033842876368e-4,0.007024889545279969,0,10000
7,250,0,250,250,500,500,750,750,2,0,1,0,0,0,0,0,0,0,-0.5,-0.5,-0.5,-0.5,-0.5,-0.5,-0.5,-0.5,linear,0.025,TRUE,50,FALSE,2,NA,NA,7,sepmodel,0.0251,7.743430928919795e-4,0.008032502220424495,0,10000
7,250,0,250,250,500,500,750,750,2,0,1,0,0,0,0,0,0,0,-0.5,-0.5,-0.5,-0.5,-0.5,-0.5,-0.5,-0.5,linear,0.025,TRUE,50,FALSE,2,NA,NA,7,splines,0.0257,3.075395883315572e-4,0.007001130652074064,0,10000
7,250,0,250,250,500,500,750,750,2,0,1,0,0,0,0,0,0,0,-0.5,-0.5,-0.5,-0.5,-0.5,-0.5,-0.5,-0.5,linear,0.025,TRUE,50,FALSE,2,NA,NA,7,splines_cal,0.0252,2.8453831088900544e-4,0.007029223200657218,0,10000
7,250,0,250,250,500,500,750,750,2,0,1,0,0,0,0,0,0,0,-0.5,-0.5,-0.5,-0.5,-0.5,-0.5,-0.5,-0.5,linear,0.025,TRUE,50,FALSE,3,NA,NA,2,fixmodel,0.0276,5.512113486038379e-4,0.007606339036586045,0,10000
7,250,0,250,250,500,500,750,750,2,0,1,0,0,0,0,0,0,0,-0.5,-0.5,-0.5,-0.5,-0.5,-0.5,-0.5,-0.5,linear,0.025,TRUE,50,FALSE,3,NA,NA,2,sepmodel,0.0266,5.037735775000829e-4,0.008176542557678102,0,10000
7,250,0,250,250,500,500,750,750,2,0,1,0,0,0,0,0,0,0,-0.5,-0.5,-0.5,-0.5,-0.5,-0.5,-0.5,-0.5,linear,0.025,TRUE,50,FALSE,3,NA,NA,2,splines,0.0277,5.119926277662076e-4,0.0075118893907740155,0,10000
7,250,0,250,250,500,500,750,750,2,0,1,0,0,0,0,0,0,0,-0.5,-0.5,-0.5,-0.5,-0.5,-0.5,-0.5,-0.5,linear,0.025,TRUE,50,FALSE,3,NA,NA,2,splines_cal,0.0272,6.314545686352547e-4,0.007564192024970093,0,10000
7,250,0,250,250,500,500,750,750,2,0,1,0,0,0,0,0,0,0,-0.5,-0.5,-0.5,-0.5,-0.5,-0.5,-0.5,-0.5,linear,0.025,TRUE,50,FALSE,3,NA,NA,3,fixmodel,0.0246,5.359601272535718e-4,0.00730654340759473,0,10000
7,250,0,250,250,500,500,750,750,2,0,1,0,0,0,0,0,0,0,-0.5,-0.5,-0.5,-0.5,-0.5,-0.5,-0.5,-0.5,linear,0.025,TRUE,50,FALSE,3,NA,NA,3,sepmodel,0.0247,4.885223561493463e-4,0.00787186600115213,0,10000
7,250,0,250,250,500,500,750,750,2,0,1,0,0,0,0,0,0,0,-0.5,-0.5,-0.5,-0.5,-0.5,-0.5,-0.5,-0.5,linear,0.025,TRUE,50,FALSE,3,NA,NA,3,splines,0.0249,4.954051778459428e-4,0.00720811257827216,0,10000
7,250,0,250,250,500,500,750,750,2,0,1,0,0,0,0,0,0,0,-0.5,-0.5,-0.5,-0.5,-0.5,-0.5,-0.5,-0.5,linear,0.025,TRUE,50,FALSE,3,NA,NA,3,splines_cal,0.0254,6.011444588525989e-4,0.007253728017046024,0,10000
7,250,0,250,250,500,500,750,750,2,0,1,0,0,0,0,0,0,0,-0.5,-0.5,-0.5,-0.5,-0.5,-0.5,-0.5,-0.5,linear,0.025,TRUE,50,FALSE,3,NA,NA,4,fixmodel,0.0238,7.26308833824242e-5,0.0071576036142281686,0,10000
7,250,0,250,250,500,500,750,750,2,0,1,0,0,0,0,0,0,0,-0.5,-0.5,-0.5,-0.5,-0.5,-0.5,-0.5,-0.5,linear,0.025,TRUE,50,FALSE,3,NA,NA,4,sepmodel,0.0231,3.773566973913609e-5,0.007994139744069229,0,10000
7,250,0,250,250,500,500,750,750,2,0,1,0,0,0,0,0,0,0,-0.5,-0.5,-0.5,-0.5,-0.5,-0.5,-0.5,-0.5,linear,0.025,TRUE,50,FALSE,3,NA,NA,4,splines,0.0229,1.1730947408221642e-4,0.007119928291978823,0,10000
7,250,0,250,250,500,500,750,750,2,0,1,0,0,0,0,0,0,0,-0.5,-0.5,-0.5,-0.5,-0.5,-0.5,-0.5,-0.5,linear,0.025,TRUE,50,FALSE,3,NA,NA,4,splines_cal,0.0223,3.317790872387952e-5,0.0070794356168219445,0,10000
7,250,0,250,250,500,500,750,750,2,0,1,0,0,0,0,0,0,0,-0.5,-0.5,-0.5,-0.5,-0.5,-0.5,-0.5,-0.5,linear,0.025,TRUE,50,FALSE,3,NA,NA,5,fixmodel,0.0256,-1.0423925345380535e-4,0.007230359548467013,0,10000
7,250,0,250,250,500,500,750,750,2,0,1,0,0,0,0,0,0,0,-0.5,-0.5,-0.5,-0.5,-0.5,-0.5,-0.5,-0.5,linear,0.025,TRUE,50,FALSE,3,NA,NA,5,sepmodel,0.0259,-1.3913446709707178e-4,0.008041213777022351,0,10000
7,250,0,250,250,500,500,750,750,2,0,1,0,0,0,0,0,0,0,-0.5,-0.5,-0.5,-0.5,-0.5,-0.5,-0.5,-0.5,linear,0.025,TRUE,50,FALSE,3,NA,NA,5,splines,0.0258,-6.142674758322123e-5,0.0071870447152981905,0,10000
7,250,0,250,250,500,500,750,750,2,0,1,0,0,0,0,0,0,0,-0.5,-0.5,-0.5,-0.5,-0.5,-0.5,-0.5,-0.5,linear,0.025,TRUE,50,FALSE,3,NA,NA,5,splines_cal,0.025,-1.000485237019239e-4,0.00714156855064451,0,10000
7,250,0,250,250,500,500,750,750,2,0,1,0,0,0,0,0,0,0,-0.5,-0.5,-0.5,-0.5,-0.5,-0.5,-0.5,-0.5,linear,0.025,TRUE,50,FALSE,3,NA,NA,6,fixmodel,0.0248,6.833192201842403e-5,0.006869094965905349,0,10000
7,250,0,250,250,500,500,750,750,2,0,1,0,0,0,0,0,0,0,-0.5,-0.5,-0.5,-0.5,-0.5,-0.5,-0.5,-0.5,linear,0.025,TRUE,50,FALSE,3,NA,NA,6,sepmodel,0.0224,1.0079001642282154e-5,0.007787483714272085,0,10000
7,250,0,250,250,500,500,750,750,2,0,1,0,0,0,0,0,0,0,-0.5,-0.5,-0.5,-0.5,-0.5,-0.5,-0.5,-0.5,linear,0.025,TRUE,50,FALSE,3,NA,NA,6,splines,0.024,8.790357922438765e-5,0.006838704653618059,0,10000
7,250,0,250,250,500,500,750,750,2,0,1,0,0,0,0,0,0,0,-0.5,-0.5,-0.5,-0.5,-0.5,-0.5,-0.5,-0.5,linear,0.025,TRUE,50,FALSE,3,NA,NA,6,splines_cal,0.0239,4.671844470408504e-5,0.006867388507230111,0,10000
7,250,0,250,250,500,500,750,750,2,0,1,0,0,0,0,0,0,0,-0.5,-0.5,-0.5,-0.5,-0.5,-0.5,-0.5,-0.5,linear,0.025,TRUE,50,FALSE,3,NA,NA,7,fixmodel,0.024,7.138038670661444e-4,0.00696644622636442,0,10000
7,250,0,250,250,500,500,750,750,2,0,1,0,0,0,0,0,0,0,-0.5,-0.5,-0.5,-0.5,-0.5,-0.5,-0.5,-0.5,linear,0.025,TRUE,50,FALSE,3,NA,NA,7,sepmodel,0.0232,6.555509466898901e-4,0.007894841866421693,0,10000
7,250,0,250,250,500,500,750,750,2,0,1,0,0,0,0,0,0,0,-0.5,-0.5,-0.5,-0.5,-0.5,-0.5,-0.5,-0.5,linear,0.025,TRUE,50,FALSE,3,NA,NA,7,splines,0.0244,7.357964012523714e-4,0.006934020204168517,0,10000
7,250,0,250,250,500,500,750,750,2,0,1,0,0,0,0,0,0,0,-0.5,-0.5,-0.5,-0.5,-0.5,-0.5,-0.5,-0.5,linear,0.025,TRUE,50,FALSE,3,NA,NA,7,splines_cal,0.0239,6.782422008912406e-4,0.006956810856615826,0,10000
7,250,0,250,250,500,500,750,750,2,0,1,0,0,0,0,0,0,0,-0.5,-0.5,-0.5,-0.5,-0.5,-0.5,-0.5,-0.5,linear,0.025,TRUE,100,FALSE,1,NA,NA,2,fixmodel,0.0259,9.78894876958095e-4,0.0075131801281325735,0,10000
7,250,0,250,250,500,500,750,750,2,0,1,0,0,0,0,0,0,0,-0.5,-0.5,-0.5,-0.5,-0.5,-0.5,-0.5,-0.5,linear,0.025,TRUE,100,FALSE,1,NA,NA,2,sepmodel,0.0263,9.075091114990312e-4,0.008056039622421806,0,10000
7,250,0,250,250,500,500,750,750,2,0,1,0,0,0,0,0,0,0,-0.5,-0.5,-0.5,-0.5,-0.5,-0.5,-0.5,-0.5,linear,0.025,TRUE,100,FALSE,1,NA,NA,2,splines,0.026,9.475601426775432e-4,0.007329608889480972,0,10000
7,250,0,250,250,500,500,750,750,2,0,1,0,0,0,0,0,0,0,-0.5,-0.5,-0.5,-0.5,-0.5,-0.5,-0.5,-0.5,linear,0.025,TRUE,100,FALSE,1,NA,NA,2,splines_cal,0.0265,9.749428518689147e-4,0.0074564945710073,0,10000
7,250,0,250,250,500,500,750,750,2,0,1,0,0,0,0,0,0,0,-0.5,-0.5,-0.5,-0.5,-0.5,-0.5,-0.5,-0.5,linear,0.025,TRUE,100,FALSE,1,NA,NA,3,fixmodel,0.0248,-6.83007456635268e-5,0.007361745794151027,0,10000
7,250,0,250,250,500,500,750,750,2,0,1,0,0,0,0,0,0,0,-0.5,-0.5,-0.5,-0.5,-0.5,-0.5,-0.5,-0.5,linear,0.025,TRUE,100,FALSE,1,NA,NA,3,sepmodel,0.025,-1.3968651112307524e-4,0.007925551315028086,0,10000
7,250,0,250,250,500,500,750,750,2,0,1,0,0,0,0,0,0,0,-0.5,-0.5,-0.5,-0.5,-0.5,-0.5,-0.5,-0.5,linear,0.025,TRUE,100,FALSE,1,NA,NA,3,splines,0.0244,-9.913058345042778e-5,0.007195160506983327,0,10000
7,250,0,250,250,500,500,750,750,2,0,1,0,0,0,0,0,0,0,-0.5,-0.5,-0.5,-0.5,-0.5,-0.5,-0.5,-0.5,linear,0.025,TRUE,100,FALSE,1,NA,NA,3,splines_cal,0.0239,-6.302216793033222e-5,0.007285479611581493,0,10000
7,250,0,250,250,500,500,750,750,2,0,1,0,0,0,0,0,0,0,-0.5,-0.5,-0.5,-0.5,-0.5,-0.5,-0.5,-0.5,linear,0.025,TRUE,100,FALSE,1,NA,NA,4,fixmodel,0.0269,-3.605702764505133e-6,0.007247625104405185,0,10000
7,250,0,250,250,500,500,750,750,2,0,1,0,0,0,0,0,0,0,-0.5,-0.5,-0.5,-0.5,-0.5,-0.5,-0.5,-0.5,linear,0.025,TRUE,100,FALSE,1,NA,NA,4,sepmodel,0.0254,2.3700387028208192e-4,0.008093778161514208,0,10000
7,250,0,250,250,500,500,750,750,2,0,1,0,0,0,0,0,0,0,-0.5,-0.5,-0.5,-0.5,-0.5,-0.5,-0.5,-0.5,linear,0.025,TRUE,100,FALSE,1,NA,NA,4,splines,0.0261,-2.811310422040758e-5,0.007166223486934359,0,10000
7,250,0,250,250,500,500,750,750,2,0,1,0,0,0,0,0,0,0,-0.5,-0.5,-0.5,-0.5,-0.5,-0.5,-0.5,-0.5,linear,0.025,TRUE,100,FALSE,1,NA,NA,4,splines_cal,0.0268,-1.9189041673665732e-4,0.007039058761043689,0,10000
7,250,0,250,250,500,500,750,750,2,0,1,0,0,0,0,0,0,0,-0.5,-0.5,-0.5,-0.5,-0.5,-0.5,-0.5,-0.5,linear,0.025,TRUE,100,FALSE,1,NA,NA,5,fixmodel,0.0285,6.434710096249713e-4,0.007196742359689333,0,10000
7,250,0,250,250,500,500,750,750,2,0,1,0,0,0,0,0,0,0,-0.5,-0.5,-0.5,-0.5,-0.5,-0.5,-0.5,-0.5,linear,0.025,TRUE,100,FALSE,1,NA,NA,5,sepmodel,0.0268,8.840805826715886e-4,0.007982366773259253,0,10000
7,250,0,250,250,500,500,750,750,2,0,1,0,0,0,0,0,0,0,-0.5,-0.5,-0.5,-0.5,-0.5,-0.5,-0.5,-0.5,linear,0.025,TRUE,100,FALSE,1,NA,NA,5,splines,0.0278,6.214859281584862e-4,0.0071376588382626475,0,10000
7,250,0,250,250,500,500,750,750,2,0,1,0,0,0,0,0,0,0,-0.5,-0.5,-0.5,-0.5,-0.5,-0.5,-0.5,-0.5,linear,0.025,TRUE,100,FALSE,1,NA,NA,5,splines_cal,0.0288,7.582962328753068e-4,0.006999870613137718,0,10000
7,250,0,250,250,500,500,750,750,2,0,1,0,0,0,0,0,0,0,-0.5,-0.5,-0.5,-0.5,-0.5,-0.5,-0.5,-0.5,linear,0.025,TRUE,100,FALSE,1,NA,NA,6,fixmodel,0.0235,-0.0016196613871628676,0.006951894988885092,0,10000
7,250,0,250,250,500,500,750,750,2,0,1,0,0,0,0,0,0,0,-0.5,-0.5,-0.5,-0.5,-0.5,-0.5,-0.5,-0.5,linear,0.025,TRUE,100,FALSE,1,NA,NA,6,sepmodel,0.0221,-0.0013493670735838432,0.00789746394602497,0,10000
7,250,0,250,250,500,500,750,750,2,0,1,0,0,0,0,0,0,0,-0.5,-0.5,-0.5,-0.5,-0.5,-0.5,-0.5,-0.5,linear,0.025,TRUE,100,FALSE,1,NA,NA,6,splines,0.0232,-0.0017011282323962582,0.006918899457316816,0,10000
7,250,0,250,250,500,500,750,750,2,0,1,0,0,0,0,0,0,0,-0.5,-0.5,-0.5,-0.5,-0.5,-0.5,-0.5,-0.5,linear,0.025,TRUE,100,FALSE,1,NA,NA,6,splines_cal,0.0227,-0.0016831980346166998,0.006936138671149334,0,10000
7,250,0,250,250,500,500,750,750,2,0,1,0,0,0,0,0,0,0,-0.5,-0.5,-0.5,-0.5,-0.5,-0.5,-0.5,-0.5,linear,0.025,TRUE,100,FALSE,1,NA,NA,7,fixmodel,0.0243,1.4434882315562595e-4,0.0070217408066271,0,10000
7,250,0,250,250,500,500,750,750,2,0,1,0,0,0,0,0,0,0,-0.5,-0.5,-0.5,-0.5,-0.5,-0.5,-0.5,-0.5,linear,0.025,TRUE,100,FALSE,1,NA,NA,7,sepmodel,0.0235,4.1464313673453187e-4,0.007965764993457695,0,10000
7,250,0,250,250,500,500,750,750,2,0,1,0,0,0,0,0,0,0,-0.5,-0.5,-0.5,-0.5,-0.5,-0.5,-0.5,-0.5,linear,0.025,TRUE,100,FALSE,1,NA,NA,7,splines,0.0247,5.975026257798008e-5,0.006969224164432967,0,10000
7,250,0,250,250,500,500,750,750,2,0,1,0,0,0,0,0,0,0,-0.5,-0.5,-0.5,-0.5,-0.5,-0.5,-0.5,-0.5,linear,0.025,TRUE,100,FALSE,1,NA,NA,7,splines_cal,0.0244,7.057655970191846e-5,0.007001056713609763,0,10000
7,250,0,250,250,500,500,750,750,2,0,1,0,0,0,0,0,0,0,-0.5,-0.5,-0.5,-0.5,-0.5,-0.5,-0.5,-0.5,linear,0.025,TRUE,100,FALSE,2,NA,NA,2,fixmodel,0.0252,-5.353285541139735e-4,0.007408510788117889,0,10000
7,250,0,250,250,500,500,750,750,2,0,1,0,0,0,0,0,0,0,-0.5,-0.5,-0.5,-0.5,-0.5,-0.5,-0.5,-0.5,linear,0.025,TRUE,100,FALSE,2,NA,NA,2,sepmodel,0.0234,-6.186987101173914e-4,0.00789816831720432,0,10000
7,250,0,250,250,500,500,750,750,2,0,1,0,0,0,0,0,0,0,-0.5,-0.5,-0.5,-0.5,-0.5,-0.5,-0.5,-0.5,linear,0.025,TRUE,100,FALSE,2,NA,NA,2,splines,0.0259,-5.230702434029814e-4,0.007353069586236473,0,10000
7,250,0,250,250,500,500,750,750,2,0,1,0,0,0,0,0,0,0,-0.5,-0.5,-0.5,-0.5,-0.5,-0.5,-0.5,-0.5,linear,0.025,TRUE,100,FALSE,2,NA,NA,2,splines_cal,0.0262,-4.97761312333755e-4,0.007349654274456491,0,10000
7,250,0,250,250,500,500,750,750,2,0,1,0,0,0,0,0,0,0,-0.5,-0.5,-0.5,-0.5,-0.5,-0.5,-0.5,-0.5,linear,0.025,TRUE,100,FALSE,2,NA,NA,3,fixmodel,0.0237,3.733244614189371e-5,0.007318676334543763,0,10000
7,250,0,250,250,500,500,750,750,2,0,1,0,0,0,0,0,0,0,-0.5,-0.5,-0.5,-0.5,-0.5,-0.5,-0.5,-0.5,linear,0.025,TRUE,100,FALSE,2,NA,NA,3,sepmodel,0.022,-4.6037709861976925e-5,0.007900606986849287,0,10000
7,250,0,250,250,500,500,750,750,2,0,1,0,0,0,0,0,0,0,-0.5,-0.5,-0.5,-0.5,-0.5,-0.5,-0.5,-0.5,linear,0.025,TRUE,100,FALSE,2,NA,NA,3,splines,0.0246,5.199364470999727e-5,0.007254022893782848,0,10000
7,250,0,250,250,500,500,750,750,2,0,1,0,0,0,0,0,0,0,-0.5,-0.5,-0.5,-0.5,-0.5,-0.5,-0.5,-0.5,linear,0.025,TRUE,100,FALSE,2,NA,NA,3,splines_cal,0.0244,8.576519005323895e-5,0.007248518632803724,0,10000
7,250,0,250,250,500,500,750,750,2,0,1,0,0,0,0,0,0,0,-0.5,-0.5,-0.5,-0.5,-0.5,-0.5,-0.5,-0.5,linear,0.025,TRUE,100,FALSE,2,NA,NA,4,fixmodel,0.0259,1.257411036524512e-4,0.007052766613398837,0,10000
7,250,0,250,250,500,500,750,750,2,0,1,0,0,0,0,0,0,0,-0.5,-0.5,-0.5,-0.5,-0.5,-0.5,-0.5,-0.5,linear,0.025,TRUE,100,FALSE,2,NA,NA,4,sepmodel,0.0226,-2.166928426546086e-4,0.007894774311281192,0,10000
7,250,0,250,250,500,500,750,750,2,0,1,0,0,0,0,0,0,0,-0.5,-0.5,-0.5,-0.5,-0.5,-0.5,-0.5,-0.5,linear,0.025,TRUE,100,FALSE,2,NA,NA,4,splines,0.0251,2.1572233846315847e-4,0.007003672709781049,0,10000
7,250,0,250,250,500,500,750,750,2,0,1,0,0,0,0,0,0,0,-0.5,-0.5,-0.5,-0.5,-0.5,-0.5,-0.5,-0.5,linear,0.025,TRUE,100,FALSE,2,NA,NA,4,splines_cal,0.0261,4.943904304310385e-4,0.006860888384074915,0,10000
7,250,0,250,250,500,500,750,750,2,0,1,0,0,0,0,0,0,0,-0.5,-0.5,-0.5,-0.5,-0.5,-0.5,-0.5,-0.5,linear,0.025,TRUE,100,FALSE,2,NA,NA,5,fixmodel,0.0238,-0.001909695318781409,0.0072797847446913035,0,10000
7,250,0,250,250,500,500,750,750,2,0,1,0,0,0,0,0,0,0,-0.5,-0.5,-0.5,-0.5,-0.5,-0.5,-0.5,-0.5,linear,0.025,TRUE,100,FALSE,2,NA,NA,5,sepmodel,0.0234,-0.002252129265088462,0.008149616841163875,0,10000
7,250,0,250,250,500,500,750,750,2,0,1,0,0,0,0,0,0,0,-0.5,-0.5,-0.5,-0.5,-0.5,-0.5,-0.5,-0.5,linear,0.025,TRUE,100,FALSE,2,NA,NA,5,splines,0.0244,-0.0018229207581245209,0.007219202074481822,0,10000
7,250,0,250,250,500,500,750,750,2,0,1,0,0,0,0,0,0,0,-0.5,-0.5,-0.5,-0.5,-0.5,-0.5,-0.5,-0.5,linear,0.025,TRUE,100,FALSE,2,NA,NA,5,splines_cal,0.0252,-0.0016243434241774001,0.007076435129029572,0,10000
7,250,0,250,250,500,500,750,750,2,0,1,0,0,0,0,0,0,0,-0.5,-0.5,-0.5,-0.5,-0.5,-0.5,-0.5,-0.5,linear,0.025,TRUE,100,FALSE,2,NA,NA,6,fixmodel,0.0262,-1.616128798202961e-4,0.006925138994804855,0,10000
7,250,0,250,250,500,500,750,750,2,0,1,0,0,0,0,0,0,0,-0.5,-0.5,-0.5,-0.5,-0.5,-0.5,-0.5,-0.5,linear,0.025,TRUE,100,FALSE,2,NA,NA,6,sepmodel,0.0243,-4.2791671311951404e-4,0.007917528013923179,0,10000
7,250,0,250,250,500,500,750,750,2,0,1,0,0,0,0,0,0,0,-0.5,-0.5,-0.5,-0.5,-0.5,-0.5,-0.5,-0.5,linear,0.025,TRUE,100,FALSE,2,NA,NA,6,splines,0.0253,-1.1298477486517123e-4,0.0068930714487473324,0,10000
7,250,0,250,250,500,500,750,750,2,0,1,0,0,0,0,0,0,0,-0.5,-0.5,-0.5,-0.5,-0.5,-0.5,-0.5,-0.5,linear,0.025,TRUE,100,FALSE,2,NA,NA,6,splines_cal,0.0254,-1.790024251826043e-4,0.0069052541132936995,0,10000
7,250,0,250,250,500,500,750,750,2,0,1,0,0,0,0,0,0,0,-0.5,-0.5,-0.5,-0.5,-0.5,-0.5,-0.5,-0.5,linear,0.025,TRUE,100,FALSE,2,NA,NA,7,fixmodel,0.0239,3.292639267043566e-4,0.0069420986586356025,0,10000
7,250,0,250,250,500,500,750,750,2,0,1,0,0,0,0,0,0,0,-0.5,-0.5,-0.5,-0.5,-0.5,-0.5,-0.5,-0.5,linear,0.025,TRUE,100,FALSE,2,NA,NA,7,sepmodel,0.0248,6.296009340503164e-5,0.007958153709966052,0,10000
7,250,0,250,250,500,500,750,750,2,0,1,0,0,0,0,0,0,0,-0.5,-0.5,-0.5,-0.5,-0.5,-0.5,-0.5,-0.5,linear,0.025,TRUE,100,FALSE,2,NA,NA,7,splines,0.0241,3.758120949785387e-4,0.0069082824856496845,0,10000
7,250,0,250,250,500,500,750,750,2,0,1,0,0,0,0,0,0,0,-0.5,-0.5,-0.5,-0.5,-0.5,-0.5,-0.5,-0.5,linear,0.025,TRUE,100,FALSE,2,NA,NA,7,splines_cal,0.0237,3.082388508340271e-4,0.006923685113641647,0,10000
7,250,0,250,250,500,500,750,750,2,0,1,0,0,0,0,0,0,0,-0.5,-0.5,-0.5,-0.5,-0.5,-0.5,-0.5,-0.5,linear,0.025,TRUE,100,FALSE,3,NA,NA,2,fixmodel,0.0233,-0.0013140632196940775,0.007321777964687292,0,10000
7,250,0,250,250,500,500,750,750,2,0,1,0,0,0,0,0,0,0,-0.5,-0.5,-0.5,-0.5,-0.5,-0.5,-0.5,-0.5,linear,0.025,TRUE,100,FALSE,3,NA,NA,2,sepmodel,0.0215,-0.00166796336194123,0.00786483918114651,0,10000
7,250,0,250,250,500,500,750,750,2,0,1,0,0,0,0,0,0,0,-0.5,-0.5,-0.5,-0.5,-0.5,-0.5,-0.5,-0.5,linear,0.025,TRUE,100,FALSE,3,NA,NA,2,splines,0.024,-0.001265461954679873,0.007212014297564595,0,10000
7,250,0,250,250,500,500,750,750,2,0,1,0,0,0,0,0,0,0,-0.5,-0.5,-0.5,-0.5,-0.5,-0.5,-0.5,-0.5,linear,0.025,TRUE,100,FALSE,3,NA,NA,2,splines_cal,0.0236,-0.0012396282644654066,0.007250315071986866,0,10000
7,250,0,250,250,500,500,750,750,2,0,1,0,0,0,0,0,0,0,-0.5,-0.5,-0.5,-0.5,-0.5,-0.5,-0.5,-0.5,linear,0.025,TRUE,100,FALSE,3,NA,NA,3,fixmodel,0.0267,5.783891846545996e-4,0.007592756748007918,0,10000
7,250,0,250,250,500,500,750,750,2,0,1,0,0,0,0,0,0,0,-0.5,-0.5,-0.5,-0.5,-0.5,-0.5,-0.5,-0.5,linear,0.025,TRUE,100,FALSE,3,NA,NA,3,sepmodel,0.0246,2.2448904240695498e-4,0.008161803873604948,0,10000
7,250,0,250,250,500,500,750,750,2,0,1,0,0,0,0,0,0,0,-0.5,-0.5,-0.5,-0.5,-0.5,-0.5,-0.5,-0.5,linear,0.025,TRUE,100,FALSE,3,NA,NA,3,splines,0.0276,6.250182647304424e-4,0.007485348749799324,0,10000
7,250,0,250,250,500,500,750,750,2,0,1,0,0,0,0,0,0,0,-0.5,-0.5,-0.5,-0.5,-0.5,-0.5,-0.5,-0.5,linear,0.025,TRUE,100,FALSE,3,NA,NA,3,splines_cal,0.027,6.552210120109544e-4,0.007523301977567964,0,10000
7,250,0,250,250,500,500,750,750,2,0,1,0,0,0,0,0,0,0,-0.5,-0.5,-0.5,-0.5,-0.5,-0.5,-0.5,-0.5,linear,0.025,TRUE,100,FALSE,3,NA,NA,4,fixmodel,0.0266,7.266576615352666e-5,0.007204195523105669,0,10000
7,250,0,250,250,500,500,750,750,2,0,1,0,0,0,0,0,0,0,-0.5,-0.5,-0.5,-0.5,-0.5,-0.5,-0.5,-0.5,linear,0.025,TRUE,100,FALSE,3,NA,NA,4,sepmodel,0.0247,-9.952083359638576e-6,0.008023130438095175,0,10000
7,250,0,250,250,500,500,750,750,2,0,1,0,0,0,0,0,0,0,-0.5,-0.5,-0.5,-0.5,-0.5,-0.5,-0.5,-0.5,linear,0.025,TRUE,100,FALSE,3,NA,NA,4,splines,0.0259,1.2381097079056054e-4,0.007147127613129144,0,10000
7,250,0,250,250,500,500,750,750,2,0,1,0,0,0,0,0,0,0,-0.5,-0.5,-0.5,-0.5,-0.5,-0.5,-0.5,-0.5,linear,0.025,TRUE,100,FALSE,3,NA,NA,4,splines_cal,0.0265,5.218534902842618e-4,0.007047193018406548,0,10000
7,250,0,250,250,500,500,750,750,2,0,1,0,0,0,0,0,0,0,-0.5,-0.5,-0.5,-0.5,-0.5,-0.5,-0.5,-0.5,linear,0.025,TRUE,100,FALSE,3,NA,NA,5,fixmodel,0.0266,-0.0010538472843297129,0.00719161449687396,0,10000
7,250,0,250,250,500,500,750,750,2,0,1,0,0,0,0,0,0,0,-0.5,-0.5,-0.5,-0.5,-0.5,-0.5,-0.5,-0.5,linear,0.025,TRUE,100,FALSE,3,NA,NA,5,sepmodel,0.0245,-0.0011364651338428716,0.007967427429039348,0,10000
7,250,0,250,250,500,500,750,750,2,0,1,0,0,0,0,0,0,0,-0.5,-0.5,-0.5,-0.5,-0.5,-0.5,-0.5,-0.5,linear,0.025,TRUE,100,FALSE,3,NA,NA,5,splines,0.0263,-0.0010042637484239969,0.007154856431971048,0,10000
7,250,0,250,250,500,500,750,750,2,0,1,0,0,0,0,0,0,0,-0.5,-0.5,-0.5,-0.5,-0.5,-0.5,-0.5,-0.5,linear,0.025,TRUE,100,FALSE,3,NA,NA,5,splines_cal,0.0262,-5.567814400398274e-4,0.007054004011926358,0,10000
7,250,0,250,250,500,500,750,750,2,0,1,0,0,0,0,0,0,0,-0.5,-0.5,-0.5,-0.5,-0.5,-0.5,-0.5,-0.5,linear,0.025,TRUE,100,FALSE,3,NA,NA,6,fixmodel,0.0257,-0.0020376492520038985,0.007174607176795649,0,10000
7,250,0,250,250,500,500,750,750,2,0,1,0,0,0,0,0,0,0,-0.5,-0.5,-0.5,-0.5,-0.5,-0.5,-0.5,-0.5,linear,0.025,TRUE,100,FALSE,3,NA,NA,6,sepmodel,0.0241,-0.0023322263100278074,0.008134631906780591,0,10000
7,250,0,250,250,500,500,750,750,2,0,1,0,0,0,0,0,0,0,-0.5,-0.5,-0.5,-0.5,-0.5,-0.5,-0.5,-0.5,linear,0.025,TRUE,100,FALSE,3,NA,NA,6,splines,0.0247,-0.0019980927799359573,0.007133675137283408,0,10000
7,250,0,250,250,500,500,750,750,2,0,1,0,0,0,0,0,0,0,-0.5,-0.5,-0.5,-0.5,-0.5,-0.5,-0.5,-0.5,linear,0.025,TRUE,100,FALSE,3,NA,NA,6,splines_cal,0.0247,-0.0019506044665780664,0.007155389948294529,0,10000
7,250,0,250,250,500,500,750,750,2,0,1,0,0,0,0,0,0,0,-0.5,-0.5,-0.5,-0.5,-0.5,-0.5,-0.5,-0.5,linear,0.025,TRUE,100,FALSE,3,NA,NA,7,fixmodel,0.0233,-0.001356965683533567,0.006912572740025885,0,10000
7,250,0,250,250,500,500,750,750,2,0,1,0,0,0,0,0,0,0,-0.5,-0.5,-0.5,-0.5,-0.5,-0.5,-0.5,-0.5,linear,0.025,TRUE,100,FALSE,3,NA,NA,7,sepmodel,0.023,-0.0016515427415575777,0.007907714198109301,0,10000
7,250,0,250,250,500,500,750,750,2,0,1,0,0,0,0,0,0,0,-0.5,-0.5,-0.5,-0.5,-0.5,-0.5,-0.5,-0.5,linear,0.025,TRUE,100,FALSE,3,NA,NA,7,splines,0.0245,-0.0013171509603503082,0.006895637392205183,0,10000
7,250,0,250,250,500,500,750,750,2,0,1,0,0,0,0,0,0,0,-0.5,-0.5,-0.5,-0.5,-0.5,-0.5,-0.5,-0.5,linear,0.025,TRUE,100,FALSE,3,NA,NA,7,splines_cal,0.0231,-0.0012755280692203202,0.006904039634382821,0,10000
7,250,0,250,250,500,500,750,750,2,0,1,0,0,0,0,0,0,0,-0.375,-0.375,-0.375,-0.375,-0.375,-0.375,-0.375,-0.375,linear,0.025,TRUE,25,FALSE,1,NA,NA,2,fixmodel,0.0247,0.0010156019193959666,0.007435829889788799,0,10000
7,250,0,250,250,500,500,750,750,2,0,1,0,0,0,0,0,0,0,-0.375,-0.375,-0.375,-0.375,-0.375,-0.375,-0.375,-0.375,linear,0.025,TRUE,25,FALSE,1,NA,NA,2,sepmodel,0.0239,8.720419665113592e-4,0.008004292751240262,0,10000
7,250,0,250,250,500,500,750,750,2,0,1,0,0,0,0,0,0,0,-0.375,-0.375,-0.375,-0.375,-0.375,-0.375,-0.375,-0.375,linear,0.025,TRUE,25,FALSE,1,NA,NA,2,splines,0.024,0.00116897051281257,0.007289270665096301,0,10000
7,250,0,250,250,500,500,750,750,2,0,1,0,0,0,0,0,0,0,-0.375,-0.375,-0.375,-0.375,-0.375,-0.375,-0.375,-0.375,linear,0.025,TRUE,25,FALSE,1,NA,NA,2,splines_cal,0.0245,0.0010388956311954364,0.0073954384272182355,0,10000
7,250,0,250,250,500,500,750,750,2,0,1,0,0,0,0,0,0,0,-0.375,-0.375,-0.375,-0.375,-0.375,-0.375,-0.375,-0.375,linear,0.025,TRUE,25,FALSE,1,NA,NA,3,fixmodel,0.0259,-1.9211977914689745e-4,0.007448491738122091,0,10000
7,250,0,250,250,500,500,750,750,2,0,1,0,0,0,0,0,0,0,-0.375,-0.375,-0.375,-0.375,-0.375,-0.375,-0.375,-0.375,linear,0.025,TRUE,25,FALSE,1,NA,NA,3,sepmodel,0.0245,-3.35679732031882e-4,0.007960356469463817,0,10000
7,250,0,250,250,500,500,750,750,2,0,1,0,0,0,0,0,0,0,-0.375,-0.375,-0.375,-0.375,-0.375,-0.375,-0.375,-0.375,linear,0.025,TRUE,25,FALSE,1,NA,NA,3,splines,0.0256,-3.789727289269311e-5,0.007285583778076226,0,10000
7,250,0,250,250,500,500,750,750,2,0,1,0,0,0,0,0,0,0,-0.375,-0.375,-0.375,-0.375,-0.375,-0.375,-0.375,-0.375,linear,0.025,TRUE,25,FALSE,1,NA,NA,3,splines_cal,0.026,-1.6303067896762644e-4,0.007425943808762825,0,10000
7,250,0,250,250,500,500,750,750,2,0,1,0,0,0,0,0,0,0,-0.375,-0.375,-0.375,-0.375,-0.375,-0.375,-0.375,-0.375,linear,0.025,TRUE,25,FALSE,1,NA,NA,4,fixmodel,0.0249,-9.328340103067154e-5,0.0073004955360272935,0,10000
7,250,0,250,250,500,500,750,750,2,0,1,0,0,0,0,0,0,0,-0.375,-0.375,-0.375,-0.375,-0.375,-0.375,-0.375,-0.375,linear,0.025,TRUE,25,FALSE,1,NA,NA,4,sepmodel,0.0229,-5.058944105575966e-4,0.008188630476514493,0,10000
7,250,0,250,250,500,500,750,750,2,0,1,0,0,0,0,0,0,0,-0.375,-0.375,-0.375,-0.375,-0.375,-0.375,-0.375,-0.375,linear,0.025,TRUE,25,FALSE,1,NA,NA,4,splines,0.0246,-2.6510855098532538e-5,0.007210586636253064,0,10000
7,250,0,250,250,500,500,750,750,2,0,1,0,0,0,0,0,0,0,-0.375,-0.375,-0.375,-0.375,-0.375,-0.375,-0.375,-0.375,linear,0.025,TRUE,25,FALSE,1,NA,NA,4,splines_cal,0.0247,-1.2632696438801295e-4,0.007267936625981148,0,10000
7,250,0,250,250,500,500,750,750,2,0,1,0,0,0,0,0,0,0,-0.375,-0.375,-0.375,-0.375,-0.375,-0.375,-0.375,-0.375,linear,0.025,TRUE,25,FALSE,1,NA,NA,5,fixmodel,0.0257,-8.95952144442968e-4,0.007264810208307736,0,10000
7,250,0,250,250,500,500,750,750,2,0,1,0,0,0,0,0,0,0,-0.375,-0.375,-0.375,-0.375,-0.375,-0.375,-0.375,-0.375,linear,0.025,TRUE,25,FALSE,1,NA,NA,5,sepmodel,0.0242,-0.0013085631539698735,0.008137568427535062,0,10000
7,250,0,250,250,500,500,750,750,2,0,1,0,0,0,0,0,0,0,-0.375,-0.375,-0.375,-0.375,-0.375,-0.375,-0.375,-0.375,linear,0.025,TRUE,25,FALSE,1,NA,NA,5,splines,0.0255,-8.288625410572391e-4,0.0071998660529167865,0,10000
7,250,0,250,250,500,500,750,750,2,0,1,0,0,0,0,0,0,0,-0.375,-0.375,-0.375,-0.375,-0.375,-0.375,-0.375,-0.375,linear,0.025,TRUE,25,FALSE,1,NA,NA,5,splines_cal,0.025,-9.283066396252775e-4,0.0072272200392922885,0,10000
7,250,0,250,250,500,500,750,750,2,0,1,0,0,0,0,0,0,0,-0.375,-0.375,-0.375,-0.375,-0.375,-0.375,-0.375,-0.375,linear,0.025,TRUE,25,FALSE,1,NA,NA,6,fixmodel,0.0261,-0.001122401384025534,0.006957935582547807,0,10000
7,250,0,250,250,500,500,750,750,2,0,1,0,0,0,0,0,0,0,-0.375,-0.375,-0.375,-0.375,-0.375,-0.375,-0.375,-0.375,linear,0.025,TRUE,25,FALSE,1,NA,NA,6,sepmodel,0.0252,-0.0016456557577526902,0.007903360309274448,0,10000
7,250,0,250,250,500,500,750,750,2,0,1,0,0,0,0,0,0,0,-0.375,-0.375,-0.375,-0.375,-0.375,-0.375,-0.375,-0.375,linear,0.025,TRUE,25,FALSE,1,NA,NA,6,splines,0.0248,-0.0010185793857746366,0.006942348772220655,0,10000
7,250,0,250,250,500,500,750,750,2,0,1,0,0,0,0,0,0,0,-0.375,-0.375,-0.375,-0.375,-0.375,-0.375,-0.375,-0.375,linear,0.025,TRUE,25,FALSE,1,NA,NA,6,splines_cal,0.0254,-0.001071099435958237,0.0069765136563204036,0,10000
7,250,0,250,250,500,500,750,750,2,0,1,0,0,0,0,0,0,0,-0.375,-0.375,-0.375,-0.375,-0.375,-0.375,-0.375,-0.375,linear,0.025,TRUE,25,FALSE,1,NA,NA,7,fixmodel,0.0257,-2.314976557863768e-4,0.007059196912883818,0,10000
7,250,0,250,250,500,500,750,750,2,0,1,0,0,0,0,0,0,0,-0.375,-0.375,-0.375,-0.375,-0.375,-0.375,-0.375,-0.375,linear,0.025,TRUE,25,FALSE,1,NA,NA,7,sepmodel,0.0241,-7.547520295135953e-4,0.008057917370812788,0,10000
7,250,0,250,250,500,500,750,750,2,0,1,0,0,0,0,0,0,0,-0.375,-0.375,-0.375,-0.375,-0.375,-0.375,-0.375,-0.375,linear,0.025,TRUE,25,FALSE,1,NA,NA,7,splines,0.0243,-1.2962307404178433e-4,0.007017106596813364,0,10000
7,250,0,250,250,500,500,750,750,2,0,1,0,0,0,0,0,0,0,-0.375,-0.375,-0.375,-0.375,-0.375,-0.375,-0.375,-0.375,linear,0.025,TRUE,25,FALSE,1,NA,NA,7,splines_cal,0.0251,-1.5649464560030658e-4,0.007069743283277185,0,10000
7,250,0,250,250,500,500,750,750,2,0,1,0,0,0,0,0,0,0,-0.375,-0.375,-0.375,-0.375,-0.375,-0.375,-0.375,-0.375,linear,0.025,TRUE,25,FALSE,2,NA,NA,2,fixmodel,0.0232,8.182982622041229e-4,0.007335034122026032,0,10000
7,250,0,250,250,500,500,750,750,2,0,1,0,0,0,0,0,0,0,-0.375,-0.375,-0.375,-0.375,-0.375,-0.375,-0.375,-0.375,linear,0.025,TRUE,25,FALSE,2,NA,NA,2,sepmodel,0.0228,6.252984228153027e-4,0.007901464192573296,0,10000
7,250,0,250,250,500,500,750,750,2,0,1,0,0,0,0,0,0,0,-0.375,-0.375,-0.375,-0.375,-0.375,-0.375,-0.375,-0.375,linear,0.025,TRUE,25,FALSE,2,NA,NA,2,splines,0.0224,9.565449454547824e-4,0.007224706236504405,0,10000
7,250,0,250,250,500,500,750,750,2,0,1,0,0,0,0,0,0,0,-0.375,-0.375,-0.375,-0.375,-0.375,-0.375,-0.375,-0.375,linear,0.025,TRUE,25,FALSE,2,NA,NA,2,splines_cal,0.022,8.681459970095656e-4,0.007317916494737724,0,10000
7,250,0,250,250,500,500,750,750,2,0,1,0,0,0,0,0,0,0,-0.375,-0.375,-0.375,-0.375,-0.375,-0.375,-0.375,-0.375,linear,0.025,TRUE,25,FALSE,2,NA,NA,3,fixmodel,0.026,-3.79980292940778e-4,0.007666236095854143,0,10000
7,250,0,250,250,500,500,750,750,2,0,1,0,0,0,0,0,0,0,-0.375,-0.375,-0.375,-0.375,-0.375,-0.375,-0.375,-0.375,linear,0.025,TRUE,25,FALSE,2,NA,NA,3,sepmodel,0.0282,-5.729801323299718e-4,0.008254636569628292,0,10000
7,250,0,250,250,500,500,750,750,2,0,1,0,0,0,0,0,0,0,-0.375,-0.375,-0.375,-0.375,-0.375,-0.375,-0.375,-0.375,linear,0.025,TRUE,25,FALSE,2,NA,NA,3,splines,0.0267,-2.439996025934326e-4,0.0075705923627073625,0,10000
7,250,0,250,250,500,500,750,750,2,0,1,0,0,0,0,0,0,0,-0.375,-0.375,-0.375,-0.375,-0.375,-0.375,-0.375,-0.375,linear,0.025,TRUE,25,FALSE,2,NA,NA,3,splines_cal,0.0264,-3.1251379552389106e-4,0.007661092443926653,0,10000
7,250,0,250,250,500,500,750,750,2,0,1,0,0,0,0,0,0,0,-0.375,-0.375,-0.375,-0.375,-0.375,-0.375,-0.375,-0.375,linear,0.025,TRUE,25,FALSE,2,NA,NA,4,fixmodel,0.0266,5.096933894249574e-4,0.00733376060251611,0,10000
7,250,0,250,250,500,500,750,750,2,0,1,0,0,0,0,0,0,0,-0.375,-0.375,-0.375,-0.375,-0.375,-0.375,-0.375,-0.375,linear,0.025,TRUE,25,FALSE,2,NA,NA,4,sepmodel,0.0251,8.096992548182431e-4,0.008181577704358968,0,10000
7,250,0,250,250,500,500,750,750,2,0,1,0,0,0,0,0,0,0,-0.375,-0.375,-0.375,-0.375,-0.375,-0.375,-0.375,-0.375,linear,0.025,TRUE,25,FALSE,2,NA,NA,4,splines,0.0265,6.199488135981705e-4,0.0072647234495027135,0,10000
7,250,0,250,250,500,500,750,750,2,0,1,0,0,0,0,0,0,0,-0.375,-0.375,-0.375,-0.375,-0.375,-0.375,-0.375,-0.375,linear,0.025,TRUE,25,FALSE,2,NA,NA,4,splines_cal,0.0273,4.6018150930083994e-4,0.007327273613722026,0,10000
7,250,0,250,250,500,500,750,750,2,0,1,0,0,0,0,0,0,0,-0.375,-0.375,-0.375,-0.375,-0.375,-0.375,-0.375,-0.375,linear,0.025,TRUE,25,FALSE,2,NA,NA,5,fixmodel,0.0232,-0.0015735489953114807,0.007134224295454408,0,10000
7,250,0,250,250,500,500,750,750,2,0,1,0,0,0,0,0,0,0,-0.375,-0.375,-0.375,-0.375,-0.375,-0.375,-0.375,-0.375,linear,0.025,TRUE,25,FALSE,2,NA,NA,5,sepmodel,0.0255,-0.0012735431299181702,0.008043452218632912,0,10000
7,250,0,250,250,500,500,750,750,2,0,1,0,0,0,0,0,0,0,-0.375,-0.375,-0.375,-0.375,-0.375,-0.375,-0.375,-0.375,linear,0.025,TRUE,25,FALSE,2,NA,NA,5,splines,0.0235,-0.001459885711079882,0.007081492460312766,0,10000
7,250,0,250,250,500,500,750,750,2,0,1,0,0,0,0,0,0,0,-0.375,-0.375,-0.375,-0.375,-0.375,-0.375,-0.375,-0.375,linear,0.025,TRUE,25,FALSE,2,NA,NA,5,splines_cal,0.0223,-0.0015671440892710028,0.007091844894665974,0,10000
7,250,0,250,250,500,500,750,750,2,0,1,0,0,0,0,0,0,0,-0.375,-0.375,-0.375,-0.375,-0.375,-0.375,-0.375,-0.375,linear,0.025,TRUE,25,FALSE,2,NA,NA,6,fixmodel,0.0234,-1.149841228740334e-4,0.006830931527115594,0,10000
7,250,0,250,250,500,500,750,750,2,0,1,0,0,0,0,0,0,0,-0.375,-0.375,-0.375,-0.375,-0.375,-0.375,-0.375,-0.375,linear,0.025,TRUE,25,FALSE,2,NA,NA,6,sepmodel,0.0224,2.628364073272841e-4,0.007839497625296815,0,10000
7,250,0,250,250,500,500,750,750,2,0,1,0,0,0,0,0,0,0,-0.375,-0.375,-0.375,-0.375,-0.375,-0.375,-0.375,-0.375,linear,0.025,TRUE,25,FALSE,2,NA,NA,6,splines,0.0237,-6.0077635121097784e-5,0.006796992517441632,0,10000
7,250,0,250,250,500,500,750,750,2,0,1,0,0,0,0,0,0,0,-0.375,-0.375,-0.375,-0.375,-0.375,-0.375,-0.375,-0.375,linear,0.025,TRUE,25,FALSE,2,NA,NA,6,splines_cal,0.0239,-6.226037140259748e-5,0.006849047565345243,0,10000
7,250,0,250,250,500,500,750,750,2,0,1,0,0,0,0,0,0,0,-0.375,-0.375,-0.375,-0.375,-0.375,-0.375,-0.375,-0.375,linear,0.025,TRUE,25,FALSE,2,NA,NA,7,fixmodel,0.0237,-5.165303659159621e-4,0.006876090023946776,0,10000
7,250,0,250,250,500,500,750,750,2,0,1,0,0,0,0,0,0,0,-0.375,-0.375,-0.375,-0.375,-0.375,-0.375,-0.375,-0.375,linear,0.025,TRUE,25,FALSE,2,NA,NA,7,sepmodel,0.0238,-1.3870983571471107e-4,0.007848269071792808,0,10000
7,250,0,250,250,500,500,750,750,2,0,1,0,0,0,0,0,0,0,-0.375,-0.375,-0.375,-0.375,-0.375,-0.375,-0.375,-0.375,linear,0.025,TRUE,25,FALSE,2,NA,NA,7,splines,0.0231,-4.6131735474213805e-4,0.0068398708204127434,0,10000
7,250,0,250,250,500,500,750,750,2,0,1,0,0,0,0,0,0,0,-0.375,-0.375,-0.375,-0.375,-0.375,-0.375,-0.375,-0.375,linear,0.025,TRUE,25,FALSE,2,NA,NA,7,splines_cal,0.024,-4.162358600386629e-4,0.006899412919069552,0,10000
7,250,0,250,250,500,500,750,750,2,0,1,0,0,0,0,0,0,0,-0.375,-0.375,-0.375,-0.375,-0.375,-0.375,-0.375,-0.375,linear,0.025,TRUE,25,FALSE,3,NA,NA,2,fixmodel,0.0226,-0.0016100964712284004,0.007375997760789643,0,10000
7,250,0,250,250,500,500,750,750,2,0,1,0,0,0,0,0,0,0,-0.375,-0.375,-0.375,-0.375,-0.375,-0.375,-0.375,-0.375,linear,0.025,TRUE,25,FALSE,3,NA,NA,2,sepmodel,0.0231,-0.001292094563030818,0.007925767384467645,0,10000
7,250,0,250,250,500,500,750,750,2,0,1,0,0,0,0,0,0,0,-0.375,-0.375,-0.375,-0.375,-0.375,-0.375,-0.375,-0.375,linear,0.025,TRUE,25,FALSE,3,NA,NA,2,splines,0.0231,-0.001534628630761495,0.007279984545520873,0,10000
7,250,0,250,250,500,500,750,750,2,0,1,0,0,0,0,0,0,0,-0.375,-0.375,-0.375,-0.375,-0.375,-0.375,-0.375,-0.375,linear,0.025,TRUE,25,FALSE,3,NA,NA,2,splines_cal,0.0234,-0.0016126678684023432,0.007363334940200595,0,10000
7,250,0,250,250,500,500,750,750,2,0,1,0,0,0,0,0,0,0,-0.375,-0.375,-0.375,-0.375,-0.375,-0.375,-0.375,-0.375,linear,0.025,TRUE,25,FALSE,3,NA,NA,3,fixmodel,0.0225,-0.0014445111375233416,0.007382466729676391,0,10000
7,250,0,250,250,500,500,750,750,2,0,1,0,0,0,0,0,0,0,-0.375,-0.375,-0.375,-0.375,-0.375,-0.375,-0.375,-0.375,linear,0.025,TRUE,25,FALSE,3,NA,NA,3,sepmodel,0.0238,-0.0011265092293261433,0.007888936036932833,0,10000
7,250,0,250,250,500,500,750,750,2,0,1,0,0,0,0,0,0,0,-0.375,-0.375,-0.375,-0.375,-0.375,-0.375,-0.375,-0.375,linear,0.025,TRUE,25,FALSE,3,NA,NA,3,splines,0.0233,-0.0013664341569283036,0.007301648695274476,0,10000
7,250,0,250,250,500,500,750,750,2,0,1,0,0,0,0,0,0,0,-0.375,-0.375,-0.375,-0.375,-0.375,-0.375,-0.375,-0.375,linear,0.025,TRUE,25,FALSE,3,NA,NA,3,splines_cal,0.023,-0.001362726693380731,0.007364238156349406,0,10000
7,250,0,250,250,500,500,750,750,2,0,1,0,0,0,0,0,0,0,-0.375,-0.375,-0.375,-0.375,-0.375,-0.375,-0.375,-0.375,linear,0.025,TRUE,25,FALSE,3,NA,NA,4,fixmodel,0.024,-0.0012697550497196006,0.006996322148085222,0,10000
7,250,0,250,250,500,500,750,750,2,0,1,0,0,0,0,0,0,0,-0.375,-0.375,-0.375,-0.375,-0.375,-0.375,-0.375,-0.375,linear,0.025,TRUE,25,FALSE,3,NA,NA,4,sepmodel,0.0225,-0.0012014086148291825,0.007845507272468116,0,10000
7,250,0,250,250,500,500,750,750,2,0,1,0,0,0,0,0,0,0,-0.375,-0.375,-0.375,-0.375,-0.375,-0.375,-0.375,-0.375,linear,0.025,TRUE,25,FALSE,3,NA,NA,4,splines,0.0238,-0.001220924312342717,0.00693549890518128,0,10000
7,250,0,250,250,500,500,750,750,2,0,1,0,0,0,0,0,0,0,-0.375,-0.375,-0.375,-0.375,-0.375,-0.375,-0.375,-0.375,linear,0.025,TRUE,25,FALSE,3,NA,NA,4,splines_cal,0.0237,-0.001327531377691001,0.006977237448955455,0,10000
7,250,0,250,250,500,500,750,750,2,0,1,0,0,0,0,0,0,0,-0.375,-0.375,-0.375,-0.375,-0.375,-0.375,-0.375,-0.375,linear,0.025,TRUE,25,FALSE,3,NA,NA,5,fixmodel,0.0245,-6.315084392398798e-4,0.007126699222546972,0,10000
7,250,0,250,250,500,500,750,750,2,0,1,0,0,0,0,0,0,0,-0.375,-0.375,-0.375,-0.375,-0.375,-0.375,-0.375,-0.375,linear,0.025,TRUE,25,FALSE,3,NA,NA,5,sepmodel,0.025,-5.631620043494453e-4,0.008025340516104769,0,10000
7,250,0,250,250,500,500,750,750,2,0,1,0,0,0,0,0,0,0,-0.375,-0.375,-0.375,-0.375,-0.375,-0.375,-0.375,-0.375,linear,0.025,TRUE,25,FALSE,3,NA,NA,5,splines,0.0254,-5.838096227745931e-4,0.0070847184585618025,0,10000
7,250,0,250,250,500,500,750,750,2,0,1,0,0,0,0,0,0,0,-0.375,-0.375,-0.375,-0.375,-0.375,-0.375,-0.375,-0.375,linear,0.025,TRUE,25,FALSE,3,NA,NA,5,splines_cal,0.0252,-7.268593998288108e-4,0.007108693321971548,0,10000
7,250,0,250,250,500,500,750,750,2,0,1,0,0,0,0,0,0,0,-0.375,-0.375,-0.375,-0.375,-0.375,-0.375,-0.375,-0.375,linear,0.025,TRUE,25,FALSE,3,NA,NA,6,fixmodel,0.0221,-9.073119571696751e-4,0.006726584777541005,0,10000
7,250,0,250,250,500,500,750,750,2,0,1,0,0,0,0,0,0,0,-0.375,-0.375,-0.375,-0.375,-0.375,-0.375,-0.375,-0.375,linear,0.025,TRUE,25,FALSE,3,NA,NA,6,sepmodel,0.0237,-7.873502296789151e-4,0.007706073553447733,0,10000
7,250,0,250,250,500,500,750,750,2,0,1,0,0,0,0,0,0,0,-0.375,-0.375,-0.375,-0.375,-0.375,-0.375,-0.375,-0.375,linear,0.025,TRUE,25,FALSE,3,NA,NA,6,splines,0.0226,-9.256688263876299e-4,0.006689939558308565,0,10000
7,250,0,250,250,500,500,750,750,2,0,1,0,0,0,0,0,0,0,-0.375,-0.375,-0.375,-0.375,-0.375,-0.375,-0.375,-0.375,linear,0.025,TRUE,25,FALSE,3,NA,NA,6,splines_cal,0.0224,-9.45201417048265e-4,0.006737390931348328,0,10000
7,250,0,250,250,500,500,750,750,2,0,1,0,0,0,0,0,0,0,-0.375,-0.375,-0.375,-0.375,-0.375,-0.375,-0.375,-0.375,linear,0.025,TRUE,25,FALSE,3,NA,NA,7,fixmodel,0.0258,-9.792279469327575e-4,0.007021552277400054,0,10000
7,250,0,250,250,500,500,750,750,2,0,1,0,0,0,0,0,0,0,-0.375,-0.375,-0.375,-0.375,-0.375,-0.375,-0.375,-0.375,linear,0.025,TRUE,25,FALSE,3,NA,NA,7,sepmodel,0.0273,-8.592662194420743e-4,0.008041944467001887,0,10000
7,250,0,250,250,500,500,750,750,2,0,1,0,0,0,0,0,0,0,-0.375,-0.375,-0.375,-0.375,-0.375,-0.375,-0.375,-0.375,linear,0.025,TRUE,25,FALSE,3,NA,NA,7,splines,0.0256,-0.0010038529417699695,0.006982532384125913,0,10000
7,250,0,250,250,500,500,750,750,2,0,1,0,0,0,0,0,0,0,-0.375,-0.375,-0.375,-0.375,-0.375,-0.375,-0.375,-0.375,linear,0.025,TRUE,25,FALSE,3,NA,NA,7,splines_cal,0.0265,-9.799029738015645e-4,0.007039225878769509,0,10000
7,250,0,250,250,500,500,750,750,2,0,1,0,0,0,0,0,0,0,-0.375,-0.375,-0.375,-0.375,-0.375,-0.375,-0.375,-0.375,linear,0.025,TRUE,50,FALSE,1,NA,NA,2,fixmodel,0.0264,-9.689298931211479e-4,0.00763068484518305,0,10000
7,250,0,250,250,500,500,750,750,2,0,1,0,0,0,0,0,0,0,-0.375,-0.375,-0.375,-0.375,-0.375,-0.375,-0.375,-0.375,linear,0.025,TRUE,50,FALSE,1,NA,NA,2,sepmodel,0.0253,-0.0010491828939130402,0.008201609756258084,0,10000
7,250,0,250,250,500,500,750,750,2,0,1,0,0,0,0,0,0,0,-0.375,-0.375,-0.375,-0.375,-0.375,-0.375,-0.375,-0.375,linear,0.025,TRUE,50,FALSE,1,NA,NA,2,splines,0.0261,-8.014973066314232e-4,0.007441657271133178,0,10000
7,250,0,250,250,500,500,750,750,2,0,1,0,0,0,0,0,0,0,-0.375,-0.375,-0.375,-0.375,-0.375,-0.375,-0.375,-0.375,linear,0.025,TRUE,50,FALSE,1,NA,NA,2,splines_cal,0.0251,-9.140345236158548e-4,0.0075819980819583094,0,10000
7,250,0,250,250,500,500,750,750,2,0,1,0,0,0,0,0,0,0,-0.375,-0.375,-0.375,-0.375,-0.375,-0.375,-0.375,-0.375,linear,0.025,TRUE,50,FALSE,1,NA,NA,3,fixmodel,0.0246,-0.0018513321975762173,0.007360342672903916,0,10000
7,250,0,250,250,500,500,750,750,2,0,1,0,0,0,0,0,0,0,-0.375,-0.375,-0.375,-0.375,-0.375,-0.375,-0.375,-0.375,linear,0.025,TRUE,50,FALSE,1,NA,NA,3,sepmodel,0.0228,-0.0019315851983684757,0.007868992545252166,0,10000
7,250,0,250,250,500,500,750,750,2,0,1,0,0,0,0,0,0,0,-0.375,-0.375,-0.375,-0.375,-0.375,-0.375,-0.375,-0.375,linear,0.025,TRUE,50,FALSE,1,NA,NA,3,splines,0.0229,-0.0016845044013362783,0.007212451600373615,0,10000
7,250,0,250,250,500,500,750,750,2,0,1,0,0,0,0,0,0,0,-0.375,-0.375,-0.375,-0.375,-0.375,-0.375,-0.375,-0.375,linear,0.025,TRUE,50,FALSE,1,NA,NA,3,splines_cal,0.0245,-0.001808466643913042,0.007319073507312542,0,10000
7,250,0,250,250,500,500,750,750,2,0,1,0,0,0,0,0,0,0,-0.375,-0.375,-0.375,-0.375,-0.375,-0.375,-0.375,-0.375,linear,0.025,TRUE,50,FALSE,1,NA,NA,4,fixmodel,0.0254,-0.0010871302325217121,0.007378111038302162,0,10000
7,250,0,250,250,500,500,750,750,2,0,1,0,0,0,0,0,0,0,-0.375,-0.375,-0.375,-0.375,-0.375,-0.375,-0.375,-0.375,linear,0.025,TRUE,50,FALSE,1,NA,NA,4,sepmodel,0.025,-7.289149159993435e-4,0.0081334220062631,0,10000
7,250,0,250,250,500,500,750,750,2,0,1,0,0,0,0,0,0,0,-0.375,-0.375,-0.375,-0.375,-0.375,-0.375,-0.375,-0.375,linear,0.025,TRUE,50,FALSE,1,NA,NA,4,splines,0.0247,-0.0011149191706719575,0.007297077472593032,0,10000
7,250,0,250,250,500,500,750,750,2,0,1,0,0,0,0,0,0,0,-0.375,-0.375,-0.375,-0.375,-0.375,-0.375,-0.375,-0.375,linear,0.025,TRUE,50,FALSE,1,NA,NA,4,splines_cal,0.0238,-0.0011173099886951122,0.007270103562473448,0,10000
7,250,0,250,250,500,500,750,750,2,0,1,0,0,0,0,0,0,0,-0.375,-0.375,-0.375,-0.375,-0.375,-0.375,-0.375,-0.375,linear,0.025,TRUE,50,FALSE,1,NA,NA,5,fixmodel,0.0251,-0.0010766567633790284,0.007237472306195107,0,10000
7,250,0,250,250,500,500,750,750,2,0,1,0,0,0,0,0,0,0,-0.375,-0.375,-0.375,-0.375,-0.375,-0.375,-0.375,-0.375,linear,0.025,TRUE,50,FALSE,1,NA,NA,5,sepmodel,0.0242,-7.184414468566488e-4,0.007976945528998863,0,10000
7,250,0,250,250,500,500,750,750,2,0,1,0,0,0,0,0,0,0,-0.375,-0.375,-0.375,-0.375,-0.375,-0.375,-0.375,-0.375,linear,0.025,TRUE,50,FALSE,1,NA,NA,5,splines,0.0247,-0.001103905163245983,0.007176420771575595,0,10000
7,250,0,250,250,500,500,750,750,2,0,1,0,0,0,0,0,0,0,-0.375,-0.375,-0.375,-0.375,-0.375,-0.375,-0.375,-0.375,linear,0.025,TRUE,50,FALSE,1,NA,NA,5,splines_cal,0.0252,-0.0011503778052912093,0.00716292478321065,0,10000
7,250,0,250,250,500,500,750,750,2,0,1,0,0,0,0,0,0,0,-0.375,-0.375,-0.375,-0.375,-0.375,-0.375,-0.375,-0.375,linear,0.025,TRUE,50,FALSE,1,NA,NA,6,fixmodel,0.0254,-0.0012334744741246176,0.00701036923205107,0,10000
7,250,0,250,250,500,500,750,750,2,0,1,0,0,0,0,0,0,0,-0.375,-0.375,-0.375,-0.375,-0.375,-0.375,-0.375,-0.375,linear,0.025,TRUE,50,FALSE,1,NA,NA,6,sepmodel,0.0215,-8.23970440679164e-4,0.007867413553297734,0,10000
7,250,0,250,250,500,500,750,750,2,0,1,0,0,0,0,0,0,0,-0.375,-0.375,-0.375,-0.375,-0.375,-0.375,-0.375,-0.375,linear,0.025,TRUE,50,FALSE,1,NA,NA,6,splines,0.0262,-0.0012057448714571978,0.006966817294932231,0,10000
7,250,0,250,250,500,500,750,750,2,0,1,0,0,0,0,0,0,0,-0.375,-0.375,-0.375,-0.375,-0.375,-0.375,-0.375,-0.375,linear,0.025,TRUE,50,FALSE,1,NA,NA,6,splines_cal,0.0252,-0.0012855715003503377,0.006996205975290825,0,10000
7,250,0,250,250,500,500,750,750,2,0,1,0,0,0,0,0,0,0,-0.375,-0.375,-0.375,-0.375,-0.375,-0.375,-0.375,-0.375,linear,0.025,TRUE,50,FALSE,1,NA,NA,7,fixmodel,0.0259,-0.0020609448991763665,0.007119118574377704,0,10000
7,250,0,250,250,500,500,750,750,2,0,1,0,0,0,0,0,0,0,-0.375,-0.375,-0.375,-0.375,-0.375,-0.375,-0.375,-0.375,linear,0.025,TRUE,50,FALSE,1,NA,NA,7,sepmodel,0.0234,-0.0016514408657309957,0.008000090918618705,0,10000
7,250,0,250,250,500,500,750,750,2,0,1,0,0,0,0,0,0,0,-0.375,-0.375,-0.375,-0.375,-0.375,-0.375,-0.375,-0.375,linear,0.025,TRUE,50,FALSE,1,NA,NA,7,splines,0.027,-0.0020314337681629643,0.007090564213280983,0,10000
7,250,0,250,250,500,500,750,750,2,0,1,0,0,0,0,0,0,0,-0.375,-0.375,-0.375,-0.375,-0.375,-0.375,-0.375,-0.375,linear,0.025,TRUE,50,FALSE,1,NA,NA,7,splines_cal,0.0261,-0.0021157893812001455,0.0071052092232997575,0,10000
7,250,0,250,250,500,500,750,750,2,0,1,0,0,0,0,0,0,0,-0.375,-0.375,-0.375,-0.375,-0.375,-0.375,-0.375,-0.375,linear,0.025,TRUE,50,FALSE,2,NA,NA,2,fixmodel,0.0244,-0.0014298328057385954,0.0075822976661447114,0,10000
7,250,0,250,250,500,500,750,750,2,0,1,0,0,0,0,0,0,0,-0.375,-0.375,-0.375,-0.375,-0.375,-0.375,-0.375,-0.375,linear,0.025,TRUE,50,FALSE,2,NA,NA,2,sepmodel,0.0257,-0.0016816735587489224,0.008183122092378762,0,10000
7,250,0,250,250,500,500,750,750,2,0,1,0,0,0,0,0,0,0,-0.375,-0.375,-0.375,-0.375,-0.375,-0.375,-0.375,-0.375,linear,0.025,TRUE,50,FALSE,2,NA,NA,2,splines,0.0252,-0.0014350351885515575,0.007515128841433753,0,10000
7,250,0,250,250,500,500,750,750,2,0,1,0,0,0,0,0,0,0,-0.375,-0.375,-0.375,-0.375,-0.375,-0.375,-0.375,-0.375,linear,0.025,TRUE,50,FALSE,2,NA,NA,2,splines_cal,0.0244,-0.0014596700299259052,0.007543220889274389,0,10000
7,250,0,250,250,500,500,750,750,2,0,1,0,0,0,0,0,0,0,-0.375,-0.375,-0.375,-0.375,-0.375,-0.375,-0.375,-0.375,linear,0.025,TRUE,50,FALSE,2,NA,NA,3,fixmodel,0.0266,-0.0016048059640136109,0.007604742868053832,0,10000
7,250,0,250,250,500,500,750,750,2,0,1,0,0,0,0,0,0,0,-0.375,-0.375,-0.375,-0.375,-0.375,-0.375,-0.375,-0.375,linear,0.025,TRUE,50,FALSE,2,NA,NA,3,sepmodel,0.0254,-0.0018566467170242835,0.008207333871458033,0,10000
7,250,0,250,250,500,500,750,750,2,0,1,0,0,0,0,0,0,0,-0.375,-0.375,-0.375,-0.375,-0.375,-0.375,-0.375,-0.375,linear,0.025,TRUE,50,FALSE,2,NA,NA,3,splines,0.0256,-0.0016103187138246774,0.007518033202720134,0,10000
7,250,0,250,250,500,500,750,750,2,0,1,0,0,0,0,0,0,0,-0.375,-0.375,-0.375,-0.375,-0.375,-0.375,-0.375,-0.375,linear,0.025,TRUE,50,FALSE,2,NA,NA,3,splines_cal,0.0263,-0.0016401911570811663,0.007568288578040249,0,10000
7,250,0,250,250,500,500,750,750,2,0,1,0,0,0,0,0,0,0,-0.375,-0.375,-0.375,-0.375,-0.375,-0.375,-0.375,-0.375,linear,0.025,TRUE,50,FALSE,2,NA,NA,4,fixmodel,0.0251,-7.933658232961813e-4,0.0071369614659699595,0,10000
7,250,0,250,250,500,500,750,750,2,0,1,0,0,0,0,0,0,0,-0.375,-0.375,-0.375,-0.375,-0.375,-0.375,-0.375,-0.375,linear,0.025,TRUE,50,FALSE,2,NA,NA,4,sepmodel,0.0244,-6.367572617970644e-4,0.007964792156919275,0,10000
7,250,0,250,250,500,500,750,750,2,0,1,0,0,0,0,0,0,0,-0.375,-0.375,-0.375,-0.375,-0.375,-0.375,-0.375,-0.375,linear,0.025,TRUE,50,FALSE,2,NA,NA,4,splines,0.0257,-7.471231432344863e-4,0.0070798418917586235,0,10000
7,250,0,250,250,500,500,750,750,2,0,1,0,0,0,0,0,0,0,-0.375,-0.375,-0.375,-0.375,-0.375,-0.375,-0.375,-0.375,linear,0.025,TRUE,50,FALSE,2,NA,NA,4,splines_cal,0.0258,-7.833274416661849e-4,0.00705099609315699,0,10000
7,250,0,250,250,500,500,750,750,2,0,1,0,0,0,0,0,0,0,-0.375,-0.375,-0.375,-0.375,-0.375,-0.375,-0.375,-0.375,linear,0.025,TRUE,50,FALSE,2,NA,NA,5,fixmodel,0.0266,-1.1136997023459224e-4,0.007244294894084551,0,10000
7,250,0,250,250,500,500,750,750,2,0,1,0,0,0,0,0,0,0,-0.375,-0.375,-0.375,-0.375,-0.375,-0.375,-0.375,-0.375,linear,0.025,TRUE,50,FALSE,2,NA,NA,5,sepmodel,0.0262,4.5238591264548935e-5,0.008032768916476118,0,10000
7,250,0,250,250,500,500,750,750,2,0,1,0,0,0,0,0,0,0,-0.375,-0.375,-0.375,-0.375,-0.375,-0.375,-0.375,-0.375,linear,0.025,TRUE,50,FALSE,2,NA,NA,5,splines,0.0274,-6.558346520996469e-5,0.007193014882561093,0,10000
7,250,0,250,250,500,500,750,750,2,0,1,0,0,0,0,0,0,0,-0.375,-0.375,-0.375,-0.375,-0.375,-0.375,-0.375,-0.375,linear,0.025,TRUE,50,FALSE,2,NA,NA,5,splines_cal,0.0279,-1.1269315940689585e-5,0.007176645294193047,0,10000
7,250,0,250,250,500,500,750,750,2,0,1,0,0,0,0,0,0,0,-0.375,-0.375,-0.375,-0.375,-0.375,-0.375,-0.375,-0.375,linear,0.025,TRUE,50,FALSE,2,NA,NA,6,fixmodel,0.0253,-5.818867602340408e-4,0.007069254653426003,0,10000
7,250,0,250,250,500,500,750,750,2,0,1,0,0,0,0,0,0,0,-0.375,-0.375,-0.375,-0.375,-0.375,-0.375,-0.375,-0.375,linear,0.025,TRUE,50,FALSE,2,NA,NA,6,sepmodel,0.0256,-1.4450918574410106e-4,0.008016768340119516,0,10000
7,250,0,250,250,500,500,750,750,2,0,1,0,0,0,0,0,0,0,-0.375,-0.375,-0.375,-0.375,-0.375,-0.375,-0.375,-0.375,linear,0.025,TRUE,50,FALSE,2,NA,NA,6,splines,0.0251,-5.463872094103519e-4,0.0070339624172002235,0,10000
7,250,0,250,250,500,500,750,750,2,0,1,0,0,0,0,0,0,0,-0.375,-0.375,-0.375,-0.375,-0.375,-0.375,-0.375,-0.375,linear,0.025,TRUE,50,FALSE,2,NA,NA,6,splines_cal,0.025,-5.709049874918625e-4,0.007072747753531296,0,10000
7,250,0,250,250,500,500,750,750,2,0,1,0,0,0,0,0,0,0,-0.375,-0.375,-0.375,-0.375,-0.375,-0.375,-0.375,-0.375,linear,0.025,TRUE,50,FALSE,2,NA,NA,7,fixmodel,0.0245,1.9820553053119123e-5,0.006966157721426107,0,10000
7,250,0,250,250,500,500,750,750,2,0,1,0,0,0,0,0,0,0,-0.375,-0.375,-0.375,-0.375,-0.375,-0.375,-0.375,-0.375,linear,0.025,TRUE,50,FALSE,2,NA,NA,7,sepmodel,0.0258,4.571981275429918e-4,0.008009945413992851,0,10000
7,250,0,250,250,500,500,750,750,2,0,1,0,0,0,0,0,0,0,-0.375,-0.375,-0.375,-0.375,-0.375,-0.375,-0.375,-0.375,linear,0.025,TRUE,50,FALSE,2,NA,NA,7,splines,0.0246,5.7271969567186745e-5,0.006939643194236686,0,10000
7,250,0,250,250,500,500,750,750,2,0,1,0,0,0,0,0,0,0,-0.375,-0.375,-0.375,-0.375,-0.375,-0.375,-0.375,-0.375,linear,0.025,TRUE,50,FALSE,2,NA,NA,7,splines_cal,0.0245,2.487995820788187e-5,0.0069716846265933455,0,10000
7,250,0,250,250,500,500,750,750,2,0,1,0,0,0,0,0,0,0,-0.375,-0.375,-0.375,-0.375,-0.375,-0.375,-0.375,-0.375,linear,0.025,TRUE,50,FALSE,3,NA,NA,2,fixmodel,0.0261,5.252076910393698e-5,0.00747627591792215,0,10000
7,250,0,250,250,500,500,750,750,2,0,1,0,0,0,0,0,0,0,-0.375,-0.375,-0.375,-0.375,-0.375,-0.375,-0.375,-0.375,linear,0.025,TRUE,50,FALSE,3,NA,NA,2,sepmodel,0.0257,-3.2090299404436974e-4,0.008001741966068003,0,10000
7,250,0,250,250,500,500,750,750,2,0,1,0,0,0,0,0,0,0,-0.375,-0.375,-0.375,-0.375,-0.375,-0.375,-0.375,-0.375,linear,0.025,TRUE,50,FALSE,3,NA,NA,2,splines,0.027,2.104377203269649e-4,0.007398913856414058,0,10000
7,250,0,250,250,500,500,750,750,2,0,1,0,0,0,0,0,0,0,-0.375,-0.375,-0.375,-0.375,-0.375,-0.375,-0.375,-0.375,linear,0.025,TRUE,50,FALSE,3,NA,NA,2,splines_cal,0.0251,1.6258122783373432e-4,0.007445258935515095,0,10000
7,250,0,250,250,500,500,750,750,2,0,1,0,0,0,0,0,0,0,-0.375,-0.375,-0.375,-0.375,-0.375,-0.375,-0.375,-0.375,linear,0.025,TRUE,50,FALSE,3,NA,NA,3,fixmodel,0.0245,-1.6856508889189503e-4,0.007504561749385411,0,10000
7,250,0,250,250,500,500,750,750,2,0,1,0,0,0,0,0,0,0,-0.375,-0.375,-0.375,-0.375,-0.375,-0.375,-0.375,-0.375,linear,0.025,TRUE,50,FALSE,3,NA,NA,3,sepmodel,0.0254,-5.41988852040513e-4,0.008026589191678559,0,10000
7,250,0,250,250,500,500,750,750,2,0,1,0,0,0,0,0,0,0,-0.375,-0.375,-0.375,-0.375,-0.375,-0.375,-0.375,-0.375,linear,0.025,TRUE,50,FALSE,3,NA,NA,3,splines,0.0252,-1.1045243910650764e-5,0.007398515299790838,0,10000
7,250,0,250,250,500,500,750,750,2,0,1,0,0,0,0,0,0,0,-0.375,-0.375,-0.375,-0.375,-0.375,-0.375,-0.375,-0.375,linear,0.025,TRUE,50,FALSE,3,NA,NA,3,splines_cal,0.0238,-8.214986852692051e-5,0.007463728928239407,0,10000
7,250,0,250,250,500,500,750,750,2,0,1,0,0,0,0,0,0,0,-0.375,-0.375,-0.375,-0.375,-0.375,-0.375,-0.375,-0.375,linear,0.025,TRUE,50,FALSE,3,NA,NA,4,fixmodel,0.0275,6.573525222349856e-4,0.007214328272787712,0,10000
7,250,0,250,250,500,500,750,750,2,0,1,0,0,0,0,0,0,0,-0.375,-0.375,-0.375,-0.375,-0.375,-0.375,-0.375,-0.375,linear,0.025,TRUE,50,FALSE,3,NA,NA,4,sepmodel,0.0272,9.462325117318142e-4,0.00810023364922784,0,10000
7,250,0,250,250,500,500,750,750,2,0,1,0,0,0,0,0,0,0,-0.375,-0.375,-0.375,-0.375,-0.375,-0.375,-0.375,-0.375,linear,0.025,TRUE,50,FALSE,3,NA,NA,4,splines,0.0284,8.1051390250407e-4,0.007160321294580045,0,10000
7,250,0,250,250,500,500,750,750,2,0,1,0,0,0,0,0,0,0,-0.375,-0.375,-0.375,-0.375,-0.375,-0.375,-0.375,-0.375,linear,0.025,TRUE,50,FALSE,3,NA,NA,4,splines_cal,0.0279,8.248790969493749e-4,0.007106187234450189,0,10000
7,250,0,250,250,500,500,750,750,2,0,1,0,0,0,0,0,0,0,-0.375,-0.375,-0.375,-0.375,-0.375,-0.375,-0.375,-0.375,linear,0.025,TRUE,50,FALSE,3,NA,NA,5,fixmodel,0.0251,-7.090911335477714e-5,0.007166672182993949,0,10000
7,250,0,250,250,500,500,750,750,2,0,1,0,0,0,0,0,0,0,-0.375,-0.375,-0.375,-0.375,-0.375,-0.375,-0.375,-0.375,linear,0.025,TRUE,50,FALSE,3,NA,NA,5,sepmodel,0.0244,2.1797087614204108e-4,0.008040859163485656,0,10000
7,250,0,250,250,500,500,750,750,2,0,1,0,0,0,0,0,0,0,-0.375,-0.375,-0.375,-0.375,-0.375,-0.375,-0.375,-0.375,linear,0.025,TRUE,50,FALSE,3,NA,NA,5,splines,0.026,8.287819179708845e-5,0.007114420420266094,0,10000
7,250,0,250,250,500,500,750,750,2,0,1,0,0,0,0,0,0,0,-0.375,-0.375,-0.375,-0.375,-0.375,-0.375,-0.375,-0.375,linear,0.025,TRUE,50,FALSE,3,NA,NA,5,splines_cal,0.025,7.937005498942101e-5,0.007080627654646062,0,10000
7,250,0,250,250,500,500,750,750,2,0,1,0,0,0,0,0,0,0,-0.375,-0.375,-0.375,-0.375,-0.375,-0.375,-0.375,-0.375,linear,0.025,TRUE,50,FALSE,3,NA,NA,6,fixmodel,0.0271,-5.94525536357898e-4,0.007091572943354958,0,10000
7,250,0,250,250,500,500,750,750,2,0,1,0,0,0,0,0,0,0,-0.375,-0.375,-0.375,-0.375,-0.375,-0.375,-0.375,-0.375,linear,0.025,TRUE,50,FALSE,3,NA,NA,6,sepmodel,0.0277,-5.059212572886252e-4,0.008154049004860204,0,10000
7,250,0,250,250,500,500,750,750,2,0,1,0,0,0,0,0,0,0,-0.375,-0.375,-0.375,-0.375,-0.375,-0.375,-0.375,-0.375,linear,0.025,TRUE,50,FALSE,3,NA,NA,6,splines,0.0276,-5.982410404380834e-4,0.00705816654586583,0,10000
7,250,0,250,250,500,500,750,750,2,0,1,0,0,0,0,0,0,0,-0.375,-0.375,-0.375,-0.375,-0.375,-0.375,-0.375,-0.375,linear,0.025,TRUE,50,FALSE,3,NA,NA,6,splines_cal,0.0265,-5.932681116152343e-4,0.00708924174277156,0,10000
7,250,0,250,250,500,500,750,750,2,0,1,0,0,0,0,0,0,0,-0.375,-0.375,-0.375,-0.375,-0.375,-0.375,-0.375,-0.375,linear,0.025,TRUE,50,FALSE,3,NA,NA,7,fixmodel,0.0239,4.5871520914547796e-4,0.00707321165880518,0,10000
7,250,0,250,250,500,500,750,750,2,0,1,0,0,0,0,0,0,0,-0.375,-0.375,-0.375,-0.375,-0.375,-0.375,-0.375,-0.375,linear,0.025,TRUE,50,FALSE,3,NA,NA,7,sepmodel,0.0241,5.473194882146618e-4,0.008047477762972918,0,10000
7,250,0,250,250,500,500,750,750,2,0,1,0,0,0,0,0,0,0,-0.375,-0.375,-0.375,-0.375,-0.375,-0.375,-0.375,-0.375,linear,0.025,TRUE,50,FALSE,3,NA,NA,7,splines,0.024,4.544354182081154e-4,0.007031226420976085,0,10000
7,250,0,250,250,500,500,750,750,2,0,1,0,0,0,0,0,0,0,-0.375,-0.375,-0.375,-0.375,-0.375,-0.375,-0.375,-0.375,linear,0.025,TRUE,50,FALSE,3,NA,NA,7,splines_cal,0.0244,4.6587779488162565e-4,0.007064185245387504,0,10000
7,250,0,250,250,500,500,750,750,2,0,1,0,0,0,0,0,0,0,-0.375,-0.375,-0.375,-0.375,-0.375,-0.375,-0.375,-0.375,linear,0.025,TRUE,100,FALSE,1,NA,NA,2,fixmodel,0.0278,3.34283322463802e-4,0.007607506829127035,0,10000
7,250,0,250,250,500,500,750,750,2,0,1,0,0,0,0,0,0,0,-0.375,-0.375,-0.375,-0.375,-0.375,-0.375,-0.375,-0.375,linear,0.025,TRUE,100,FALSE,1,NA,NA,2,sepmodel,0.0277,8.413208215527413e-4,0.008183755080970452,0,10000
7,250,0,250,250,500,500,750,750,2,0,1,0,0,0,0,0,0,0,-0.375,-0.375,-0.375,-0.375,-0.375,-0.375,-0.375,-0.375,linear,0.025,TRUE,100,FALSE,1,NA,NA,2,splines,0.0302,4.785656165290984e-4,0.007465571219599155,0,10000
7,250,0,250,250,500,500,750,750,2,0,1,0,0,0,0,0,0,0,-0.375,-0.375,-0.375,-0.375,-0.375,-0.375,-0.375,-0.375,linear,0.025,TRUE,100,FALSE,1,NA,NA,2,splines_cal,0.0284,3.361546701145701e-4,0.00755101880524479,0,10000
7,250,0,250,250,500,500,750,750,2,0,1,0,0,0,0,0,0,0,-0.375,-0.375,-0.375,-0.375,-0.375,-0.375,-0.375,-0.375,linear,0.025,TRUE,100,FALSE,1,NA,NA,3,fixmodel,0.024,1.9705867321263655e-4,0.007478311156947813,0,10000
7,250,0,250,250,500,500,750,750,2,0,1,0,0,0,0,0,0,0,-0.375,-0.375,-0.375,-0.375,-0.375,-0.375,-0.375,-0.375,linear,0.025,TRUE,100,FALSE,1,NA,NA,3,sepmodel,0.0251,7.040961723012335e-4,0.008022235913931513,0,10000
7,250,0,250,250,500,500,750,750,2,0,1,0,0,0,0,0,0,0,-0.375,-0.375,-0.375,-0.375,-0.375,-0.375,-0.375,-0.375,linear,0.025,TRUE,100,FALSE,1,NA,NA,3,splines,0.0237,3.426711440572052e-4,0.0073337911506184935,0,10000
7,250,0,250,250,500,500,750,750,2,0,1,0,0,0,0,0,0,0,-0.375,-0.375,-0.375,-0.375,-0.375,-0.375,-0.375,-0.375,linear,0.025,TRUE,100,FALSE,1,NA,NA,3,splines_cal,0.0241,2.044925688278291e-4,0.007428621172074205,0,10000
7,250,0,250,250,500,500,750,750,2,0,1,0,0,0,0,0,0,0,-0.375,-0.375,-0.375,-0.375,-0.375,-0.375,-0.375,-0.375,linear,0.025,TRUE,100,FALSE,1,NA,NA,4,fixmodel,0.0218,-7.393535970335856e-5,0.007017790001722815,0,10000
7,250,0,250,250,500,500,750,750,2,0,1,0,0,0,0,0,0,0,-0.375,-0.375,-0.375,-0.375,-0.375,-0.375,-0.375,-0.375,linear,0.025,TRUE,100,FALSE,1,NA,NA,4,sepmodel,0.0222,6.572450637579226e-4,0.007815593511033026,0,10000
7,250,0,250,250,500,500,750,750,2,0,1,0,0,0,0,0,0,0,-0.375,-0.375,-0.375,-0.375,-0.375,-0.375,-0.375,-0.375,linear,0.025,TRUE,100,FALSE,1,NA,NA,4,splines,0.0225,-5.2687408170904166e-5,0.006962986261056241,0,10000
7,250,0,250,250,500,500,750,750,2,0,1,0,0,0,0,0,0,0,-0.375,-0.375,-0.375,-0.375,-0.375,-0.375,-0.375,-0.375,linear,0.025,TRUE,100,FALSE,1,NA,NA,4,splines_cal,0.0213,8.502242527113055e-5,0.006817281629348663,0,10000
7,250,0,250,250,500,500,750,750,2,0,1,0,0,0,0,0,0,0,-0.375,-0.375,-0.375,-0.375,-0.375,-0.375,-0.375,-0.375,linear,0.025,TRUE,100,FALSE,1,NA,NA,5,fixmodel,0.0263,-4.376524030550409e-4,0.007323767415498962,0,10000
7,250,0,250,250,500,500,750,750,2,0,1,0,0,0,0,0,0,0,-0.375,-0.375,-0.375,-0.375,-0.375,-0.375,-0.375,-0.375,linear,0.025,TRUE,100,FALSE,1,NA,NA,5,sepmodel,0.0272,2.9352802040625225e-4,0.008134359532776652,0,10000
7,250,0,250,250,500,500,750,750,2,0,1,0,0,0,0,0,0,0,-0.375,-0.375,-0.375,-0.375,-0.375,-0.375,-0.375,-0.375,linear,0.025,TRUE,100,FALSE,1,NA,NA,5,splines,0.0258,-4.1490941905642073e-4,0.007259834945201052,0,10000
7,250,0,250,250,500,500,750,750,2,0,1,0,0,0,0,0,0,0,-0.375,-0.375,-0.375,-0.375,-0.375,-0.375,-0.375,-0.375,linear,0.025,TRUE,100,FALSE,1,NA,NA,5,splines_cal,0.0248,-4.274345249507226e-4,0.007115931216709273,0,10000
7,250,0,250,250,500,500,750,750,2,0,1,0,0,0,0,0,0,0,-0.375,-0.375,-0.375,-0.375,-0.375,-0.375,-0.375,-0.375,linear,0.025,TRUE,100,FALSE,1,NA,NA,6,fixmodel,0.0254,0.0013302156485145067,0.006941280431654217,0,10000
7,250,0,250,250,500,500,750,750,2,0,1,0,0,0,0,0,0,0,-0.375,-0.375,-0.375,-0.375,-0.375,-0.375,-0.375,-0.375,linear,0.025,TRUE,100,FALSE,1,NA,NA,6,sepmodel,0.0238,0.0018850632343433752,0.007909415610450037,0,10000
7,250,0,250,250,500,500,750,750,2,0,1,0,0,0,0,0,0,0,-0.375,-0.375,-0.375,-0.375,-0.375,-0.375,-0.375,-0.375,linear,0.025,TRUE,100,FALSE,1,NA,NA,6,splines,0.0261,0.0014031969795714261,0.006915272449552909,0,10000
7,250,0,250,250,500,500,750,750,2,0,1,0,0,0,0,0,0,0,-0.375,-0.375,-0.375,-0.375,-0.375,-0.375,-0.375,-0.375,linear,0.025,TRUE,100,FALSE,1,NA,NA,6,splines_cal,0.0257,0.0013579432030295865,0.0069276451778452946,0,10000
7,250,0,250,250,500,500,750,750,2,0,1,0,0,0,0,0,0,0,-0.375,-0.375,-0.375,-0.375,-0.375,-0.375,-0.375,-0.375,linear,0.025,TRUE,100,FALSE,1,NA,NA,7,fixmodel,0.0225,-1.0328567099832458e-4,0.006919192741379568,0,10000
7,250,0,250,250,500,500,750,750,2,0,1,0,0,0,0,0,0,0,-0.375,-0.375,-0.375,-0.375,-0.375,-0.375,-0.375,-0.375,linear,0.025,TRUE,100,FALSE,1,NA,NA,7,sepmodel,0.0229,4.515619148304773e-4,0.00790763791862467,0,10000
7,250,0,250,250,500,500,750,750,2,0,1,0,0,0,0,0,0,0,-0.375,-0.375,-0.375,-0.375,-0.375,-0.375,-0.375,-0.375,linear,0.025,TRUE,100,FALSE,1,NA,NA,7,splines,0.0241,-3.290971006986662e-5,0.0068972282929987815,0,10000
7,250,0,250,250,500,500,750,750,2,0,1,0,0,0,0,0,0,0,-0.375,-0.375,-0.375,-0.375,-0.375,-0.375,-0.375,-0.375,linear,0.025,TRUE,100,FALSE,1,NA,NA,7,splines_cal,0.0237,-6.824730205341814e-5,0.006919048201226687,0,10000
7,250,0,250,250,500,500,750,750,2,0,1,0,0,0,0,0,0,0,-0.375,-0.375,-0.375,-0.375,-0.375,-0.375,-0.375,-0.375,linear,0.025,TRUE,100,FALSE,2,NA,NA,2,fixmodel,0.0242,-9.590747454145598e-4,0.007490177039269326,0,10000
7,250,0,250,250,500,500,750,750,2,0,1,0,0,0,0,0,0,0,-0.375,-0.375,-0.375,-0.375,-0.375,-0.375,-0.375,-0.375,linear,0.025,TRUE,100,FALSE,2,NA,NA,2,sepmodel,0.0238,-0.0010858637244233378,0.008060395547591392,0,10000
7,250,0,250,250,500,500,750,750,2,0,1,0,0,0,0,0,0,0,-0.375,-0.375,-0.375,-0.375,-0.375,-0.375,-0.375,-0.375,linear,0.025,TRUE,100,FALSE,2,NA,NA,2,splines,0.0245,-9.082873840759482e-4,0.007407717324749703,0,10000
7,250,0,250,250,500,500,750,750,2,0,1,0,0,0,0,0,0,0,-0.375,-0.375,-0.375,-0.375,-0.375,-0.375,-0.375,-0.375,linear,0.025,TRUE,100,FALSE,2,NA,NA,2,splines_cal,0.0244,-0.001023767967520036,0.007383005417490168,0,10000
7,250,0,250,250,500,500,750,750,2,0,1,0,0,0,0,0,0,0,-0.375,-0.375,-0.375,-0.375,-0.375,-0.375,-0.375,-0.375,linear,0.025,TRUE,100,FALSE,2,NA,NA,3,fixmodel,0.0243,3.4407856267882345e-4,0.007455298610582015,0,10000
7,250,0,250,250,500,500,750,750,2,0,1,0,0,0,0,0,0,0,-0.375,-0.375,-0.375,-0.375,-0.375,-0.375,-0.375,-0.375,linear,0.025,TRUE,100,FALSE,2,NA,NA,3,sepmodel,0.0244,2.1728958366971357e-4,0.008041637526677562,0,10000
7,250,0,250,250,500,500,750,750,2,0,1,0,0,0,0,0,0,0,-0.375,-0.375,-0.375,-0.375,-0.375,-0.375,-0.375,-0.375,linear,0.025,TRUE,100,FALSE,2,NA,NA,3,splines,0.0237,3.950621500437394e-4,0.00736343939871351,0,10000
7,250,0,250,250,500,500,750,750,2,0,1,0,0,0,0,0,0,0,-0.375,-0.375,-0.375,-0.375,-0.375,-0.375,-0.375,-0.375,linear,0.025,TRUE,100,FALSE,2,NA,NA,3,splines_cal,0.0232,2.830433046523863e-4,0.007344538432063328,0,10000
7,250,0,250,250,500,500,750,750,2,0,1,0,0,0,0,0,0,0,-0.375,-0.375,-0.375,-0.375,-0.375,-0.375,-0.375,-0.375,linear,0.025,TRUE,100,FALSE,2,NA,NA,4,fixmodel,0.0245,-4.0588771595117157e-4,0.007118838059101813,0,10000
7,250,0,250,250,500,500,750,750,2,0,1,0,0,0,0,0,0,0,-0.375,-0.375,-0.375,-0.375,-0.375,-0.375,-0.375,-0.375,linear,0.025,TRUE,100,FALSE,2,NA,NA,4,sepmodel,0.0229,-6.415208670988974e-4,0.008052528188571889,0,10000
7,250,0,250,250,500,500,750,750,2,0,1,0,0,0,0,0,0,0,-0.375,-0.375,-0.375,-0.375,-0.375,-0.375,-0.375,-0.375,linear,0.025,TRUE,100,FALSE,2,NA,NA,4,splines,0.0257,-4.1609019829633447e-4,0.0070818793515826884,0,10000
7,250,0,250,250,500,500,750,750,2,0,1,0,0,0,0,0,0,0,-0.375,-0.375,-0.375,-0.375,-0.375,-0.375,-0.375,-0.375,linear,0.025,TRUE,100,FALSE,2,NA,NA,4,splines_cal,0.0242,-6.082538454498113e-4,0.006959467686783744,0,10000
7,250,0,250,250,500,500,750,750,2,0,1,0,0,0,0,0,0,0,-0.375,-0.375,-0.375,-0.375,-0.375,-0.375,-0.375,-0.375,linear,0.025,TRUE,100,FALSE,2,NA,NA,5,fixmodel,0.0235,6.932689528258784e-5,0.007157462564604897,0,10000
7,250,0,250,250,500,500,750,750,2,0,1,0,0,0,0,0,0,0,-0.375,-0.375,-0.375,-0.375,-0.375,-0.375,-0.375,-0.375,linear,0.025,TRUE,100,FALSE,2,NA,NA,5,sepmodel,0.0235,-1.663062558651077e-4,0.008072855172296119,0,10000
7,250,0,250,250,500,500,750,750,2,0,1,0,0,0,0,0,0,0,-0.375,-0.375,-0.375,-0.375,-0.375,-0.375,-0.375,-0.375,linear,0.025,TRUE,100,FALSE,2,NA,NA,5,splines,0.0246,6.019159644416999e-5,0.0071218301317882765,0,10000
7,250,0,250,250,500,500,750,750,2,0,1,0,0,0,0,0,0,0,-0.375,-0.375,-0.375,-0.375,-0.375,-0.375,-0.375,-0.375,linear,0.025,TRUE,100,FALSE,2,NA,NA,5,splines_cal,0.0238,8.722719367051118e-6,0.006937435863765567,0,10000
7,250,0,250,250,500,500,750,750,2,0,1,0,0,0,0,0,0,0,-0.375,-0.375,-0.375,-0.375,-0.375,-0.375,-0.375,-0.375,linear,0.025,TRUE,100,FALSE,2,NA,NA,6,fixmodel,0.0237,2.409417282518864e-4,0.0069697184305494335,0,10000
7,250,0,250,250,500,500,750,750,2,0,1,0,0,0,0,0,0,0,-0.375,-0.375,-0.375,-0.375,-0.375,-0.375,-0.375,-0.375,linear,0.025,TRUE,100,FALSE,2,NA,NA,6,sepmodel,0.0245,1.5871786931324246e-4,0.007940052641277156,0,10000
7,250,0,250,250,500,500,750,750,2,0,1,0,0,0,0,0,0,0,-0.375,-0.375,-0.375,-0.375,-0.375,-0.375,-0.375,-0.375,linear,0.025,TRUE,100,FALSE,2,NA,NA,6,splines,0.0241,2.0976167237321986e-4,0.006945810243097988,0,10000
7,250,0,250,250,500,500,750,750,2,0,1,0,0,0,0,0,0,0,-0.375,-0.375,-0.375,-0.375,-0.375,-0.375,-0.375,-0.375,linear,0.025,TRUE,100,FALSE,2,NA,NA,6,splines_cal,0.0242,2.479755590528642e-4,0.006955460185206091,0,10000
7,250,0,250,250,500,500,750,750,2,0,1,0,0,0,0,0,0,0,-0.375,-0.375,-0.375,-0.375,-0.375,-0.375,-0.375,-0.375,linear,0.025,TRUE,100,FALSE,2,NA,NA,7,fixmodel,0.0239,1.521548927038809e-4,0.006970060332161152,0,10000
7,250,0,250,250,500,500,750,750,2,0,1,0,0,0,0,0,0,0,-0.375,-0.375,-0.375,-0.375,-0.375,-0.375,-0.375,-0.375,linear,0.025,TRUE,100,FALSE,2,NA,NA,7,sepmodel,0.0251,6.993103376515386e-5,0.00794679592240933,0,10000
7,250,0,250,250,500,500,750,750,2,0,1,0,0,0,0,0,0,0,-0.375,-0.375,-0.375,-0.375,-0.375,-0.375,-0.375,-0.375,linear,0.025,TRUE,100,FALSE,2,NA,NA,7,splines,0.0235,1.2356453455112076e-4,0.006948087013662901,0,10000
7,250,0,250,250,500,500,750,750,2,0,1,0,0,0,0,0,0,0,-0.375,-0.375,-0.375,-0.375,-0.375,-0.375,-0.375,-0.375,linear,0.025,TRUE,100,FALSE,2,NA,NA,7,splines_cal,0.0238,1.5574745586383369e-4,0.006957261095990544,0,10000
7,250,0,250,250,500,500,750,750,2,0,1,0,0,0,0,0,0,0,-0.375,-0.375,-0.375,-0.375,-0.375,-0.375,-0.375,-0.375,linear,0.025,TRUE,100,FALSE,3,NA,NA,2,fixmodel,0.0232,3.113240722283103e-5,0.007315852020803448,0,10000
7,250,0,250,250,500,500,750,750,2,0,1,0,0,0,0,0,0,0,-0.375,-0.375,-0.375,-0.375,-0.375,-0.375,-0.375,-0.375,linear,0.025,TRUE,100,FALSE,3,NA,NA,2,sepmodel,0.0234,5.806876325243935e-5,0.007939551826402673,0,10000
7,250,0,250,250,500,500,750,750,2,0,1,0,0,0,0,0,0,0,-0.375,-0.375,-0.375,-0.375,-0.375,-0.375,-0.375,-0.375,linear,0.025,TRUE,100,FALSE,3,NA,NA,2,splines,0.0239,8.526627628233445e-5,0.007211074711071145,0,10000
7,250,0,250,250,500,500,750,750,2,0,1,0,0,0,0,0,0,0,-0.375,-0.375,-0.375,-0.375,-0.375,-0.375,-0.375,-0.375,linear,0.025,TRUE,100,FALSE,3,NA,NA,2,splines_cal,0.0234,1.5289888795858565e-4,0.007267554454359648,0,10000
7,250,0,250,250,500,500,750,750,2,0,1,0,0,0,0,0,0,0,-0.375,-0.375,-0.375,-0.375,-0.375,-0.375,-0.375,-0.375,linear,0.025,TRUE,100,FALSE,3,NA,NA,3,fixmodel,0.0278,5.119556764212398e-4,0.0075743460026636966,0,10000
7,250,0,250,250,500,500,750,750,2,0,1,0,0,0,0,0,0,0,-0.375,-0.375,-0.375,-0.375,-0.375,-0.375,-0.375,-0.375,linear,0.025,TRUE,100,FALSE,3,NA,NA,3,sepmodel,0.0266,5.388920324504817e-4,0.008158079657584232,0,10000
7,250,0,250,250,500,500,750,750,2,0,1,0,0,0,0,0,0,0,-0.375,-0.375,-0.375,-0.375,-0.375,-0.375,-0.375,-0.375,linear,0.025,TRUE,100,FALSE,3,NA,NA,3,splines,0.027,5.627119256532704e-4,0.007484908353719135,0,10000
7,250,0,250,250,500,500,750,750,2,0,1,0,0,0,0,0,0,0,-0.375,-0.375,-0.375,-0.375,-0.375,-0.375,-0.375,-0.375,linear,0.025,TRUE,100,FALSE,3,NA,NA,3,splines_cal,0.0275,6.353120326672288e-4,0.007519775742196157,0,10000
7,250,0,250,250,500,500,750,750,2,0,1,0,0,0,0,0,0,0,-0.375,-0.375,-0.375,-0.375,-0.375,-0.375,-0.375,-0.375,linear,0.025,TRUE,100,FALSE,3,NA,NA,4,fixmodel,0.0226,2.6074684948195544e-4,0.007184792760091757,0,10000
7,250,0,250,250,500,500,750,750,2,0,1,0,0,0,0,0,0,0,-0.375,-0.375,-0.375,-0.375,-0.375,-0.375,-0.375,-0.375,linear,0.025,TRUE,100,FALSE,3,NA,NA,4,sepmodel,0.0244,3.457313406493918e-4,0.00798357829974465,0,10000
7,250,0,250,250,500,500,750,750,2,0,1,0,0,0,0,0,0,0,-0.375,-0.375,-0.375,-0.375,-0.375,-0.375,-0.375,-0.375,linear,0.025,TRUE,100,FALSE,3,NA,NA,4,splines,0.0234,2.1213302951128812e-4,0.007143665829927654,0,10000
7,250,0,250,250,500,500,750,750,2,0,1,0,0,0,0,0,0,0,-0.375,-0.375,-0.375,-0.375,-0.375,-0.375,-0.375,-0.375,linear,0.025,TRUE,100,FALSE,3,NA,NA,4,splines_cal,0.024,-1.837852665634631e-5,0.007041709244571018,0,10000
7,250,0,250,250,500,500,750,750,2,0,1,0,0,0,0,0,0,0,-0.375,-0.375,-0.375,-0.375,-0.375,-0.375,-0.375,-0.375,linear,0.025,TRUE,100,FALSE,3,NA,NA,5,fixmodel,0.0236,1.974871376611554e-4,0.007077627251742065,0,10000
7,250,0,250,250,500,500,750,750,2,0,1,0,0,0,0,0,0,0,-0.375,-0.375,-0.375,-0.375,-0.375,-0.375,-0.375,-0.375,linear,0.025,TRUE,100,FALSE,3,NA,NA,5,sepmodel,0.0223,2.8247162882861e-4,0.007810813671994997,0,10000
7,250,0,250,250,500,500,750,750,2,0,1,0,0,0,0,0,0,0,-0.375,-0.375,-0.375,-0.375,-0.375,-0.375,-0.375,-0.375,linear,0.025,TRUE,100,FALSE,3,NA,NA,5,splines,0.0235,1.4976922240635268e-4,0.007024836217721287,0,10000
7,250,0,250,250,500,500,750,750,2,0,1,0,0,0,0,0,0,0,-0.375,-0.375,-0.375,-0.375,-0.375,-0.375,-0.375,-0.375,linear,0.025,TRUE,100,FALSE,3,NA,NA,5,splines_cal,0.0252,-2.807179507351886e-5,0.006932279779404257,0,10000
7,250,0,250,250,500,500,750,750,2,0,1,0,0,0,0,0,0,0,-0.375,-0.375,-0.375,-0.375,-0.375,-0.375,-0.375,-0.375,linear,0.025,TRUE,100,FALSE,3,NA,NA,6,fixmodel,0.0246,1.413411325375304e-4,0.007081172177744562,0,10000
7,250,0,250,250,500,500,750,750,2,0,1,0,0,0,0,0,0,0,-0.375,-0.375,-0.375,-0.375,-0.375,-0.375,-0.375,-0.375,linear,0.025,TRUE,100,FALSE,3,NA,NA,6,sepmodel,0.0246,1.7047609342025864e-4,0.008121417178926579,0,10000
7,250,0,250,250,500,500,750,750,2,0,1,0,0,0,0,0,0,0,-0.375,-0.375,-0.375,-0.375,-0.375,-0.375,-0.375,-0.375,linear,0.025,TRUE,100,FALSE,3,NA,NA,6,splines,0.0247,6.29558012115814e-5,0.007037916241334529,0,10000
7,250,0,250,250,500,500,750,750,2,0,1,0,0,0,0,0,0,0,-0.375,-0.375,-0.375,-0.375,-0.375,-0.375,-0.375,-0.375,linear,0.025,TRUE,100,FALSE,3,NA,NA,6,splines_cal,0.0253,1.1655498768084135e-4,0.007060975209171156,0,10000
7,250,0,250,250,500,500,750,750,2,0,1,0,0,0,0,0,0,0,-0.375,-0.375,-0.375,-0.375,-0.375,-0.375,-0.375,-0.375,linear,0.025,TRUE,100,FALSE,3,NA,NA,7,fixmodel,0.0238,3.672864978453314e-4,0.006939163667282121,0,10000
7,250,0,250,250,500,500,750,750,2,0,1,0,0,0,0,0,0,0,-0.375,-0.375,-0.375,-0.375,-0.375,-0.375,-0.375,-0.375,linear,0.025,TRUE,100,FALSE,3,NA,NA,7,sepmodel,0.0232,3.964214587279937e-4,0.007894516011160358,0,10000
7,250,0,250,250,500,500,750,750,2,0,1,0,0,0,0,0,0,0,-0.375,-0.375,-0.375,-0.375,-0.375,-0.375,-0.375,-0.375,linear,0.025,TRUE,100,FALSE,3,NA,NA,7,splines,0.0241,2.8844948028500976e-4,0.006895439400128698,0,10000
7,250,0,250,250,500,500,750,750,2,0,1,0,0,0,0,0,0,0,-0.375,-0.375,-0.375,-0.375,-0.375,-0.375,-0.375,-0.375,linear,0.025,TRUE,100,FALSE,3,NA,NA,7,splines_cal,0.0233,3.430718265505422e-4,0.006923698826247135,0,10000
7,250,0,250,250,500,500,750,750,2,0,1,0,0,0,0,0,0,0,-0.25,-0.25,-0.25,-0.25,-0.25,-0.25,-0.25,-0.25,linear,0.025,TRUE,25,FALSE,1,NA,NA,2,fixmodel,0.0248,0.0015899458377381316,0.007510762701436689,0,10000
7,250,0,250,250,500,500,750,750,2,0,1,0,0,0,0,0,0,0,-0.25,-0.25,-0.25,-0.25,-0.25,-0.25,-0.25,-0.25,linear,0.025,TRUE,25,FALSE,1,NA,NA,2,sepmodel,0.0221,0.0015414377701703204,0.008054151760843972,0,10000
7,250,0,250,250,500,500,750,750,2,0,1,0,0,0,0,0,0,0,-0.25,-0.25,-0.25,-0.25,-0.25,-0.25,-0.25,-0.25,linear,0.025,TRUE,25,FALSE,1,NA,NA,2,splines,0.0245,0.001755950913589806,0.007344092958422508,0,10000
7,250,0,250,250,500,500,750,750,2,0,1,0,0,0,0,0,0,0,-0.25,-0.25,-0.25,-0.25,-0.25,-0.25,-0.25,-0.25,linear,0.025,TRUE,25,FALSE,1,NA,NA,2,splines_cal,0.0251,0.0015122850869767443,0.00749266610700354,0,10000
7,250,0,250,250,500,500,750,750,2,0,1,0,0,0,0,0,0,0,-0.25,-0.25,-0.25,-0.25,-0.25,-0.25,-0.25,-0.25,linear,0.025,TRUE,25,FALSE,1,NA,NA,3,fixmodel,0.0247,8.370215453116223e-4,0.007401662932337746,0,10000
7,250,0,250,250,500,500,750,750,2,0,1,0,0,0,0,0,0,0,-0.25,-0.25,-0.25,-0.25,-0.25,-0.25,-0.25,-0.25,linear,0.025,TRUE,25,FALSE,1,NA,NA,3,sepmodel,0.0224,7.88513477743529e-4,0.007938002593717445,0,10000
7,250,0,250,250,500,500,750,750,2,0,1,0,0,0,0,0,0,0,-0.25,-0.25,-0.25,-0.25,-0.25,-0.25,-0.25,-0.25,linear,0.025,TRUE,25,FALSE,1,NA,NA,3,splines,0.0242,0.0010062854612665733,0.00723150300325227,0,10000
7,250,0,250,250,500,500,750,750,2,0,1,0,0,0,0,0,0,0,-0.25,-0.25,-0.25,-0.25,-0.25,-0.25,-0.25,-0.25,linear,0.025,TRUE,25,FALSE,1,NA,NA,3,splines_cal,0.0246,7.563746910466707e-4,0.007365870212474557,0,10000
7,250,0,250,250,500,500,750,750,2,0,1,0,0,0,0,0,0,0,-0.25,-0.25,-0.25,-0.25,-0.25,-0.25,-0.25,-0.25,linear,0.025,TRUE,25,FALSE,1,NA,NA,4,fixmodel,0.0238,4.64303715738097e-5,0.0070470584534748,0,10000
7,250,0,250,250,500,500,750,750,2,0,1,0,0,0,0,0,0,0,-0.25,-0.25,-0.25,-0.25,-0.25,-0.25,-0.25,-0.25,linear,0.025,TRUE,25,FALSE,1,NA,NA,4,sepmodel,0.0227,-1.9305152234547887e-5,0.007913268468036189,0,10000
7,250,0,250,250,500,500,750,750,2,0,1,0,0,0,0,0,0,0,-0.25,-0.25,-0.25,-0.25,-0.25,-0.25,-0.25,-0.25,linear,0.025,TRUE,25,FALSE,1,NA,NA,4,splines,0.0252,1.5535518749976472e-4,0.007014126619825902,0,10000
7,250,0,250,250,500,500,750,750,2,0,1,0,0,0,0,0,0,0,-0.25,-0.25,-0.25,-0.25,-0.25,-0.25,-0.25,-0.25,linear,0.025,TRUE,25,FALSE,1,NA,NA,4,splines_cal,0.0243,7.16076868260803e-5,0.007031950776217265,0,10000
7,250,0,250,250,500,500,750,750,2,0,1,0,0,0,0,0,0,0,-0.25,-0.25,-0.25,-0.25,-0.25,-0.25,-0.25,-0.25,linear,0.025,TRUE,25,FALSE,1,NA,NA,5,fixmodel,0.0257,-3.678062660325744e-4,0.007135620068585574,0,10000
7,250,0,250,250,500,500,750,750,2,0,1,0,0,0,0,0,0,0,-0.25,-0.25,-0.25,-0.25,-0.25,-0.25,-0.25,-0.25,linear,0.025,TRUE,25,FALSE,1,NA,NA,5,sepmodel,0.0241,-4.335417898409204e-4,0.007960713209254223,0,10000
7,250,0,250,250,500,500,750,750,2,0,1,0,0,0,0,0,0,0,-0.25,-0.25,-0.25,-0.25,-0.25,-0.25,-0.25,-0.25,linear,0.025,TRUE,25,FALSE,1,NA,NA,5,splines,0.0262,-2.603314850005276e-4,0.007079546137983973,0,10000
7,250,0,250,250,500,500,750,750,2,0,1,0,0,0,0,0,0,0,-0.25,-0.25,-0.25,-0.25,-0.25,-0.25,-0.25,-0.25,linear,0.025,TRUE,25,FALSE,1,NA,NA,5,splines_cal,0.0248,-2.7557930770206156e-4,0.00711662445690379,0,10000
7,250,0,250,250,500,500,750,750,2,0,1,0,0,0,0,0,0,0,-0.25,-0.25,-0.25,-0.25,-0.25,-0.25,-0.25,-0.25,linear,0.025,TRUE,25,FALSE,1,NA,NA,6,fixmodel,0.0255,8.730063821881917e-4,0.007060303030603654,0,10000
7,250,0,250,250,500,500,750,750,2,0,1,0,0,0,0,0,0,0,-0.25,-0.25,-0.25,-0.25,-0.25,-0.25,-0.25,-0.25,linear,0.025,TRUE,25,FALSE,1,NA,NA,6,sepmodel,0.0257,0.001138431846592046,0.008058265221400632,0,10000
7,250,0,250,250,500,500,750,750,2,0,1,0,0,0,0,0,0,0,-0.25,-0.25,-0.25,-0.25,-0.25,-0.25,-0.25,-0.25,linear,0.025,TRUE,25,FALSE,1,NA,NA,6,splines,0.026,9.760141330518129e-4,0.006999827016257586,0,10000
7,250,0,250,250,500,500,750,750,2,0,1,0,0,0,0,0,0,0,-0.25,-0.25,-0.25,-0.25,-0.25,-0.25,-0.25,-0.25,linear,0.025,TRUE,25,FALSE,1,NA,NA,6,splines_cal,0.0259,8.587841064307185e-4,0.007094929779129519,0,10000
7,250,0,250,250,500,500,750,750,2,0,1,0,0,0,0,0,0,0,-0.25,-0.25,-0.25,-0.25,-0.25,-0.25,-0.25,-0.25,linear,0.025,TRUE,25,FALSE,1,NA,NA,7,fixmodel,0.0262,1.4596890280349658e-4,0.007090907663369876,0,10000
7,250,0,250,250,500,500,750,750,2,0,1,0,0,0,0,0,0,0,-0.25,-0.25,-0.25,-0.25,-0.25,-0.25,-0.25,-0.25,linear,0.025,TRUE,25,FALSE,1,NA,NA,7,sepmodel,0.0262,4.1139436720731093e-4,0.008091531258538233,0,10000
7,250,0,250,250,500,500,750,750,2,0,1,0,0,0,0,0,0,0,-0.25,-0.25,-0.25,-0.25,-0.25,-0.25,-0.25,-0.25,linear,0.025,TRUE,25,FALSE,1,NA,NA,7,splines,0.026,2.5079650155587346e-4,0.007041097031586139,0,10000
7,250,0,250,250,500,500,750,750,2,0,1,0,0,0,0,0,0,0,-0.25,-0.25,-0.25,-0.25,-0.25,-0.25,-0.25,-0.25,linear,0.025,TRUE,25,FALSE,1,NA,NA,7,splines_cal,0.0254,1.7622911476264353e-4,0.007098817338078264,0,10000
7,250,0,250,250,500,500,750,750,2,0,1,0,0,0,0,0,0,0,-0.25,-0.25,-0.25,-0.25,-0.25,-0.25,-0.25,-0.25,linear,0.025,TRUE,25,FALSE,2,NA,NA,2,fixmodel,0.0241,4.5903865342372696e-4,0.007351545403420001,0,10000
7,250,0,250,250,500,500,750,750,2,0,1,0,0,0,0,0,0,0,-0.25,-0.25,-0.25,-0.25,-0.25,-0.25,-0.25,-0.25,linear,0.025,TRUE,25,FALSE,2,NA,NA,2,sepmodel,0.0264,3.1290070293388267e-4,0.007905362688405627,0,10000
7,250,0,250,250,500,500,750,750,2,0,1,0,0,0,0,0,0,0,-0.25,-0.25,-0.25,-0.25,-0.25,-0.25,-0.25,-0.25,linear,0.025,TRUE,25,FALSE,2,NA,NA,2,splines,0.0251,5.016201884394237e-4,0.007286753889232039,0,10000
7,250,0,250,250,500,500,750,750,2,0,1,0,0,0,0,0,0,0,-0.25,-0.25,-0.25,-0.25,-0.25,-0.25,-0.25,-0.25,linear,0.025,TRUE,25,FALSE,2,NA,NA,2,splines_cal,0.0247,2.9145663053940774e-4,0.007356853051627351,0,10000
7,250,0,250,250,500,500,750,750,2,0,1,0,0,0,0,0,0,0,-0.25,-0.25,-0.25,-0.25,-0.25,-0.25,-0.25,-0.25,linear,0.025,TRUE,25,FALSE,2,NA,NA,3,fixmodel,0.0263,1.5729891894170482e-4,0.00762312142239958,0,10000
7,250,0,250,250,500,500,750,750,2,0,1,0,0,0,0,0,0,0,-0.25,-0.25,-0.25,-0.25,-0.25,-0.25,-0.25,-0.25,linear,0.025,TRUE,25,FALSE,2,NA,NA,3,sepmodel,0.0241,1.1160968451652802e-5,0.008202856834465132,0,10000
7,250,0,250,250,500,500,750,750,2,0,1,0,0,0,0,0,0,0,-0.25,-0.25,-0.25,-0.25,-0.25,-0.25,-0.25,-0.25,linear,0.025,TRUE,25,FALSE,2,NA,NA,3,splines,0.0266,1.9854258987669495e-4,0.007549246836153905,0,10000
7,250,0,250,250,500,500,750,750,2,0,1,0,0,0,0,0,0,0,-0.25,-0.25,-0.25,-0.25,-0.25,-0.25,-0.25,-0.25,linear,0.025,TRUE,25,FALSE,2,NA,NA,3,splines_cal,0.0263,1.1345651850889693e-4,0.00759720594825608,0,10000
7,250,0,250,250,500,500,750,750,2,0,1,0,0,0,0,0,0,0,-0.25,-0.25,-0.25,-0.25,-0.25,-0.25,-0.25,-0.25,linear,0.025,TRUE,25,FALSE,2,NA,NA,4,fixmodel,0.0235,-4.2568885377101306e-4,0.00709943935734495,0,10000
7,250,0,250,250,500,500,750,750,2,0,1,0,0,0,0,0,0,0,-0.25,-0.25,-0.25,-0.25,-0.25,-0.25,-0.25,-0.25,linear,0.025,TRUE,25,FALSE,2,NA,NA,4,sepmodel,0.0225,-7.062662519833477e-4,0.007924191404220592,0,10000
7,250,0,250,250,500,500,750,750,2,0,1,0,0,0,0,0,0,0,-0.25,-0.25,-0.25,-0.25,-0.25,-0.25,-0.25,-0.25,linear,0.025,TRUE,25,FALSE,2,NA,NA,4,splines,0.0237,-3.3562589264209055e-4,0.007059490796380704,0,10000
7,250,0,250,250,500,500,750,750,2,0,1,0,0,0,0,0,0,0,-0.25,-0.25,-0.25,-0.25,-0.25,-0.25,-0.25,-0.25,linear,0.025,TRUE,25,FALSE,2,NA,NA,4,splines_cal,0.0221,-5.749782075089195e-4,0.007058419658823113,0,10000
7,250,0,250,250,500,500,750,750,2,0,1,0,0,0,0,0,0,0,-0.25,-0.25,-0.25,-0.25,-0.25,-0.25,-0.25,-0.25,linear,0.025,TRUE,25,FALSE,2,NA,NA,5,fixmodel,0.0247,5.280796551331714e-4,0.007055004429874462,0,10000
7,250,0,250,250,500,500,750,750,2,0,1,0,0,0,0,0,0,0,-0.25,-0.25,-0.25,-0.25,-0.25,-0.25,-0.25,-0.25,linear,0.025,TRUE,25,FALSE,2,NA,NA,5,sepmodel,0.0252,2.475022569208674e-4,0.007898506971133597,0,10000
7,250,0,250,250,500,500,750,750,2,0,1,0,0,0,0,0,0,0,-0.25,-0.25,-0.25,-0.25,-0.25,-0.25,-0.25,-0.25,linear,0.025,TRUE,25,FALSE,2,NA,NA,5,splines,0.0255,6.192659059159037e-4,0.006974998219841321,0,10000
7,250,0,250,250,500,500,750,750,2,0,1,0,0,0,0,0,0,0,-0.25,-0.25,-0.25,-0.25,-0.25,-0.25,-0.25,-0.25,linear,0.025,TRUE,25,FALSE,2,NA,NA,5,splines_cal,0.0245,4.676065117390121e-4,0.0070260058317661855,0,10000
7,250,0,250,250,500,500,750,750,2,0,1,0,0,0,0,0,0,0,-0.25,-0.25,-0.25,-0.25,-0.25,-0.25,-0.25,-0.25,linear,0.025,TRUE,25,FALSE,2,NA,NA,6,fixmodel,0.0246,1.2322245073557238e-4,0.006991771271051586,0,10000
7,250,0,250,250,500,500,750,750,2,0,1,0,0,0,0,0,0,0,-0.25,-0.25,-0.25,-0.25,-0.25,-0.25,-0.25,-0.25,linear,0.025,TRUE,25,FALSE,2,NA,NA,6,sepmodel,0.0222,3.784884619958303e-5,0.00792280015641027,0,10000
7,250,0,250,250,500,500,750,750,2,0,1,0,0,0,0,0,0,0,-0.25,-0.25,-0.25,-0.25,-0.25,-0.25,-0.25,-0.25,linear,0.025,TRUE,25,FALSE,2,NA,NA,6,splines,0.0242,1.5304858644873794e-4,0.0069675442370456895,0,10000
7,250,0,250,250,500,500,750,750,2,0,1,0,0,0,0,0,0,0,-0.25,-0.25,-0.25,-0.25,-0.25,-0.25,-0.25,-0.25,linear,0.025,TRUE,25,FALSE,2,NA,NA,6,splines_cal,0.0246,2.725112499990566e-5,0.007012435696069142,0,10000
7,250,0,250,250,500,500,750,750,2,0,1,0,0,0,0,0,0,0,-0.25,-0.25,-0.25,-0.25,-0.25,-0.25,-0.25,-0.25,linear,0.025,TRUE,25,FALSE,2,NA,NA,7,fixmodel,0.0269,5.35817476689702e-5,0.006983682136805812,0,10000
7,250,0,250,250,500,500,750,750,2,0,1,0,0,0,0,0,0,0,-0.25,-0.25,-0.25,-0.25,-0.25,-0.25,-0.25,-0.25,linear,0.025,TRUE,25,FALSE,2,NA,NA,7,sepmodel,0.0253,-3.179185686704286e-5,0.007923344613624022,0,10000
7,250,0,250,250,500,500,750,750,2,0,1,0,0,0,0,0,0,0,-0.25,-0.25,-0.25,-0.25,-0.25,-0.25,-0.25,-0.25,linear,0.025,TRUE,25,FALSE,2,NA,NA,7,splines,0.0273,8.75378429858502e-5,0.006955319316527222,0,10000
7,250,0,250,250,500,500,750,750,2,0,1,0,0,0,0,0,0,0,-0.25,-0.25,-0.25,-0.25,-0.25,-0.25,-0.25,-0.25,linear,0.025,TRUE,25,FALSE,2,NA,NA,7,splines_cal,0.0273,-5.04313282321109e-5,0.007002664836700128,0,10000
7,250,0,250,250,500,500,750,750,2,0,1,0,0,0,0,0,0,0,-0.25,-0.25,-0.25,-0.25,-0.25,-0.25,-0.25,-0.25,linear,0.025,TRUE,25,FALSE,3,NA,NA,2,fixmodel,0.0246,-6.245697834152491e-4,0.00740076280642332,0,10000
7,250,0,250,250,500,500,750,750,2,0,1,0,0,0,0,0,0,0,-0.25,-0.25,-0.25,-0.25,-0.25,-0.25,-0.25,-0.25,linear,0.025,TRUE,25,FALSE,3,NA,NA,2,sepmodel,0.024,-8.428441520271979e-4,0.007977561168215085,0,10000
7,250,0,250,250,500,500,750,750,2,0,1,0,0,0,0,0,0,0,-0.25,-0.25,-0.25,-0.25,-0.25,-0.25,-0.25,-0.25,linear,0.025,TRUE,25,FALSE,3,NA,NA,2,splines,0.0242,-6.024917578448764e-4,0.007294392638023953,0,10000
7,250,0,250,250,500,500,750,750,2,0,1,0,0,0,0,0,0,0,-0.25,-0.25,-0.25,-0.25,-0.25,-0.25,-0.25,-0.25,linear,0.025,TRUE,25,FALSE,3,NA,NA,2,splines_cal,0.0249,-6.788349301339443e-4,0.007397689744122447,0,10000
7,250,0,250,250,500,500,750,750,2,0,1,0,0,0,0,0,0,0,-0.25,-0.25,-0.25,-0.25,-0.25,-0.25,-0.25,-0.25,linear,0.025,TRUE,25,FALSE,3,NA,NA,3,fixmodel,0.0248,-1.4944991191891707e-4,0.007539685242809198,0,10000
7,250,0,250,250,500,500,750,750,2,0,1,0,0,0,0,0,0,0,-0.25,-0.25,-0.25,-0.25,-0.25,-0.25,-0.25,-0.25,linear,0.025,TRUE,25,FALSE,3,NA,NA,3,sepmodel,0.025,-3.677242805310687e-4,0.008137355181566283,0,10000
7,250,0,250,250,500,500,750,750,2,0,1,0,0,0,0,0,0,0,-0.25,-0.25,-0.25,-0.25,-0.25,-0.25,-0.25,-0.25,linear,0.025,TRUE,25,FALSE,3,NA,NA,3,splines,0.0235,-1.268980178789539e-4,0.007422116836724345,0,10000
