pavlakrotka/MASTERARBEIT/simulations_final/results/results_setting_4_alpha_25.csv
num_arms,n_arm,d1,d2,d3,d4,d5,d6,d7,period_blocks,mu0,sigma,theta1,theta2,theta3,theta4,theta5,theta6,theta7,lambda0,lambda1,lambda2,lambda3,lambda4,lambda5,lambda6,lambda7,trend,alpha,ncc,unit_size,ci,bs_degree,n_wave,N_peak,study_arm,model,reject_h0,bias,MSE,failed,nsim
7,250,0,250,250,500,500,750,750,2,0,1,0,0,0,0,0,0,0,-0.5,-0.5,-0.5,-0.5,-0.5,-0.5,-0.5,-0.5,linear,0.025,TRUE,25,FALSE,1,NA,NA,2,fixmodel,0.0241,-2.507694474747465e-4,0.007533722008740623,0,10000
7,250,0,250,250,500,500,750,750,2,0,1,0,0,0,0,0,0,0,-0.5,-0.5,-0.5,-0.5,-0.5,-0.5,-0.5,-0.5,linear,0.025,TRUE,25,FALSE,1,NA,NA,2,sepmodel,0.0238,-5.138536333353116e-4,0.008031041022951277,0,10000
7,250,0,250,250,500,500,750,750,2,0,1,0,0,0,0,0,0,0,-0.5,-0.5,-0.5,-0.5,-0.5,-0.5,-0.5,-0.5,linear,0.025,TRUE,25,FALSE,1,NA,NA,2,splines,0.0256,-9.81337287249559e-5,0.007361999490093141,0,10000
7,250,0,250,250,500,500,750,750,2,0,1,0,0,0,0,0,0,0,-0.5,-0.5,-0.5,-0.5,-0.5,-0.5,-0.5,-0.5,linear,0.025,TRUE,25,FALSE,1,NA,NA,2,splines_cal,0.025,-2.2823375554811148e-4,0.007524975085818858,0,10000
7,250,0,250,250,500,500,750,750,2,0,1,0,0,0,0,0,0,0,-0.5,-0.5,-0.5,-0.5,-0.5,-0.5,-0.5,-0.5,linear,0.025,TRUE,25,FALSE,1,NA,NA,3,fixmodel,0.0301,-9.353520483976801e-4,0.007657219477985822,0,10000
7,250,0,250,250,500,500,750,750,2,0,1,0,0,0,0,0,0,0,-0.5,-0.5,-0.5,-0.5,-0.5,-0.5,-0.5,-0.5,linear,0.025,TRUE,25,FALSE,1,NA,NA,3,sepmodel,0.0274,-0.0011984362342587138,0.008156917117775294,0,10000
7,250,0,250,250,500,500,750,750,2,0,1,0,0,0,0,0,0,0,-0.5,-0.5,-0.5,-0.5,-0.5,-0.5,-0.5,-0.5,linear,0.025,TRUE,25,FALSE,1,NA,NA,3,splines,0.0293,-7.834488585732748e-4,0.007513582095201094,0,10000
7,250,0,250,250,500,500,750,750,2,0,1,0,0,0,0,0,0,0,-0.5,-0.5,-0.5,-0.5,-0.5,-0.5,-0.5,-0.5,linear,0.025,TRUE,25,FALSE,1,NA,NA,3,splines_cal,0.0293,-9.46727727875058e-4,0.007645522412914985,0,10000
7,250,0,250,250,500,500,750,750,2,0,1,0,0,0,0,0,0,0,-0.5,-0.5,-0.5,-0.5,-0.5,-0.5,-0.5,-0.5,linear,0.025,TRUE,25,FALSE,1,NA,NA,4,fixmodel,0.0248,-0.0012333363483283274,0.0072188811167168306,0,10000
7,250,0,250,250,500,500,750,750,2,0,1,0,0,0,0,0,0,0,-0.5,-0.5,-0.5,-0.5,-0.5,-0.5,-0.5,-0.5,linear,0.025,TRUE,25,FALSE,1,NA,NA,4,sepmodel,0.0231,-0.0019471978881184023,0.008077057748007972,0,10000
7,250,0,250,250,500,500,750,750,2,0,1,0,0,0,0,0,0,0,-0.5,-0.5,-0.5,-0.5,-0.5,-0.5,-0.5,-0.5,linear,0.025,TRUE,25,FALSE,1,NA,NA,4,splines,0.0245,-0.0011997992338850937,0.007150704109110415,0,10000
7,250,0,250,250,500,500,750,750,2,0,1,0,0,0,0,0,0,0,-0.5,-0.5,-0.5,-0.5,-0.5,-0.5,-0.5,-0.5,linear,0.025,TRUE,25,FALSE,1,NA,NA,4,splines_cal,0.0258,-0.0011132579603761936,0.007196471726715387,0,10000
7,250,0,250,250,500,500,750,750,2,0,1,0,0,0,0,0,0,0,-0.5,-0.5,-0.5,-0.5,-0.5,-0.5,-0.5,-0.5,linear,0.025,TRUE,25,FALSE,1,NA,NA,5,fixmodel,0.0217,-0.0012098966830913099,0.007043829774882916,0,10000
7,250,0,250,250,500,500,750,750,2,0,1,0,0,0,0,0,0,0,-0.5,-0.5,-0.5,-0.5,-0.5,-0.5,-0.5,-0.5,linear,0.025,TRUE,25,FALSE,1,NA,NA,5,sepmodel,0.0221,-0.0019237582228813633,0.007901859008356407,0,10000
7,250,0,250,250,500,500,750,750,2,0,1,0,0,0,0,0,0,0,-0.5,-0.5,-0.5,-0.5,-0.5,-0.5,-0.5,-0.5,linear,0.025,TRUE,25,FALSE,1,NA,NA,5,splines,0.0222,-0.0011783043706294315,0.006988321863228648,0,10000
7,250,0,250,250,500,500,750,750,2,0,1,0,0,0,0,0,0,0,-0.5,-0.5,-0.5,-0.5,-0.5,-0.5,-0.5,-0.5,linear,0.025,TRUE,25,FALSE,1,NA,NA,5,splines_cal,0.0218,-0.0011609403524083842,0.007026379752740505,0,10000
7,250,0,250,250,500,500,750,750,2,0,1,0,0,0,0,0,0,0,-0.5,-0.5,-0.5,-0.5,-0.5,-0.5,-0.5,-0.5,linear,0.025,TRUE,25,FALSE,1,NA,NA,6,fixmodel,0.0238,-0.0018077651355655464,0.007082671397238368,0,10000
7,250,0,250,250,500,500,750,750,2,0,1,0,0,0,0,0,0,0,-0.5,-0.5,-0.5,-0.5,-0.5,-0.5,-0.5,-0.5,linear,0.025,TRUE,25,FALSE,1,NA,NA,6,sepmodel,0.0232,-0.00221556693019087,0.008096476450575058,0,10000
7,250,0,250,250,500,500,750,750,2,0,1,0,0,0,0,0,0,0,-0.5,-0.5,-0.5,-0.5,-0.5,-0.5,-0.5,-0.5,linear,0.025,TRUE,25,FALSE,1,NA,NA,6,splines,0.0238,-0.0017797507645963132,0.007042812195104396,0,10000
7,250,0,250,250,500,500,750,750,2,0,1,0,0,0,0,0,0,0,-0.5,-0.5,-0.5,-0.5,-0.5,-0.5,-0.5,-0.5,linear,0.025,TRUE,25,FALSE,1,NA,NA,6,splines_cal,0.024,-0.001742307395649876,0.00709535201983051,0,10000
7,250,0,250,250,500,500,750,750,2,0,1,0,0,0,0,0,0,0,-0.5,-0.5,-0.5,-0.5,-0.5,-0.5,-0.5,-0.5,linear,0.025,TRUE,25,FALSE,1,NA,NA,7,fixmodel,0.0219,-0.0011707141663487217,0.00685143755096607,0,10000
7,250,0,250,250,500,500,750,750,2,0,1,0,0,0,0,0,0,0,-0.5,-0.5,-0.5,-0.5,-0.5,-0.5,-0.5,-0.5,linear,0.025,TRUE,25,FALSE,1,NA,NA,7,sepmodel,0.0211,-0.0015785159609741667,0.007824338799411242,0,10000
7,250,0,250,250,500,500,750,750,2,0,1,0,0,0,0,0,0,0,-0.5,-0.5,-0.5,-0.5,-0.5,-0.5,-0.5,-0.5,linear,0.025,TRUE,25,FALSE,1,NA,NA,7,splines,0.0225,-0.0011436238309358074,0.006817897990868655,0,10000
7,250,0,250,250,500,500,750,750,2,0,1,0,0,0,0,0,0,0,-0.5,-0.5,-0.5,-0.5,-0.5,-0.5,-0.5,-0.5,linear,0.025,TRUE,25,FALSE,1,NA,NA,7,splines_cal,0.0222,-0.0011572431115653991,0.006851290646917648,0,10000
7,250,0,250,250,500,500,750,750,2,0,1,0,0,0,0,0,0,0,-0.5,-0.5,-0.5,-0.5,-0.5,-0.5,-0.5,-0.5,linear,0.025,TRUE,25,FALSE,2,NA,NA,2,fixmodel,0.0265,0.0011043393759761022,0.0075034830842276605,0,10000
7,250,0,250,250,500,500,750,750,2,0,1,0,0,0,0,0,0,0,-0.5,-0.5,-0.5,-0.5,-0.5,-0.5,-0.5,-0.5,linear,0.025,TRUE,25,FALSE,2,NA,NA,2,sepmodel,0.0263,0.001029498895428109,0.008005007783733618,0,10000
7,250,0,250,250,500,500,750,750,2,0,1,0,0,0,0,0,0,0,-0.5,-0.5,-0.5,-0.5,-0.5,-0.5,-0.5,-0.5,linear,0.025,TRUE,25,FALSE,2,NA,NA,2,splines,0.027,0.001125816703664075,0.007408162593056913,0,10000
7,250,0,250,250,500,500,750,750,2,0,1,0,0,0,0,0,0,0,-0.5,-0.5,-0.5,-0.5,-0.5,-0.5,-0.5,-0.5,linear,0.025,TRUE,25,FALSE,2,NA,NA,2,splines_cal,0.0272,0.0010078301766739092,0.007489792100185352,0,10000
7,250,0,250,250,500,500,750,750,2,0,1,0,0,0,0,0,0,0,-0.5,-0.5,-0.5,-0.5,-0.5,-0.5,-0.5,-0.5,linear,0.025,TRUE,25,FALSE,2,NA,NA,3,fixmodel,0.024,2.0135509507607571e-4,0.007442246625915606,0,10000
7,250,0,250,250,500,500,750,750,2,0,1,0,0,0,0,0,0,0,-0.5,-0.5,-0.5,-0.5,-0.5,-0.5,-0.5,-0.5,linear,0.025,TRUE,25,FALSE,2,NA,NA,3,sepmodel,0.0236,1.2651461452759706e-4,0.00798749847954452,0,10000
7,250,0,250,250,500,500,750,750,2,0,1,0,0,0,0,0,0,0,-0.5,-0.5,-0.5,-0.5,-0.5,-0.5,-0.5,-0.5,linear,0.025,TRUE,25,FALSE,2,NA,NA,3,splines,0.024,2.2043971371453412e-4,0.007372440752505174,0,10000
7,250,0,250,250,500,500,750,750,2,0,1,0,0,0,0,0,0,0,-0.5,-0.5,-0.5,-0.5,-0.5,-0.5,-0.5,-0.5,linear,0.025,TRUE,25,FALSE,2,NA,NA,3,splines_cal,0.0247,1.1675675972476655e-4,0.007447311749421418,0,10000
7,250,0,250,250,500,500,750,750,2,0,1,0,0,0,0,0,0,0,-0.5,-0.5,-0.5,-0.5,-0.5,-0.5,-0.5,-0.5,linear,0.025,TRUE,25,FALSE,2,NA,NA,4,fixmodel,0.0226,-9.233059181437895e-4,0.00718471159532788,0,10000
7,250,0,250,250,500,500,750,750,2,0,1,0,0,0,0,0,0,0,-0.5,-0.5,-0.5,-0.5,-0.5,-0.5,-0.5,-0.5,linear,0.025,TRUE,25,FALSE,2,NA,NA,4,sepmodel,0.0216,-9.21559058700053e-4,0.007980898964641332,0,10000
7,250,0,250,250,500,500,750,750,2,0,1,0,0,0,0,0,0,0,-0.5,-0.5,-0.5,-0.5,-0.5,-0.5,-0.5,-0.5,linear,0.025,TRUE,25,FALSE,2,NA,NA,4,splines,0.0231,-0.001034183989836667,0.007147731029846057,0,10000
7,250,0,250,250,500,500,750,750,2,0,1,0,0,0,0,0,0,0,-0.5,-0.5,-0.5,-0.5,-0.5,-0.5,-0.5,-0.5,linear,0.025,TRUE,25,FALSE,2,NA,NA,4,splines_cal,0.0228,-8.24642652461749e-4,0.007175578910623276,0,10000
7,250,0,250,250,500,500,750,750,2,0,1,0,0,0,0,0,0,0,-0.5,-0.5,-0.5,-0.5,-0.5,-0.5,-0.5,-0.5,linear,0.025,TRUE,25,FALSE,2,NA,NA,5,fixmodel,0.0251,-5.184166771665689e-4,0.007266610142541268,0,10000
7,250,0,250,250,500,500,750,750,2,0,1,0,0,0,0,0,0,0,-0.5,-0.5,-0.5,-0.5,-0.5,-0.5,-0.5,-0.5,linear,0.025,TRUE,25,FALSE,2,NA,NA,5,sepmodel,0.0251,-5.166698177228083e-4,0.008011899830858746,0,10000
7,250,0,250,250,500,500,750,750,2,0,1,0,0,0,0,0,0,0,-0.5,-0.5,-0.5,-0.5,-0.5,-0.5,-0.5,-0.5,linear,0.025,TRUE,25,FALSE,2,NA,NA,5,splines,0.0259,-6.297223174484013e-4,0.007218643182662402,0,10000
7,250,0,250,250,500,500,750,750,2,0,1,0,0,0,0,0,0,0,-0.5,-0.5,-0.5,-0.5,-0.5,-0.5,-0.5,-0.5,linear,0.025,TRUE,25,FALSE,2,NA,NA,5,splines_cal,0.0244,-5.670196703825634e-4,0.007242517926620185,0,10000
7,250,0,250,250,500,500,750,750,2,0,1,0,0,0,0,0,0,0,-0.5,-0.5,-0.5,-0.5,-0.5,-0.5,-0.5,-0.5,linear,0.025,TRUE,25,FALSE,2,NA,NA,6,fixmodel,0.0254,4.11368800355382e-4,0.006894210177752643,0,10000
7,250,0,250,250,500,500,750,750,2,0,1,0,0,0,0,0,0,0,-0.5,-0.5,-0.5,-0.5,-0.5,-0.5,-0.5,-0.5,linear,0.025,TRUE,25,FALSE,2,NA,NA,6,sepmodel,0.0237,-3.846791920583025e-5,0.007933465201341777,0,10000
7,250,0,250,250,500,500,750,750,2,0,1,0,0,0,0,0,0,0,-0.5,-0.5,-0.5,-0.5,-0.5,-0.5,-0.5,-0.5,linear,0.025,TRUE,25,FALSE,2,NA,NA,6,splines,0.0258,3.7557109868774575e-4,0.006863025188561044,0,10000
7,250,0,250,250,500,500,750,750,2,0,1,0,0,0,0,0,0,0,-0.5,-0.5,-0.5,-0.5,-0.5,-0.5,-0.5,-0.5,linear,0.025,TRUE,25,FALSE,2,NA,NA,6,splines_cal,0.0253,4.435098048199155e-4,0.006920542500353284,0,10000
7,250,0,250,250,500,500,750,750,2,0,1,0,0,0,0,0,0,0,-0.5,-0.5,-0.5,-0.5,-0.5,-0.5,-0.5,-0.5,linear,0.025,TRUE,25,FALSE,2,NA,NA,7,fixmodel,0.026,-9.659927317002686e-4,0.0070624226420993395,0,10000
7,250,0,250,250,500,500,750,750,2,0,1,0,0,0,0,0,0,0,-0.5,-0.5,-0.5,-0.5,-0.5,-0.5,-0.5,-0.5,linear,0.025,TRUE,25,FALSE,2,NA,NA,7,sepmodel,0.0257,-0.00141582945126156,0.008100119586409842,0,10000
7,250,0,250,250,500,500,750,750,2,0,1,0,0,0,0,0,0,0,-0.5,-0.5,-0.5,-0.5,-0.5,-0.5,-0.5,-0.5,linear,0.025,TRUE,25,FALSE,2,NA,NA,7,splines,0.0274,-0.0010039904346761021,0.007042667348180498,0,10000
7,250,0,250,250,500,500,750,750,2,0,1,0,0,0,0,0,0,0,-0.5,-0.5,-0.5,-0.5,-0.5,-0.5,-0.5,-0.5,linear,0.025,TRUE,25,FALSE,2,NA,NA,7,splines_cal,0.0262,-9.873948927776415e-4,0.007095401322839801,0,10000
7,250,0,250,250,500,500,750,750,2,0,1,0,0,0,0,0,0,0,-0.5,-0.5,-0.5,-0.5,-0.5,-0.5,-0.5,-0.5,linear,0.025,TRUE,25,FALSE,3,NA,NA,2,fixmodel,0.0226,8.02682218823556e-4,0.007238455307996763,0,10000
7,250,0,250,250,500,500,750,750,2,0,1,0,0,0,0,0,0,0,-0.5,-0.5,-0.5,-0.5,-0.5,-0.5,-0.5,-0.5,linear,0.025,TRUE,25,FALSE,3,NA,NA,2,sepmodel,0.0229,4.5976795719113883e-4,0.007780277998799431,0,10000
7,250,0,250,250,500,500,750,750,2,0,1,0,0,0,0,0,0,0,-0.5,-0.5,-0.5,-0.5,-0.5,-0.5,-0.5,-0.5,linear,0.025,TRUE,25,FALSE,3,NA,NA,2,splines,0.0228,7.718595193746795e-4,0.007157853507941291,0,10000
7,250,0,250,250,500,500,750,750,2,0,1,0,0,0,0,0,0,0,-0.5,-0.5,-0.5,-0.5,-0.5,-0.5,-0.5,-0.5,linear,0.025,TRUE,25,FALSE,3,NA,NA,2,splines_cal,0.024,8.436951212393215e-4,0.007216754027365517,0,10000
7,250,0,250,250,500,500,750,750,2,0,1,0,0,0,0,0,0,0,-0.5,-0.5,-0.5,-0.5,-0.5,-0.5,-0.5,-0.5,linear,0.025,TRUE,25,FALSE,3,NA,NA,3,fixmodel,0.0233,0.001932443627857894,0.007224046575100936,0,10000
7,250,0,250,250,500,500,750,750,2,0,1,0,0,0,0,0,0,0,-0.5,-0.5,-0.5,-0.5,-0.5,-0.5,-0.5,-0.5,linear,0.025,TRUE,25,FALSE,3,NA,NA,3,sepmodel,0.0236,0.0015895293662249856,0.007759279608044378,0,10000
7,250,0,250,250,500,500,750,750,2,0,1,0,0,0,0,0,0,0,-0.5,-0.5,-0.5,-0.5,-0.5,-0.5,-0.5,-0.5,linear,0.025,TRUE,25,FALSE,3,NA,NA,3,splines,0.0242,0.0019019175952344953,0.007122710012233888,0,10000
7,250,0,250,250,500,500,750,750,2,0,1,0,0,0,0,0,0,0,-0.5,-0.5,-0.5,-0.5,-0.5,-0.5,-0.5,-0.5,linear,0.025,TRUE,25,FALSE,3,NA,NA,3,splines_cal,0.024,0.001998870166139743,0.007234925195474668,0,10000
7,250,0,250,250,500,500,750,750,2,0,1,0,0,0,0,0,0,0,-0.5,-0.5,-0.5,-0.5,-0.5,-0.5,-0.5,-0.5,linear,0.025,TRUE,25,FALSE,3,NA,NA,4,fixmodel,0.025,6.981375592967693e-4,0.007073150177365902,0,10000
7,250,0,250,250,500,500,750,750,2,0,1,0,0,0,0,0,0,0,-0.5,-0.5,-0.5,-0.5,-0.5,-0.5,-0.5,-0.5,linear,0.025,TRUE,25,FALSE,3,NA,NA,4,sepmodel,0.0235,3.9140495249607874e-4,0.007897439761646557,0,10000
7,250,0,250,250,500,500,750,750,2,0,1,0,0,0,0,0,0,0,-0.5,-0.5,-0.5,-0.5,-0.5,-0.5,-0.5,-0.5,linear,0.025,TRUE,25,FALSE,3,NA,NA,4,splines,0.0243,6.455234063187348e-4,0.007020067858206983,0,10000
7,250,0,250,250,500,500,750,750,2,0,1,0,0,0,0,0,0,0,-0.5,-0.5,-0.5,-0.5,-0.5,-0.5,-0.5,-0.5,linear,0.025,TRUE,25,FALSE,3,NA,NA,4,splines_cal,0.0248,8.350265510510949e-4,0.007058361287876402,0,10000
7,250,0,250,250,500,500,750,750,2,0,1,0,0,0,0,0,0,0,-0.5,-0.5,-0.5,-0.5,-0.5,-0.5,-0.5,-0.5,linear,0.025,TRUE,25,FALSE,3,NA,NA,5,fixmodel,0.0235,-2.1066059084729578e-4,0.0068406947922107645,0,10000
7,250,0,250,250,500,500,750,750,2,0,1,0,0,0,0,0,0,0,-0.5,-0.5,-0.5,-0.5,-0.5,-0.5,-0.5,-0.5,linear,0.025,TRUE,25,FALSE,3,NA,NA,5,sepmodel,0.0239,-5.173931976479622e-4,0.007744478436384959,0,10000
7,250,0,250,250,500,500,750,750,2,0,1,0,0,0,0,0,0,0,-0.5,-0.5,-0.5,-0.5,-0.5,-0.5,-0.5,-0.5,linear,0.025,TRUE,25,FALSE,3,NA,NA,5,splines,0.0227,-2.609139511422504e-4,0.006784374965420262,0,10000
7,250,0,250,250,500,500,750,750,2,0,1,0,0,0,0,0,0,0,-0.5,-0.5,-0.5,-0.5,-0.5,-0.5,-0.5,-0.5,linear,0.025,TRUE,25,FALSE,3,NA,NA,5,splines_cal,0.0241,-1.1018619265750417e-4,0.0068316324639901005,0,10000
7,250,0,250,250,500,500,750,750,2,0,1,0,0,0,0,0,0,0,-0.5,-0.5,-0.5,-0.5,-0.5,-0.5,-0.5,-0.5,linear,0.025,TRUE,25,FALSE,3,NA,NA,6,fixmodel,0.0252,2.8516980474523973e-4,0.0069398689794663146,0,10000
7,250,0,250,250,500,500,750,750,2,0,1,0,0,0,0,0,0,0,-0.5,-0.5,-0.5,-0.5,-0.5,-0.5,-0.5,-0.5,linear,0.025,TRUE,25,FALSE,3,NA,NA,6,sepmodel,0.0264,2.9131369037346604e-4,0.008059626304138529,0,10000
7,250,0,250,250,500,500,750,750,2,0,1,0,0,0,0,0,0,0,-0.5,-0.5,-0.5,-0.5,-0.5,-0.5,-0.5,-0.5,linear,0.025,TRUE,25,FALSE,3,NA,NA,6,splines,0.0253,2.465478583543239e-4,0.006886506530424565,0,10000
7,250,0,250,250,500,500,750,750,2,0,1,0,0,0,0,0,0,0,-0.5,-0.5,-0.5,-0.5,-0.5,-0.5,-0.5,-0.5,linear,0.025,TRUE,25,FALSE,3,NA,NA,6,splines_cal,0.0253,3.0593484793096226e-4,0.006964079561999092,0,10000
7,250,0,250,250,500,500,750,750,2,0,1,0,0,0,0,0,0,0,-0.5,-0.5,-0.5,-0.5,-0.5,-0.5,-0.5,-0.5,linear,0.025,TRUE,25,FALSE,3,NA,NA,7,fixmodel,0.0246,8.737845780379912e-4,0.006943915345754995,0,10000
7,250,0,250,250,500,500,750,750,2,0,1,0,0,0,0,0,0,0,-0.5,-0.5,-0.5,-0.5,-0.5,-0.5,-0.5,-0.5,linear,0.025,TRUE,25,FALSE,3,NA,NA,7,sepmodel,0.0261,8.799284636661141e-4,0.007964286484642164,0,10000
7,250,0,250,250,500,500,750,750,2,0,1,0,0,0,0,0,0,0,-0.5,-0.5,-0.5,-0.5,-0.5,-0.5,-0.5,-0.5,linear,0.025,TRUE,25,FALSE,3,NA,NA,7,splines,0.0247,8.339584536364672e-4,0.006910642599482173,0,10000
7,250,0,250,250,500,500,750,750,2,0,1,0,0,0,0,0,0,0,-0.5,-0.5,-0.5,-0.5,-0.5,-0.5,-0.5,-0.5,linear,0.025,TRUE,25,FALSE,3,NA,NA,7,splines_cal,0.0251,9.085275437061089e-4,0.006960832183939228,0,10000
7,250,0,250,250,500,500,750,750,2,0,1,0,0,0,0,0,0,0,-0.375,-0.375,-0.375,-0.375,-0.375,-0.375,-0.375,-0.375,linear,0.025,TRUE,25,FALSE,1,NA,NA,2,fixmodel,0.0248,-3.472180864355939e-4,0.0072793733762549885,0,10000
7,250,0,250,250,500,500,750,750,2,0,1,0,0,0,0,0,0,0,-0.375,-0.375,-0.375,-0.375,-0.375,-0.375,-0.375,-0.375,linear,0.025,TRUE,25,FALSE,1,NA,NA,2,sepmodel,0.0241,-4.694019812144508e-4,0.007929838578828917,0,10000
7,250,0,250,250,500,500,750,750,2,0,1,0,0,0,0,0,0,0,-0.375,-0.375,-0.375,-0.375,-0.375,-0.375,-0.375,-0.375,linear,0.025,TRUE,25,FALSE,1,NA,NA,2,splines,0.0252,-5.22875042179572e-4,0.007139465582177044,0,10000
7,250,0,250,250,500,500,750,750,2,0,1,0,0,0,0,0,0,0,-0.375,-0.375,-0.375,-0.375,-0.375,-0.375,-0.375,-0.375,linear,0.025,TRUE,25,FALSE,1,NA,NA,2,splines_cal,0.026,-2.1813774219122374e-4,0.007284649565109653,0,10000
7,250,0,250,250,500,500,750,750,2,0,1,0,0,0,0,0,0,0,-0.375,-0.375,-0.375,-0.375,-0.375,-0.375,-0.375,-0.375,linear,0.025,TRUE,25,FALSE,1,NA,NA,3,fixmodel,0.0265,-4.7270530330659113e-4,0.007568640743585588,0,10000
7,250,0,250,250,500,500,750,750,2,0,1,0,0,0,0,0,0,0,-0.375,-0.375,-0.375,-0.375,-0.375,-0.375,-0.375,-0.375,linear,0.025,TRUE,25,FALSE,1,NA,NA,3,sepmodel,0.0269,-5.948891980857693e-4,0.008213644233341585,0,10000
7,250,0,250,250,500,500,750,750,2,0,1,0,0,0,0,0,0,0,-0.375,-0.375,-0.375,-0.375,-0.375,-0.375,-0.375,-0.375,linear,0.025,TRUE,25,FALSE,1,NA,NA,3,splines,0.0253,-6.469940548139978e-4,0.007464555509899723,0,10000
7,250,0,250,250,500,500,750,750,2,0,1,0,0,0,0,0,0,0,-0.375,-0.375,-0.375,-0.375,-0.375,-0.375,-0.375,-0.375,linear,0.025,TRUE,25,FALSE,1,NA,NA,3,splines_cal,0.026,-3.260312013905806e-4,0.007562963473848605,0,10000
7,250,0,250,250,500,500,750,750,2,0,1,0,0,0,0,0,0,0,-0.375,-0.375,-0.375,-0.375,-0.375,-0.375,-0.375,-0.375,linear,0.025,TRUE,25,FALSE,1,NA,NA,4,fixmodel,0.0259,2.781143512548396e-4,0.007068595121384975,0,10000
7,250,0,250,250,500,500,750,750,2,0,1,0,0,0,0,0,0,0,-0.375,-0.375,-0.375,-0.375,-0.375,-0.375,-0.375,-0.375,linear,0.025,TRUE,25,FALSE,1,NA,NA,4,sepmodel,0.0242,1.8630834286884805e-5,0.007961917994037686,0,10000
7,250,0,250,250,500,500,750,750,2,0,1,0,0,0,0,0,0,0,-0.375,-0.375,-0.375,-0.375,-0.375,-0.375,-0.375,-0.375,linear,0.025,TRUE,25,FALSE,1,NA,NA,4,splines,0.0271,1.890199957204978e-4,0.007026660635212976,0,10000
7,250,0,250,250,500,500,750,750,2,0,1,0,0,0,0,0,0,0,-0.375,-0.375,-0.375,-0.375,-0.375,-0.375,-0.375,-0.375,linear,0.025,TRUE,25,FALSE,1,NA,NA,4,splines_cal,0.0266,2.2695740609558505e-4,0.007026476299138786,0,10000
7,250,0,250,250,500,500,750,750,2,0,1,0,0,0,0,0,0,0,-0.375,-0.375,-0.375,-0.375,-0.375,-0.375,-0.375,-0.375,linear,0.025,TRUE,25,FALSE,1,NA,NA,5,fixmodel,0.0251,-0.0012216315303612854,0.007248946971777283,0,10000
7,250,0,250,250,500,500,750,750,2,0,1,0,0,0,0,0,0,0,-0.375,-0.375,-0.375,-0.375,-0.375,-0.375,-0.375,-0.375,linear,0.025,TRUE,25,FALSE,1,NA,NA,5,sepmodel,0.0256,-0.0014811150473292268,0.008111245822017117,0,10000
7,250,0,250,250,500,500,750,750,2,0,1,0,0,0,0,0,0,0,-0.375,-0.375,-0.375,-0.375,-0.375,-0.375,-0.375,-0.375,linear,0.025,TRUE,25,FALSE,1,NA,NA,5,splines,0.0241,-0.001306627073917068,0.0072046098005833555,0,10000
7,250,0,250,250,500,500,750,750,2,0,1,0,0,0,0,0,0,0,-0.375,-0.375,-0.375,-0.375,-0.375,-0.375,-0.375,-0.375,linear,0.025,TRUE,25,FALSE,1,NA,NA,5,splines_cal,0.0248,-0.0012666211068495413,0.007237828602381126,0,10000
7,250,0,250,250,500,500,750,750,2,0,1,0,0,0,0,0,0,0,-0.375,-0.375,-0.375,-0.375,-0.375,-0.375,-0.375,-0.375,linear,0.025,TRUE,25,FALSE,1,NA,NA,6,fixmodel,0.0255,-5.808439094275611e-4,0.007120980554727208,0,10000
7,250,0,250,250,500,500,750,750,2,0,1,0,0,0,0,0,0,0,-0.375,-0.375,-0.375,-0.375,-0.375,-0.375,-0.375,-0.375,linear,0.025,TRUE,25,FALSE,1,NA,NA,6,sepmodel,0.023,-9.778470517776373e-4,0.008087010342119061,0,10000
7,250,0,250,250,500,500,750,750,2,0,1,0,0,0,0,0,0,0,-0.375,-0.375,-0.375,-0.375,-0.375,-0.375,-0.375,-0.375,linear,0.025,TRUE,25,FALSE,1,NA,NA,6,splines,0.0245,-5.949304719347235e-4,0.007081062841402241,0,10000
7,250,0,250,250,500,500,750,750,2,0,1,0,0,0,0,0,0,0,-0.375,-0.375,-0.375,-0.375,-0.375,-0.375,-0.375,-0.375,linear,0.025,TRUE,25,FALSE,1,NA,NA,6,splines_cal,0.0256,-5.673370310939963e-4,0.0071306582728365,0,10000
7,250,0,250,250,500,500,750,750,2,0,1,0,0,0,0,0,0,0,-0.375,-0.375,-0.375,-0.375,-0.375,-0.375,-0.375,-0.375,linear,0.025,TRUE,25,FALSE,1,NA,NA,7,fixmodel,0.0234,-3.351846517545255e-4,0.007077087839356846,0,10000
7,250,0,250,250,500,500,750,750,2,0,1,0,0,0,0,0,0,0,-0.375,-0.375,-0.375,-0.375,-0.375,-0.375,-0.375,-0.375,linear,0.025,TRUE,25,FALSE,1,NA,NA,7,sepmodel,0.0232,-7.321877941046693e-4,0.008084731606802419,0,10000
7,250,0,250,250,500,500,750,750,2,0,1,0,0,0,0,0,0,0,-0.375,-0.375,-0.375,-0.375,-0.375,-0.375,-0.375,-0.375,linear,0.025,TRUE,25,FALSE,1,NA,NA,7,splines,0.0229,-3.5014856699462854e-4,0.007038279709171121,0,10000
7,250,0,250,250,500,500,750,750,2,0,1,0,0,0,0,0,0,0,-0.375,-0.375,-0.375,-0.375,-0.375,-0.375,-0.375,-0.375,linear,0.025,TRUE,25,FALSE,1,NA,NA,7,splines_cal,0.0237,-3.545733357088072e-4,0.007092336107168944,0,10000
7,250,0,250,250,500,500,750,750,2,0,1,0,0,0,0,0,0,0,-0.375,-0.375,-0.375,-0.375,-0.375,-0.375,-0.375,-0.375,linear,0.025,TRUE,25,FALSE,2,NA,NA,2,fixmodel,0.0257,3.324870198714106e-4,0.007467015457859889,0,10000
7,250,0,250,250,500,500,750,750,2,0,1,0,0,0,0,0,0,0,-0.375,-0.375,-0.375,-0.375,-0.375,-0.375,-0.375,-0.375,linear,0.025,TRUE,25,FALSE,2,NA,NA,2,sepmodel,0.0259,3.050324194300875e-4,0.00810155159256944,0,10000
7,250,0,250,250,500,500,750,750,2,0,1,0,0,0,0,0,0,0,-0.375,-0.375,-0.375,-0.375,-0.375,-0.375,-0.375,-0.375,linear,0.025,TRUE,25,FALSE,2,NA,NA,2,splines,0.0253,1.2254777129473948e-4,0.0073830009527101545,0,10000
7,250,0,250,250,500,500,750,750,2,0,1,0,0,0,0,0,0,0,-0.375,-0.375,-0.375,-0.375,-0.375,-0.375,-0.375,-0.375,linear,0.025,TRUE,25,FALSE,2,NA,NA,2,splines_cal,0.0264,1.597737175622278e-4,0.0074734530352989275,0,10000
7,250,0,250,250,500,500,750,750,2,0,1,0,0,0,0,0,0,0,-0.375,-0.375,-0.375,-0.375,-0.375,-0.375,-0.375,-0.375,linear,0.025,TRUE,25,FALSE,2,NA,NA,3,fixmodel,0.0247,-1.8043475594040715e-4,0.007574179766713346,0,10000
7,250,0,250,250,500,500,750,750,2,0,1,0,0,0,0,0,0,0,-0.375,-0.375,-0.375,-0.375,-0.375,-0.375,-0.375,-0.375,linear,0.025,TRUE,25,FALSE,2,NA,NA,3,sepmodel,0.0261,-2.0788935638209249e-4,0.008210656493030518,0,10000
7,250,0,250,250,500,500,750,750,2,0,1,0,0,0,0,0,0,0,-0.375,-0.375,-0.375,-0.375,-0.375,-0.375,-0.375,-0.375,linear,0.025,TRUE,25,FALSE,2,NA,NA,3,splines,0.0242,-3.906847478240986e-4,0.007509275704598887,0,10000
7,250,0,250,250,500,500,750,750,2,0,1,0,0,0,0,0,0,0,-0.375,-0.375,-0.375,-0.375,-0.375,-0.375,-0.375,-0.375,linear,0.025,TRUE,25,FALSE,2,NA,NA,3,splines_cal,0.0249,-3.441515718146371e-4,0.007574243250175893,0,10000
7,250,0,250,250,500,500,750,750,2,0,1,0,0,0,0,0,0,0,-0.375,-0.375,-0.375,-0.375,-0.375,-0.375,-0.375,-0.375,linear,0.025,TRUE,25,FALSE,2,NA,NA,4,fixmodel,0.0274,8.369192338250701e-4,0.007302500211940466,0,10000
7,250,0,250,250,500,500,750,750,2,0,1,0,0,0,0,0,0,0,-0.375,-0.375,-0.375,-0.375,-0.375,-0.375,-0.375,-0.375,linear,0.025,TRUE,25,FALSE,2,NA,NA,4,sepmodel,0.0259,6.978309739442653e-4,0.008167144016672475,0,10000
7,250,0,250,250,500,500,750,750,2,0,1,0,0,0,0,0,0,0,-0.375,-0.375,-0.375,-0.375,-0.375,-0.375,-0.375,-0.375,linear,0.025,TRUE,25,FALSE,2,NA,NA,4,splines,0.0281,7.099666397655841e-4,0.007256048798793588,0,10000
7,250,0,250,250,500,500,750,750,2,0,1,0,0,0,0,0,0,0,-0.375,-0.375,-0.375,-0.375,-0.375,-0.375,-0.375,-0.375,linear,0.025,TRUE,25,FALSE,2,NA,NA,4,splines_cal,0.0269,8.215914897085698e-4,0.0072922610682959535,0,10000
7,250,0,250,250,500,500,750,750,2,0,1,0,0,0,0,0,0,0,-0.375,-0.375,-0.375,-0.375,-0.375,-0.375,-0.375,-0.375,linear,0.025,TRUE,25,FALSE,2,NA,NA,5,fixmodel,0.0215,-8.221944523820056e-4,0.00717762497681206,0,10000
7,250,0,250,250,500,500,750,750,2,0,1,0,0,0,0,0,0,0,-0.375,-0.375,-0.375,-0.375,-0.375,-0.375,-0.375,-0.375,linear,0.025,TRUE,25,FALSE,2,NA,NA,5,sepmodel,0.0226,-9.612827122628008e-4,0.008030105782102134,0,10000
7,250,0,250,250,500,500,750,750,2,0,1,0,0,0,0,0,0,0,-0.375,-0.375,-0.375,-0.375,-0.375,-0.375,-0.375,-0.375,linear,0.025,TRUE,25,FALSE,2,NA,NA,5,splines,0.0216,-9.468576470543725e-4,0.007114911595729639,0,10000
7,250,0,250,250,500,500,750,750,2,0,1,0,0,0,0,0,0,0,-0.375,-0.375,-0.375,-0.375,-0.375,-0.375,-0.375,-0.375,linear,0.025,TRUE,25,FALSE,2,NA,NA,5,splines_cal,0.0211,-9.671513445461196e-4,0.007178887846897478,0,10000
7,250,0,250,250,500,500,750,750,2,0,1,0,0,0,0,0,0,0,-0.375,-0.375,-0.375,-0.375,-0.375,-0.375,-0.375,-0.375,linear,0.025,TRUE,25,FALSE,2,NA,NA,6,fixmodel,0.0263,0.0011184501222894503,0.0070578501388249585,0,10000
7,250,0,250,250,500,500,750,750,2,0,1,0,0,0,0,0,0,0,-0.375,-0.375,-0.375,-0.375,-0.375,-0.375,-0.375,-0.375,linear,0.025,TRUE,25,FALSE,2,NA,NA,6,sepmodel,0.0269,0.0010125711427286445,0.008051554271504864,0,10000
7,250,0,250,250,500,500,750,750,2,0,1,0,0,0,0,0,0,0,-0.375,-0.375,-0.375,-0.375,-0.375,-0.375,-0.375,-0.375,linear,0.025,TRUE,25,FALSE,2,NA,NA,6,splines,0.0266,9.636564761786282e-4,0.007020655451287701,0,10000
7,250,0,250,250,500,500,750,750,2,0,1,0,0,0,0,0,0,0,-0.375,-0.375,-0.375,-0.375,-0.375,-0.375,-0.375,-0.375,linear,0.025,TRUE,25,FALSE,2,NA,NA,6,splines_cal,0.0266,0.001008366588863846,0.0070746442984820045,0,10000
7,250,0,250,250,500,500,750,750,2,0,1,0,0,0,0,0,0,0,-0.375,-0.375,-0.375,-0.375,-0.375,-0.375,-0.375,-0.375,linear,0.025,TRUE,25,FALSE,2,NA,NA,7,fixmodel,0.0236,-9.984599953777316e-4,0.006953132019046446,0,10000
7,250,0,250,250,500,500,750,750,2,0,1,0,0,0,0,0,0,0,-0.375,-0.375,-0.375,-0.375,-0.375,-0.375,-0.375,-0.375,linear,0.025,TRUE,25,FALSE,2,NA,NA,7,sepmodel,0.0229,-0.001104338974938591,0.00791337601429302,0,10000
7,250,0,250,250,500,500,750,750,2,0,1,0,0,0,0,0,0,0,-0.375,-0.375,-0.375,-0.375,-0.375,-0.375,-0.375,-0.375,linear,0.025,TRUE,25,FALSE,2,NA,NA,7,splines,0.0232,-0.001155238119566315,0.00691686349469913,0,10000
7,250,0,250,250,500,500,750,750,2,0,1,0,0,0,0,0,0,0,-0.375,-0.375,-0.375,-0.375,-0.375,-0.375,-0.375,-0.375,linear,0.025,TRUE,25,FALSE,2,NA,NA,7,splines_cal,0.0239,-0.0010399890904512542,0.00697506347828552,0,10000
7,250,0,250,250,500,500,750,750,2,0,1,0,0,0,0,0,0,0,-0.375,-0.375,-0.375,-0.375,-0.375,-0.375,-0.375,-0.375,linear,0.025,TRUE,25,FALSE,3,NA,NA,2,fixmodel,0.025,6.400162518939677e-4,0.007458061122990426,0,10000
7,250,0,250,250,500,500,750,750,2,0,1,0,0,0,0,0,0,0,-0.375,-0.375,-0.375,-0.375,-0.375,-0.375,-0.375,-0.375,linear,0.025,TRUE,25,FALSE,3,NA,NA,2,sepmodel,0.0251,5.035918847034282e-4,0.008089706428306183,0,10000
7,250,0,250,250,500,500,750,750,2,0,1,0,0,0,0,0,0,0,-0.375,-0.375,-0.375,-0.375,-0.375,-0.375,-0.375,-0.375,linear,0.025,TRUE,25,FALSE,3,NA,NA,2,splines,0.0247,6.334576307894439e-4,0.007349970304509691,0,10000
7,250,0,250,250,500,500,750,750,2,0,1,0,0,0,0,0,0,0,-0.375,-0.375,-0.375,-0.375,-0.375,-0.375,-0.375,-0.375,linear,0.025,TRUE,25,FALSE,3,NA,NA,2,splines_cal,0.0244,6.404700296066882e-4,0.007416067873890722,0,10000
7,250,0,250,250,500,500,750,750,2,0,1,0,0,0,0,0,0,0,-0.375,-0.375,-0.375,-0.375,-0.375,-0.375,-0.375,-0.375,linear,0.025,TRUE,25,FALSE,3,NA,NA,3,fixmodel,0.0241,1.690706073591652e-4,0.007355068208644395,0,10000
7,250,0,250,250,500,500,750,750,2,0,1,0,0,0,0,0,0,0,-0.375,-0.375,-0.375,-0.375,-0.375,-0.375,-0.375,-0.375,linear,0.025,TRUE,25,FALSE,3,NA,NA,3,sepmodel,0.0246,3.264624016822886e-5,0.0079369704468987,0,10000
7,250,0,250,250,500,500,750,750,2,0,1,0,0,0,0,0,0,0,-0.375,-0.375,-0.375,-0.375,-0.375,-0.375,-0.375,-0.375,linear,0.025,TRUE,25,FALSE,3,NA,NA,3,splines,0.0239,1.6207138785218016e-4,0.0072558728610050095,0,10000
7,250,0,250,250,500,500,750,750,2,0,1,0,0,0,0,0,0,0,-0.375,-0.375,-0.375,-0.375,-0.375,-0.375,-0.375,-0.375,linear,0.025,TRUE,25,FALSE,3,NA,NA,3,splines_cal,0.0235,1.595763258092619e-4,0.007333218098388975,0,10000
7,250,0,250,250,500,500,750,750,2,0,1,0,0,0,0,0,0,0,-0.375,-0.375,-0.375,-0.375,-0.375,-0.375,-0.375,-0.375,linear,0.025,TRUE,25,FALSE,3,NA,NA,4,fixmodel,0.0257,0.0016783548490448006,0.0071618867992819515,0,10000
7,250,0,250,250,500,500,750,750,2,0,1,0,0,0,0,0,0,0,-0.375,-0.375,-0.375,-0.375,-0.375,-0.375,-0.375,-0.375,linear,0.025,TRUE,25,FALSE,3,NA,NA,4,sepmodel,0.0236,0.0016867779208593154,0.00797540698205841,0,10000
7,250,0,250,250,500,500,750,750,2,0,1,0,0,0,0,0,0,0,-0.375,-0.375,-0.375,-0.375,-0.375,-0.375,-0.375,-0.375,linear,0.025,TRUE,25,FALSE,3,NA,NA,4,splines,0.0265,0.0016485779268928735,0.0071177127243246315,0,10000
7,250,0,250,250,500,500,750,750,2,0,1,0,0,0,0,0,0,0,-0.375,-0.375,-0.375,-0.375,-0.375,-0.375,-0.375,-0.375,linear,0.025,TRUE,25,FALSE,3,NA,NA,4,splines_cal,0.0247,0.0016414658170537523,0.007174206790024028,0,10000
7,250,0,250,250,500,500,750,750,2,0,1,0,0,0,0,0,0,0,-0.375,-0.375,-0.375,-0.375,-0.375,-0.375,-0.375,-0.375,linear,0.025,TRUE,25,FALSE,3,NA,NA,5,fixmodel,0.0253,8.93015918083296e-6,0.007157796290188618,0,10000
7,250,0,250,250,500,500,750,750,2,0,1,0,0,0,0,0,0,0,-0.375,-0.375,-0.375,-0.375,-0.375,-0.375,-0.375,-0.375,linear,0.025,TRUE,25,FALSE,3,NA,NA,5,sepmodel,0.0263,1.73532309953744e-5,0.007978624659027775,0,10000
7,250,0,250,250,500,500,750,750,2,0,1,0,0,0,0,0,0,0,-0.375,-0.375,-0.375,-0.375,-0.375,-0.375,-0.375,-0.375,linear,0.025,TRUE,25,FALSE,3,NA,NA,5,splines,0.0249,-2.4290148528163035e-5,0.007112364560178921,0,10000
7,250,0,250,250,500,500,750,750,2,0,1,0,0,0,0,0,0,0,-0.375,-0.375,-0.375,-0.375,-0.375,-0.375,-0.375,-0.375,linear,0.025,TRUE,25,FALSE,3,NA,NA,5,splines_cal,0.026,7.189128894955042e-7,0.007146552580117108,0,10000
7,250,0,250,250,500,500,750,750,2,0,1,0,0,0,0,0,0,0,-0.375,-0.375,-0.375,-0.375,-0.375,-0.375,-0.375,-0.375,linear,0.025,TRUE,25,FALSE,3,NA,NA,6,fixmodel,0.0278,0.0011461632151143252,0.006983062952232339,0,10000
7,250,0,250,250,500,500,750,750,2,0,1,0,0,0,0,0,0,0,-0.375,-0.375,-0.375,-0.375,-0.375,-0.375,-0.375,-0.375,linear,0.025,TRUE,25,FALSE,3,NA,NA,6,sepmodel,0.0276,0.0012011806703147328,0.007928903036946615,0,10000
7,250,0,250,250,500,500,750,750,2,0,1,0,0,0,0,0,0,0,-0.375,-0.375,-0.375,-0.375,-0.375,-0.375,-0.375,-0.375,linear,0.025,TRUE,25,FALSE,3,NA,NA,6,splines,0.0279,0.0011688668727583794,0.006935596043958446,0,10000
7,250,0,250,250,500,500,750,750,2,0,1,0,0,0,0,0,0,0,-0.375,-0.375,-0.375,-0.375,-0.375,-0.375,-0.375,-0.375,linear,0.025,TRUE,25,FALSE,3,NA,NA,6,splines_cal,0.027,0.001165339110506654,0.006990779040535887,0,10000
7,250,0,250,250,500,500,750,750,2,0,1,0,0,0,0,0,0,0,-0.375,-0.375,-0.375,-0.375,-0.375,-0.375,-0.375,-0.375,linear,0.025,TRUE,25,FALSE,3,NA,NA,7,fixmodel,0.0261,4.5617422894162765e-4,0.007132172907318532,0,10000
7,250,0,250,250,500,500,750,750,2,0,1,0,0,0,0,0,0,0,-0.375,-0.375,-0.375,-0.375,-0.375,-0.375,-0.375,-0.375,linear,0.025,TRUE,25,FALSE,3,NA,NA,7,sepmodel,0.0267,5.111916841419544e-4,0.008128580033186814,0,10000
7,250,0,250,250,500,500,750,750,2,0,1,0,0,0,0,0,0,0,-0.375,-0.375,-0.375,-0.375,-0.375,-0.375,-0.375,-0.375,linear,0.025,TRUE,25,FALSE,3,NA,NA,7,splines,0.0261,4.7664913437561664e-4,0.007104278029052074,0,10000
7,250,0,250,250,500,500,750,750,2,0,1,0,0,0,0,0,0,0,-0.375,-0.375,-0.375,-0.375,-0.375,-0.375,-0.375,-0.375,linear,0.025,TRUE,25,FALSE,3,NA,NA,7,splines_cal,0.0259,4.295530780680891e-4,0.007150534967677786,0,10000
7,250,0,250,250,500,500,750,750,2,0,1,0,0,0,0,0,0,0,-0.25,-0.25,-0.25,-0.25,-0.25,-0.25,-0.25,-0.25,linear,0.025,TRUE,25,FALSE,1,NA,NA,2,fixmodel,0.0229,-4.4987855126889427e-4,0.0073239783207537075,0,10000
7,250,0,250,250,500,500,750,750,2,0,1,0,0,0,0,0,0,0,-0.25,-0.25,-0.25,-0.25,-0.25,-0.25,-0.25,-0.25,linear,0.025,TRUE,25,FALSE,1,NA,NA,2,sepmodel,0.0236,-1.3662463666356826e-4,0.007856269527693222,0,10000
7,250,0,250,250,500,500,750,750,2,0,1,0,0,0,0,0,0,0,-0.25,-0.25,-0.25,-0.25,-0.25,-0.25,-0.25,-0.25,linear,0.025,TRUE,25,FALSE,1,NA,NA,2,splines,0.023,-3.6984790488568106e-4,0.007176882843906347,0,10000
7,250,0,250,250,500,500,750,750,2,0,1,0,0,0,0,0,0,0,-0.25,-0.25,-0.25,-0.25,-0.25,-0.25,-0.25,-0.25,linear,0.025,TRUE,25,FALSE,1,NA,NA,2,splines_cal,0.0225,-3.517626489208115e-4,0.007301025582444781,0,10000
7,250,0,250,250,500,500,750,750,2,0,1,0,0,0,0,0,0,0,-0.25,-0.25,-0.25,-0.25,-0.25,-0.25,-0.25,-0.25,linear,0.025,TRUE,25,FALSE,1,NA,NA,3,fixmodel,0.0239,8.243016218769663e-4,0.007348359764464094,0,10000
7,250,0,250,250,500,500,750,750,2,0,1,0,0,0,0,0,0,0,-0.25,-0.25,-0.25,-0.25,-0.25,-0.25,-0.25,-0.25,linear,0.025,TRUE,25,FALSE,1,NA,NA,3,sepmodel,0.0232,0.0011375555364820642,0.007870355470639315,0,10000
7,250,0,250,250,500,500,750,750,2,0,1,0,0,0,0,0,0,0,-0.25,-0.25,-0.25,-0.25,-0.25,-0.25,-0.25,-0.25,linear,0.025,TRUE,25,FALSE,1,NA,NA,3,splines,0.025,9.055252523152526e-4,0.007196009900565728,0,10000
7,250,0,250,250,500,500,750,750,2,0,1,0,0,0,0,0,0,0,-0.25,-0.25,-0.25,-0.25,-0.25,-0.25,-0.25,-0.25,linear,0.025,TRUE,25,FALSE,1,NA,NA,3,splines_cal,0.0246,9.460497517826645e-4,0.007329655532400101,0,10000
7,250,0,250,250,500,500,750,750,2,0,1,0,0,0,0,0,0,0,-0.25,-0.25,-0.25,-0.25,-0.25,-0.25,-0.25,-0.25,linear,0.025,TRUE,25,FALSE,1,NA,NA,4,fixmodel,0.0235,0.0010770967705689821,0.006968116458790579,0,10000
7,250,0,250,250,500,500,750,750,2,0,1,0,0,0,0,0,0,0,-0.25,-0.25,-0.25,-0.25,-0.25,-0.25,-0.25,-0.25,linear,0.025,TRUE,25,FALSE,1,NA,NA,4,sepmodel,0.0239,0.0013475700027276234,0.007741817750672259,0,10000
7,250,0,250,250,500,500,750,750,2,0,1,0,0,0,0,0,0,0,-0.25,-0.25,-0.25,-0.25,-0.25,-0.25,-0.25,-0.25,linear,0.025,TRUE,25,FALSE,1,NA,NA,4,splines,0.0245,0.0011082086483996667,0.006892433293004542,0,10000
7,250,0,250,250,500,500,750,750,2,0,1,0,0,0,0,0,0,0,-0.25,-0.25,-0.25,-0.25,-0.25,-0.25,-0.25,-0.25,linear,0.025,TRUE,25,FALSE,1,NA,NA,4,splines_cal,0.0245,0.0011396984629322311,0.006964280272613614,0,10000
7,250,0,250,250,500,500,750,750,2,0,1,0,0,0,0,0,0,0,-0.25,-0.25,-0.25,-0.25,-0.25,-0.25,-0.25,-0.25,linear,0.025,TRUE,25,FALSE,1,NA,NA,5,fixmodel,0.0269,1.368126913119658e-4,0.007205436694562512,0,10000
7,250,0,250,250,500,500,750,750,2,0,1,0,0,0,0,0,0,0,-0.25,-0.25,-0.25,-0.25,-0.25,-0.25,-0.25,-0.25,linear,0.025,TRUE,25,FALSE,1,NA,NA,5,sepmodel,0.0282,4.072859234706186e-4,0.008065149847804693,0,10000
7,250,0,250,250,500,500,750,750,2,0,1,0,0,0,0,0,0,0,-0.25,-0.25,-0.25,-0.25,-0.25,-0.25,-0.25,-0.25,linear,0.025,TRUE,25,FALSE,1,NA,NA,5,splines,0.0277,1.6756938476215777e-4,0.007156520553265056,0,10000
7,250,0,250,250,500,500,750,750,2,0,1,0,0,0,0,0,0,0,-0.25,-0.25,-0.25,-0.25,-0.25,-0.25,-0.25,-0.25,linear,0.025,TRUE,25,FALSE,1,NA,NA,5,splines_cal,0.0277,2.2432991209035523e-4,0.007181545797539946,0,10000
7,250,0,250,250,500,500,750,750,2,0,1,0,0,0,0,0,0,0,-0.25,-0.25,-0.25,-0.25,-0.25,-0.25,-0.25,-0.25,linear,0.025,TRUE,25,FALSE,1,NA,NA,6,fixmodel,0.0245,1.9265321108891226e-5,0.006906072143512683,0,10000
7,250,0,250,250,500,500,750,750,2,0,1,0,0,0,0,0,0,0,-0.25,-0.25,-0.25,-0.25,-0.25,-0.25,-0.25,-0.25,linear,0.025,TRUE,25,FALSE,1,NA,NA,6,sepmodel,0.0254,2.3246158314513366e-4,0.007900608144333845,0,10000
7,250,0,250,250,500,500,750,750,2,0,1,0,0,0,0,0,0,0,-0.25,-0.25,-0.25,-0.25,-0.25,-0.25,-0.25,-0.25,linear,0.025,TRUE,25,FALSE,1,NA,NA,6,splines,0.0247,8.35193316308794e-5,0.006870475094438416,0,10000
7,250,0,250,250,500,500,750,750,2,0,1,0,0,0,0,0,0,0,-0.25,-0.25,-0.25,-0.25,-0.25,-0.25,-0.25,-0.25,linear,0.025,TRUE,25,FALSE,1,NA,NA,6,splines_cal,0.0247,7.519070416463286e-5,0.00692101413631911,0,10000
7,250,0,250,250,500,500,750,750,2,0,1,0,0,0,0,0,0,0,-0.25,-0.25,-0.25,-0.25,-0.25,-0.25,-0.25,-0.25,linear,0.025,TRUE,25,FALSE,1,NA,NA,7,fixmodel,0.0245,1.9780317257225944e-4,0.007041022225329961,0,10000
7,250,0,250,250,500,500,750,750,2,0,1,0,0,0,0,0,0,0,-0.25,-0.25,-0.25,-0.25,-0.25,-0.25,-0.25,-0.25,linear,0.025,TRUE,25,FALSE,1,NA,NA,7,sepmodel,0.0263,4.1099943460845545e-4,0.008043705993859512,0,10000
7,250,0,250,250,500,500,750,750,2,0,1,0,0,0,0,0,0,0,-0.25,-0.25,-0.25,-0.25,-0.25,-0.25,-0.25,-0.25,linear,0.025,TRUE,25,FALSE,1,NA,NA,7,splines,0.0236,2.6152220133782064e-4,0.006995453165345592,0,10000
7,250,0,250,250,500,500,750,750,2,0,1,0,0,0,0,0,0,0,-0.25,-0.25,-0.25,-0.25,-0.25,-0.25,-0.25,-0.25,linear,0.025,TRUE,25,FALSE,1,NA,NA,7,splines_cal,0.0243,2.8027896032936146e-4,0.007067906524564876,0,10000
7,250,0,250,250,500,500,750,750,2,0,1,0,0,0,0,0,0,0,-0.25,-0.25,-0.25,-0.25,-0.25,-0.25,-0.25,-0.25,linear,0.025,TRUE,25,FALSE,2,NA,NA,2,fixmodel,0.024,-6.802337116117872e-4,0.0072573669361703595,0,10000
7,250,0,250,250,500,500,750,750,2,0,1,0,0,0,0,0,0,0,-0.25,-0.25,-0.25,-0.25,-0.25,-0.25,-0.25,-0.25,linear,0.025,TRUE,25,FALSE,2,NA,NA,2,sepmodel,0.0238,-4.8566614531395775e-4,0.007801053894677099,0,10000
7,250,0,250,250,500,500,750,750,2,0,1,0,0,0,0,0,0,0,-0.25,-0.25,-0.25,-0.25,-0.25,-0.25,-0.25,-0.25,linear,0.025,TRUE,25,FALSE,2,NA,NA,2,splines,0.0249,-7.05842783014955e-4,0.007208072200131922,0,10000
7,250,0,250,250,500,500,750,750,2,0,1,0,0,0,0,0,0,0,-0.25,-0.25,-0.25,-0.25,-0.25,-0.25,-0.25,-0.25,linear,0.025,TRUE,25,FALSE,2,NA,NA,2,splines_cal,0.0242,-5.968975087152639e-4,0.007229127285543,0,10000
7,250,0,250,250,500,500,750,750,2,0,1,0,0,0,0,0,0,0,-0.25,-0.25,-0.25,-0.25,-0.25,-0.25,-0.25,-0.25,linear,0.025,TRUE,25,FALSE,2,NA,NA,3,fixmodel,0.0241,-0.0011363710650004858,0.007362856329643484,0,10000
7,250,0,250,250,500,500,750,750,2,0,1,0,0,0,0,0,0,0,-0.25,-0.25,-0.25,-0.25,-0.25,-0.25,-0.25,-0.25,linear,0.025,TRUE,25,FALSE,2,NA,NA,3,sepmodel,0.0233,-9.418034987028751e-4,0.00788878966242233,0,10000
7,250,0,250,250,500,500,750,750,2,0,1,0,0,0,0,0,0,0,-0.25,-0.25,-0.25,-0.25,-0.25,-0.25,-0.25,-0.25,linear,0.025,TRUE,25,FALSE,2,NA,NA,3,splines,0.0245,-0.0011583116212017285,0.007299866456556133,0,10000
7,250,0,250,250,500,500,750,750,2,0,1,0,0,0,0,0,0,0,-0.25,-0.25,-0.25,-0.25,-0.25,-0.25,-0.25,-0.25,linear,0.025,TRUE,25,FALSE,2,NA,NA,3,splines_cal,0.0232,-0.0011174036591676062,0.007343603244638472,0,10000
7,250,0,250,250,500,500,750,750,2,0,1,0,0,0,0,0,0,0,-0.25,-0.25,-0.25,-0.25,-0.25,-0.25,-0.25,-0.25,linear,0.025,TRUE,25,FALSE,2,NA,NA,4,fixmodel,0.0257,7.362388259704301e-4,0.007118251266627018,0,10000
7,250,0,250,250,500,500,750,750,2,0,1,0,0,0,0,0,0,0,-0.25,-0.25,-0.25,-0.25,-0.25,-0.25,-0.25,-0.25,linear,0.025,TRUE,25,FALSE,2,NA,NA,4,sepmodel,0.026,7.162563907886677e-4,0.007981659424916531,0,10000
7,250,0,250,250,500,500,750,750,2,0,1,0,0,0,0,0,0,0,-0.25,-0.25,-0.25,-0.25,-0.25,-0.25,-0.25,-0.25,linear,0.025,TRUE,25,FALSE,2,NA,NA,4,splines,0.0252,6.401946066440773e-4,0.007065988591888238,0,10000
7,250,0,250,250,500,500,750,750,2,0,1,0,0,0,0,0,0,0,-0.25,-0.25,-0.25,-0.25,-0.25,-0.25,-0.25,-0.25,linear,0.025,TRUE,25,FALSE,2,NA,NA,4,splines_cal,0.0267,8.889845966898023e-4,0.007119376096500234,0,10000
7,250,0,250,250,500,500,750,750,2,0,1,0,0,0,0,0,0,0,-0.25,-0.25,-0.25,-0.25,-0.25,-0.25,-0.25,-0.25,linear,0.025,TRUE,25,FALSE,2,NA,NA,5,fixmodel,0.0249,-4.187318135418187e-4,0.007158818842617495,0,10000
7,250,0,250,250,500,500,750,750,2,0,1,0,0,0,0,0,0,0,-0.25,-0.25,-0.25,-0.25,-0.25,-0.25,-0.25,-0.25,linear,0.025,TRUE,25,FALSE,2,NA,NA,5,sepmodel,0.0254,-4.3871424872355823e-4,0.008017115023699629,0,10000
7,250,0,250,250,500,500,750,750,2,0,1,0,0,0,0,0,0,0,-0.25,-0.25,-0.25,-0.25,-0.25,-0.25,-0.25,-0.25,linear,0.025,TRUE,25,FALSE,2,NA,NA,5,splines,0.0259,-5.130103503494268e-4,0.007121537373993634,0,10000
7,250,0,250,250,500,500,750,750,2,0,1,0,0,0,0,0,0,0,-0.25,-0.25,-0.25,-0.25,-0.25,-0.25,-0.25,-0.25,linear,0.025,TRUE,25,FALSE,2,NA,NA,5,splines_cal,0.0248,-2.1457035793989528e-4,0.0071564330795982,0,10000
7,250,0,250,250,500,500,750,750,2,0,1,0,0,0,0,0,0,0,-0.25,-0.25,-0.25,-0.25,-0.25,-0.25,-0.25,-0.25,linear,0.025,TRUE,25,FALSE,2,NA,NA,6,fixmodel,0.0226,-9.332970321086287e-4,0.006914167304822165,0,10000
7,250,0,250,250,500,500,750,750,2,0,1,0,0,0,0,0,0,0,-0.25,-0.25,-0.25,-0.25,-0.25,-0.25,-0.25,-0.25,linear,0.025,TRUE,25,FALSE,2,NA,NA,6,sepmodel,0.0229,-5.715629245085073e-4,0.007931796060992896,0,10000
7,250,0,250,250,500,500,750,750,2,0,1,0,0,0,0,0,0,0,-0.25,-0.25,-0.25,-0.25,-0.25,-0.25,-0.25,-0.25,linear,0.025,TRUE,25,FALSE,2,NA,NA,6,splines,0.0228,-0.001016436473300332,0.00688874889224418,0,10000
7,250,0,250,250,500,500,750,750,2,0,1,0,0,0,0,0,0,0,-0.25,-0.25,-0.25,-0.25,-0.25,-0.25,-0.25,-0.25,linear,0.025,TRUE,25,FALSE,2,NA,NA,6,splines_cal,0.0227,-9.09493281119997e-4,0.006940851490101274,0,10000
7,250,0,250,250,500,500,750,750,2,0,1,0,0,0,0,0,0,0,-0.25,-0.25,-0.25,-0.25,-0.25,-0.25,-0.25,-0.25,linear,0.025,TRUE,25,FALSE,2,NA,NA,7,fixmodel,0.0236,5.203296894136039e-4,0.0068404972363626205,0,10000
7,250,0,250,250,500,500,750,750,2,0,1,0,0,0,0,0,0,0,-0.25,-0.25,-0.25,-0.25,-0.25,-0.25,-0.25,-0.25,linear,0.025,TRUE,25,FALSE,2,NA,NA,7,sepmodel,0.0223,8.820637970136823e-4,0.007760972194001615,0,10000
7,250,0,250,250,500,500,750,750,2,0,1,0,0,0,0,0,0,0,-0.25,-0.25,-0.25,-0.25,-0.25,-0.25,-0.25,-0.25,linear,0.025,TRUE,25,FALSE,2,NA,NA,7,splines,0.0231,4.337472002382343e-4,0.00681626463086064,0,10000
7,250,0,250,250,500,500,750,750,2,0,1,0,0,0,0,0,0,0,-0.25,-0.25,-0.25,-0.25,-0.25,-0.25,-0.25,-0.25,linear,0.025,TRUE,25,FALSE,2,NA,NA,7,splines_cal,0.0236,5.163896911674646e-4,0.006852640745559551,0,10000
7,250,0,250,250,500,500,750,750,2,0,1,0,0,0,0,0,0,0,-0.25,-0.25,-0.25,-0.25,-0.25,-0.25,-0.25,-0.25,linear,0.025,TRUE,25,FALSE,3,NA,NA,2,fixmodel,0.0268,2.123246253851086e-4,0.007435973181446325,0,10000
7,250,0,250,250,500,500,750,750,2,0,1,0,0,0,0,0,0,0,-0.25,-0.25,-0.25,-0.25,-0.25,-0.25,-0.25,-0.25,linear,0.025,TRUE,25,FALSE,3,NA,NA,2,sepmodel,0.0261,1.5999691963515872e-4,0.008004824414939063,0,10000
7,250,0,250,250,500,500,750,750,2,0,1,0,0,0,0,0,0,0,-0.25,-0.25,-0.25,-0.25,-0.25,-0.25,-0.25,-0.25,linear,0.025,TRUE,25,FALSE,3,NA,NA,2,splines,0.0261,1.2553428138565334e-4,0.0073214987846716185,0,10000
7,250,0,250,250,500,500,750,750,2,0,1,0,0,0,0,0,0,0,-0.25,-0.25,-0.25,-0.25,-0.25,-0.25,-0.25,-0.25,linear,0.025,TRUE,25,FALSE,3,NA,NA,2,splines_cal,0.0282,2.787032571563709e-4,0.0074368778802269405,0,10000
7,250,0,250,250,500,500,750,750,2,0,1,0,0,0,0,0,0,0,-0.25,-0.25,-0.25,-0.25,-0.25,-0.25,-0.25,-0.25,linear,0.025,TRUE,25,FALSE,3,NA,NA,3,fixmodel,0.0268,8.08221490784472e-4,0.007513076857621267,0,10000
7,250,0,250,250,500,500,750,750,2,0,1,0,0,0,0,0,0,0,-0.25,-0.25,-0.25,-0.25,-0.25,-0.25,-0.25,-0.25,linear,0.025,TRUE,25,FALSE,3,NA,NA,3,sepmodel,0.0259,7.558937850342599e-4,0.00811812934277034,0,10000
7,250,0,250,250,500,500,750,750,2,0,1,0,0,0,0,0,0,0,-0.25,-0.25,-0.25,-0.25,-0.25,-0.25,-0.25,-0.25,linear,0.025,TRUE,25,FALSE,3,NA,NA,3,splines,0.0257,7.21154463340105e-4,0.007407791566954847,0,10000
7,250,0,250,250,500,500,750,750,2,0,1,0,0,0,0,0,0,0,-0.25,-0.25,-0.25,-0.25,-0.25,-0.25,-0.25,-0.25,linear,0.025,TRUE,25,FALSE,3,NA,NA,3,splines_cal,0.0276,8.866562417468168e-4,0.007494048874759167,0,10000
7,250,0,250,250,500,500,750,750,2,0,1,0,0,0,0,0,0,0,-0.25,-0.25,-0.25,-0.25,-0.25,-0.25,-0.25,-0.25,linear,0.025,TRUE,25,FALSE,3,NA,NA,4,fixmodel,0.0248,-0.0010952719545300924,0.0071488512446794454,0,10000
7,250,0,250,250,500,500,750,750,2,0,1,0,0,0,0,0,0,0,-0.25,-0.25,-0.25,-0.25,-0.25,-0.25,-0.25,-0.25,linear,0.025,TRUE,25,FALSE,3,NA,NA,4,sepmodel,0.0236,-0.0011751883548419197,0.007885998841584061,0,10000
7,250,0,250,250,500,500,750,750,2,0,1,0,0,0,0,0,0,0,-0.25,-0.25,-0.25,-0.25,-0.25,-0.25,-0.25,-0.25,linear,0.025,TRUE,25,FALSE,3,NA,NA,4,splines,0.0243,-0.0010145826287761895,0.007092899799755012,0,10000
7,250,0,250,250,500,500,750,750,2,0,1,0,0,0,0,0,0,0,-0.25,-0.25,-0.25,-0.25,-0.25,-0.25,-0.25,-0.25,linear,0.025,TRUE,25,FALSE,3,NA,NA,4,splines_cal,0.0257,-0.0010322684092177864,0.007144444140247028,0,10000
7,250,0,250,250,500,500,750,750,2,0,1,0,0,0,0,0,0,0,-0.25,-0.25,-0.25,-0.25,-0.25,-0.25,-0.25,-0.25,linear,0.025,TRUE,25,FALSE,3,NA,NA,5,fixmodel,0.0246,4.289606910859488e-4,0.007049811452364797,0,10000
7,250,0,250,250,500,500,750,750,2,0,1,0,0,0,0,0,0,0,-0.25,-0.25,-0.25,-0.25,-0.25,-0.25,-0.25,-0.25,linear,0.025,TRUE,25,FALSE,3,NA,NA,5,sepmodel,0.0239,3.4904429077413357e-4,0.007846418775466569,0,10000
7,250,0,250,250,500,500,750,750,2,0,1,0,0,0,0,0,0,0,-0.25,-0.25,-0.25,-0.25,-0.25,-0.25,-0.25,-0.25,linear,0.025,TRUE,25,FALSE,3,NA,NA,5,splines,0.0247,5.101193320962927e-4,0.00700308358630317,0,10000
7,250,0,250,250,500,500,750,750,2,0,1,0,0,0,0,0,0,0,-0.25,-0.25,-0.25,-0.25,-0.25,-0.25,-0.25,-0.25,linear,0.025,TRUE,25,FALSE,3,NA,NA,5,splines_cal,0.0244,4.7813142276152156e-4,0.007020468153082602,0,10000
7,250,0,250,250,500,500,750,750,2,0,1,0,0,0,0,0,0,0,-0.25,-0.25,-0.25,-0.25,-0.25,-0.25,-0.25,-0.25,linear,0.025,TRUE,25,FALSE,3,NA,NA,6,fixmodel,0.0245,1.5143155140082576e-4,0.007056399768102691,0,10000
7,250,0,250,250,500,500,750,750,2,0,1,0,0,0,0,0,0,0,-0.25,-0.25,-0.25,-0.25,-0.25,-0.25,-0.25,-0.25,linear,0.025,TRUE,25,FALSE,3,NA,NA,6,sepmodel,0.0263,1.8987286652858012e-4,0.008038629971452415,0,10000
7,250,0,250,250,500,500,750,750,2,0,1,0,0,0,0,0,0,0,-0.25,-0.25,-0.25,-0.25,-0.25,-0.25,-0.25,-0.25,linear,0.025,TRUE,25,FALSE,3,NA,NA,6,splines,0.0249,1.97914332143313e-4,0.007009428394848005,0,10000
7,250,0,250,250,500,500,750,750,2,0,1,0,0,0,0,0,0,0,-0.25,-0.25,-0.25,-0.25,-0.25,-0.25,-0.25,-0.25,linear,0.025,TRUE,25,FALSE,3,NA,NA,6,splines_cal,0.0248,1.4950334244524636e-4,0.00707085490270588,0,10000
7,250,0,250,250,500,500,750,750,2,0,1,0,0,0,0,0,0,0,-0.25,-0.25,-0.25,-0.25,-0.25,-0.25,-0.25,-0.25,linear,0.025,TRUE,25,FALSE,3,NA,NA,7,fixmodel,0.0244,-0.0014795387645553108,0.007057545672287714,0,10000
7,250,0,250,250,500,500,750,750,2,0,1,0,0,0,0,0,0,0,-0.25,-0.25,-0.25,-0.25,-0.25,-0.25,-0.25,-0.25,linear,0.025,TRUE,25,FALSE,3,NA,NA,7,sepmodel,0.0234,-0.0014410974494275953,0.008074678509115746,0,10000
7,250,0,250,250,500,500,750,750,2,0,1,0,0,0,0,0,0,0,-0.25,-0.25,-0.25,-0.25,-0.25,-0.25,-0.25,-0.25,linear,0.025,TRUE,25,FALSE,3,NA,NA,7,splines,0.0232,-0.0014331040633213405,0.007001601912360294,0,10000
7,250,0,250,250,500,500,750,750,2,0,1,0,0,0,0,0,0,0,-0.25,-0.25,-0.25,-0.25,-0.25,-0.25,-0.25,-0.25,linear,0.025,TRUE,25,FALSE,3,NA,NA,7,splines_cal,0.0248,-0.0014537524797536593,0.007065956129775215,0,10000
7,250,0,250,250,500,500,750,750,2,0,1,0,0,0,0,0,0,0,-0.125,-0.125,-0.125,-0.125,-0.125,-0.125,-0.125,-0.125,linear,0.025,TRUE,25,FALSE,1,NA,NA,2,fixmodel,0.0245,-0.0012527689859773198,0.007472718715129555,0,10000
7,250,0,250,250,500,500,750,750,2,0,1,0,0,0,0,0,0,0,-0.125,-0.125,-0.125,-0.125,-0.125,-0.125,-0.125,-0.125,linear,0.025,TRUE,25,FALSE,1,NA,NA,2,sepmodel,0.0254,-0.001055707162467037,0.008031703763231108,0,10000
7,250,0,250,250,500,500,750,750,2,0,1,0,0,0,0,0,0,0,-0.125,-0.125,-0.125,-0.125,-0.125,-0.125,-0.125,-0.125,linear,0.025,TRUE,25,FALSE,1,NA,NA,2,splines,0.0252,-0.0012651115752626875,0.00730835084811414,0,10000
7,250,0,250,250,500,500,750,750,2,0,1,0,0,0,0,0,0,0,-0.125,-0.125,-0.125,-0.125,-0.125,-0.125,-0.125,-0.125,linear,0.025,TRUE,25,FALSE,1,NA,NA,2,splines_cal,0.024,-0.0011066180729653132,0.007458160783038229,0,10000
7,250,0,250,250,500,500,750,750,2,0,1,0,0,0,0,0,0,0,-0.125,-0.125,-0.125,-0.125,-0.125,-0.125,-0.125,-0.125,linear,0.025,TRUE,25,FALSE,1,NA,NA,3,fixmodel,0.0236,-1.2133936978890216e-5,0.007381221566408849,0,10000
7,250,0,250,250,500,500,750,750,2,0,1,0,0,0,0,0,0,0,-0.125,-0.125,-0.125,-0.125,-0.125,-0.125,-0.125,-0.125,linear,0.025,TRUE,25,FALSE,1,NA,NA,3,sepmodel,0.0255,1.8492788653127803e-4,0.00791828059737606,0,10000
7,250,0,250,250,500,500,750,750,2,0,1,0,0,0,0,0,0,0,-0.125,-0.125,-0.125,-0.125,-0.125,-0.125,-0.125,-0.125,linear,0.025,TRUE,25,FALSE,1,NA,NA,3,splines,0.0243,-2.5202428564181325e-5,0.007240333462615934,0,10000
7,250,0,250,250,500,500,750,750,2,0,1,0,0,0,0,0,0,0,-0.125,-0.125,-0.125,-0.125,-0.125,-0.125,-0.125,-0.125,linear,0.025,TRUE,25,FALSE,1,NA,NA,3,splines_cal,0.0249,6.075576049290739e-5,0.007348153453656728,0,10000
7,250,0,250,250,500,500,750,750,2,0,1,0,0,0,0,0,0,0,-0.125,-0.125,-0.125,-0.125,-0.125,-0.125,-0.125,-0.125,linear,0.025,TRUE,25,FALSE,1,NA,NA,4,fixmodel,0.0261,1.5102260634752458e-4,0.007070127523825529,0,10000
7,250,0,250,250,500,500,750,750,2,0,1,0,0,0,0,0,0,0,-0.125,-0.125,-0.125,-0.125,-0.125,-0.125,-0.125,-0.125,linear,0.025,TRUE,25,FALSE,1,NA,NA,4,sepmodel,0.027,2.501405803690831e-4,0.007960984318008953,0,10000
7,250,0,250,250,500,500,750,750,2,0,1,0,0,0,0,0,0,0,-0.125,-0.125,-0.125,-0.125,-0.125,-0.125,-0.125,-0.125,linear,0.025,TRUE,25,FALSE,1,NA,NA,4,splines,0.0259,1.443000781162031e-4,0.007020435141318269,0,10000
7,250,0,250,250,500,500,750,750,2,0,1,0,0,0,0,0,0,0,-0.125,-0.125,-0.125,-0.125,-0.125,-0.125,-0.125,-0.125,linear,0.025,TRUE,25,FALSE,1,NA,NA,4,splines_cal,0.026,1.939525142993391e-5,0.007041428055910438,0,10000
7,250,0,250,250,500,500,750,750,2,0,1,0,0,0,0,0,0,0,-0.125,-0.125,-0.125,-0.125,-0.125,-0.125,-0.125,-0.125,linear,0.025,TRUE,25,FALSE,1,NA,NA,5,fixmodel,0.0223,3.1186653981921976e-4,0.00712948644794594,0,10000
7,250,0,250,250,500,500,750,750,2,0,1,0,0,0,0,0,0,0,-0.125,-0.125,-0.125,-0.125,-0.125,-0.125,-0.125,-0.125,linear,0.025,TRUE,25,FALSE,1,NA,NA,5,sepmodel,0.0242,4.1098451384076397e-4,0.007985425792912022,0,10000
7,250,0,250,250,500,500,750,750,2,0,1,0,0,0,0,0,0,0,-0.125,-0.125,-0.125,-0.125,-0.125,-0.125,-0.125,-0.125,linear,0.025,TRUE,25,FALSE,1,NA,NA,5,splines,0.0242,3.0249360995009535e-4,0.0070649856661048884,0,10000
7,250,0,250,250,500,500,750,750,2,0,1,0,0,0,0,0,0,0,-0.125,-0.125,-0.125,-0.125,-0.125,-0.125,-0.125,-0.125,linear,0.025,TRUE,25,FALSE,1,NA,NA,5,splines_cal,0.0247,2.6749055515276317e-4,0.007087665319867511,0,10000
7,250,0,250,250,500,500,750,750,2,0,1,0,0,0,0,0,0,0,-0.125,-0.125,-0.125,-0.125,-0.125,-0.125,-0.125,-0.125,linear,0.025,TRUE,25,FALSE,1,NA,NA,6,fixmodel,0.0242,-3.671757671313474e-4,0.0071515645333299314,0,10000
7,250,0,250,250,500,500,750,750,2,0,1,0,0,0,0,0,0,0,-0.125,-0.125,-0.125,-0.125,-0.125,-0.125,-0.125,-0.125,linear,0.025,TRUE,25,FALSE,1,NA,NA,6,sepmodel,0.0248,-2.705541464395958e-4,0.008207023459445741,0,10000
7,250,0,250,250,500,500,750,750,2,0,1,0,0,0,0,0,0,0,-0.125,-0.125,-0.125,-0.125,-0.125,-0.125,-0.125,-0.125,linear,0.025,TRUE,25,FALSE,1,NA,NA,6,splines,0.0242,-3.449602598108778e-4,0.007107744864845337,0,10000
7,250,0,250,250,500,500,750,750,2,0,1,0,0,0,0,0,0,0,-0.125,-0.125,-0.125,-0.125,-0.125,-0.125,-0.125,-0.125,linear,0.025,TRUE,25,FALSE,1,NA,NA,6,splines_cal,0.0238,-3.4824573297688476e-4,0.007164728231058283,0,10000
7,250,0,250,250,500,500,750,750,2,0,1,0,0,0,0,0,0,0,-0.125,-0.125,-0.125,-0.125,-0.125,-0.125,-0.125,-0.125,linear,0.025,TRUE,25,FALSE,1,NA,NA,7,fixmodel,0.0231,5.599786628530013e-4,0.006996497878935823,0,10000
7,250,0,250,250,500,500,750,750,2,0,1,0,0,0,0,0,0,0,-0.125,-0.125,-0.125,-0.125,-0.125,-0.125,-0.125,-0.125,linear,0.025,TRUE,25,FALSE,1,NA,NA,7,sepmodel,0.0247,6.566002835447116e-4,0.008048102026478278,0,10000
7,250,0,250,250,500,500,750,750,2,0,1,0,0,0,0,0,0,0,-0.125,-0.125,-0.125,-0.125,-0.125,-0.125,-0.125,-0.125,linear,0.025,TRUE,25,FALSE,1,NA,NA,7,splines,0.0234,5.811964210645712e-4,0.0069603713173948464,0,10000
7,250,0,250,250,500,500,750,750,2,0,1,0,0,0,0,0,0,0,-0.125,-0.125,-0.125,-0.125,-0.125,-0.125,-0.125,-0.125,linear,0.025,TRUE,25,FALSE,1,NA,NA,7,splines_cal,0.0231,5.542849314107915e-4,0.007007613557261222,0,10000
7,250,0,250,250,500,500,750,750,2,0,1,0,0,0,0,0,0,0,-0.125,-0.125,-0.125,-0.125,-0.125,-0.125,-0.125,-0.125,linear,0.025,TRUE,25,FALSE,2,NA,NA,2,fixmodel,0.0251,9.9491247119538e-5,0.007395652984991286,0,10000
7,250,0,250,250,500,500,750,750,2,0,1,0,0,0,0,0,0,0,-0.125,-0.125,-0.125,-0.125,-0.125,-0.125,-0.125,-0.125,linear,0.025,TRUE,25,FALSE,2,NA,NA,2,sepmodel,0.0251,-2.0968197769171955e-4,0.007953198277311758,0,10000
7,250,0,250,250,500,500,750,750,2,0,1,0,0,0,0,0,0,0,-0.125,-0.125,-0.125,-0.125,-0.125,-0.125,-0.125,-0.125,linear,0.025,TRUE,25,FALSE,2,NA,NA,2,splines,0.0243,1.1754852979280227e-4,0.007310066475492157,0,10000
7,250,0,250,250,500,500,750,750,2,0,1,0,0,0,0,0,0,0,-0.125,-0.125,-0.125,-0.125,-0.125,-0.125,-0.125,-0.125,linear,0.025,TRUE,25,FALSE,2,NA,NA,2,splines_cal,0.0249,-7.679216824043249e-7,0.007383997970824239,0,10000
7,250,0,250,250,500,500,750,750,2,0,1,0,0,0,0,0,0,0,-0.125,-0.125,-0.125,-0.125,-0.125,-0.125,-0.125,-0.125,linear,0.025,TRUE,25,FALSE,2,NA,NA,3,fixmodel,0.0269,0.0019095162124348431,0.007441047393419715,0,10000
7,250,0,250,250,500,500,750,750,2,0,1,0,0,0,0,0,0,0,-0.125,-0.125,-0.125,-0.125,-0.125,-0.125,-0.125,-0.125,linear,0.025,TRUE,25,FALSE,2,NA,NA,3,sepmodel,0.0273,0.0016003429876234251,0.008054012278564242,0,10000
7,250,0,250,250,500,500,750,750,2,0,1,0,0,0,0,0,0,0,-0.125,-0.125,-0.125,-0.125,-0.125,-0.125,-0.125,-0.125,linear,0.025,TRUE,25,FALSE,2,NA,NA,3,splines,0.0263,0.0019245943140433163,0.00738214465765978,0,10000
7,250,0,250,250,500,500,750,750,2,0,1,0,0,0,0,0,0,0,-0.125,-0.125,-0.125,-0.125,-0.125,-0.125,-0.125,-0.125,linear,0.025,TRUE,25,FALSE,2,NA,NA,3,splines_cal,0.0267,0.0018610181369917564,0.007419817174459934,0,10000
7,250,0,250,250,500,500,750,750,2,0,1,0,0,0,0,0,0,0,-0.125,-0.125,-0.125,-0.125,-0.125,-0.125,-0.125,-0.125,linear,0.025,TRUE,25,FALSE,2,NA,NA,4,fixmodel,0.0261,7.522702248199275e-4,0.007316878570028958,0,10000
7,250,0,250,250,500,500,750,750,2,0,1,0,0,0,0,0,0,0,-0.125,-0.125,-0.125,-0.125,-0.125,-0.125,-0.125,-0.125,linear,0.025,TRUE,25,FALSE,2,NA,NA,4,sepmodel,0.0256,4.013306638692248e-4,0.008153963278759006,0,10000
7,250,0,250,250,500,500,750,750,2,0,1,0,0,0,0,0,0,0,-0.125,-0.125,-0.125,-0.125,-0.125,-0.125,-0.125,-0.125,linear,0.025,TRUE,25,FALSE,2,NA,NA,4,splines,0.0266,7.492237513548906e-4,0.007279716251495169,0,10000
7,250,0,250,250,500,500,750,750,2,0,1,0,0,0,0,0,0,0,-0.125,-0.125,-0.125,-0.125,-0.125,-0.125,-0.125,-0.125,linear,0.025,TRUE,25,FALSE,2,NA,NA,4,splines_cal,0.0272,7.725210440812674e-4,0.0073022367245482245,0,10000
7,250,0,250,250,500,500,750,750,2,0,1,0,0,0,0,0,0,0,-0.125,-0.125,-0.125,-0.125,-0.125,-0.125,-0.125,-0.125,linear,0.025,TRUE,25,FALSE,2,NA,NA,5,fixmodel,0.0264,4.022008641227259e-5,0.007421100921800638,0,10000
7,250,0,250,250,500,500,750,750,2,0,1,0,0,0,0,0,0,0,-0.125,-0.125,-0.125,-0.125,-0.125,-0.125,-0.125,-0.125,linear,0.025,TRUE,25,FALSE,2,NA,NA,5,sepmodel,0.0261,-3.107194745384159e-4,0.008230665708711197,0,10000
7,250,0,250,250,500,500,750,750,2,0,1,0,0,0,0,0,0,0,-0.125,-0.125,-0.125,-0.125,-0.125,-0.125,-0.125,-0.125,linear,0.025,TRUE,25,FALSE,2,NA,NA,5,splines,0.027,3.661636531650959e-5,0.007369368582812178,0,10000
7,250,0,250,250,500,500,750,750,2,0,1,0,0,0,0,0,0,0,-0.125,-0.125,-0.125,-0.125,-0.125,-0.125,-0.125,-0.125,linear,0.025,TRUE,25,FALSE,2,NA,NA,5,splines_cal,0.0271,2.9160027531547915e-5,0.007401478690875174,0,10000
7,250,0,250,250,500,500,750,750,2,0,1,0,0,0,0,0,0,0,-0.125,-0.125,-0.125,-0.125,-0.125,-0.125,-0.125,-0.125,linear,0.025,TRUE,25,FALSE,2,NA,NA,6,fixmodel,0.028,0.0011966278189192371,0.007240341185221138,0,10000
7,250,0,250,250,500,500,750,750,2,0,1,0,0,0,0,0,0,0,-0.125,-0.125,-0.125,-0.125,-0.125,-0.125,-0.125,-0.125,linear,0.025,TRUE,25,FALSE,2,NA,NA,6,sepmodel,0.0276,0.0010936120192456163,0.008270998829328588,0,10000
7,250,0,250,250,500,500,750,750,2,0,1,0,0,0,0,0,0,0,-0.125,-0.125,-0.125,-0.125,-0.125,-0.125,-0.125,-0.125,linear,0.025,TRUE,25,FALSE,2,NA,NA,6,splines,0.028,0.0012191667540889528,0.007199981055606805,0,10000
7,250,0,250,250,500,500,750,750,2,0,1,0,0,0,0,0,0,0,-0.125,-0.125,-0.125,-0.125,-0.125,-0.125,-0.125,-0.125,linear,0.025,TRUE,25,FALSE,2,NA,NA,6,splines_cal,0.0279,0.0011617714916707367,0.0072679944035233925,0,10000
7,250,0,250,250,500,500,750,750,2,0,1,0,0,0,0,0,0,0,-0.125,-0.125,-0.125,-0.125,-0.125,-0.125,-0.125,-0.125,linear,0.025,TRUE,25,FALSE,2,NA,NA,7,fixmodel,0.0261,0.0014155930616871252,0.007002128070027131,0,10000
7,250,0,250,250,500,500,750,750,2,0,1,0,0,0,0,0,0,0,-0.125,-0.125,-0.125,-0.125,-0.125,-0.125,-0.125,-0.125,linear,0.025,TRUE,25,FALSE,2,NA,NA,7,sepmodel,0.0269,0.001312577262013496,0.008056377141797891,0,10000
7,250,0,250,250,500,500,750,750,2,0,1,0,0,0,0,0,0,0,-0.125,-0.125,-0.125,-0.125,-0.125,-0.125,-0.125,-0.125,linear,0.025,TRUE,25,FALSE,2,NA,NA,7,splines,0.0254,0.001438930804717624,0.00697906091073229,0,10000
7,250,0,250,250,500,500,750,750,2,0,1,0,0,0,0,0,0,0,-0.125,-0.125,-0.125,-0.125,-0.125,-0.125,-0.125,-0.125,linear,0.025,TRUE,25,FALSE,2,NA,NA,7,splines_cal,0.0258,0.001397174472891111,0.0070325463357708146,0,10000
7,250,0,250,250,500,500,750,750,2,0,1,0,0,0,0,0,0,0,-0.125,-0.125,-0.125,-0.125,-0.125,-0.125,-0.125,-0.125,linear,0.025,TRUE,25,FALSE,3,NA,NA,2,fixmodel,0.0231,-5.971984147759096e-4,0.007316808592992885,0,10000
7,250,0,250,250,500,500,750,750,2,0,1,0,0,0,0,0,0,0,-0.125,-0.125,-0.125,-0.125,-0.125,-0.125,-0.125,-0.125,linear,0.025,TRUE,25,FALSE,3,NA,NA,2,sepmodel,0.0239,-5.961300009459301e-4,0.007955631096928342,0,10000
7,250,0,250,250,500,500,750,750,2,0,1,0,0,0,0,0,0,0,-0.125,-0.125,-0.125,-0.125,-0.125,-0.125,-0.125,-0.125,linear,0.025,TRUE,25,FALSE,3,NA,NA,2,splines,0.0226,-6.929946010302153e-4,0.007236573955729908,0,10000
7,250,0,250,250,500,500,750,750,2,0,1,0,0,0,0,0,0,0,-0.125,-0.125,-0.125,-0.125,-0.125,-0.125,-0.125,-0.125,linear,0.025,TRUE,25,FALSE,3,NA,NA,2,splines_cal,0.0237,-6.10533762863953e-4,0.007310754980044957,0,10000
7,250,0,250,250,500,500,750,750,2,0,1,0,0,0,0,0,0,0,-0.125,-0.125,-0.125,-0.125,-0.125,-0.125,-0.125,-0.125,linear,0.025,TRUE,25,FALSE,3,NA,NA,3,fixmodel,0.0239,-9.889974495272762e-4,0.007537879622390584,0,10000
7,250,0,250,250,500,500,750,750,2,0,1,0,0,0,0,0,0,0,-0.125,-0.125,-0.125,-0.125,-0.125,-0.125,-0.125,-0.125,linear,0.025,TRUE,25,FALSE,3,NA,NA,3,sepmodel,0.0254,-9.879290356974149e-4,0.008117316762222918,0,10000
7,250,0,250,250,500,500,750,750,2,0,1,0,0,0,0,0,0,0,-0.125,-0.125,-0.125,-0.125,-0.125,-0.125,-0.125,-0.125,linear,0.025,TRUE,25,FALSE,3,NA,NA,3,splines,0.0256,-0.0010879618792363436,0.007444670459904088,0,10000
7,250,0,250,250,500,500,750,750,2,0,1,0,0,0,0,0,0,0,-0.125,-0.125,-0.125,-0.125,-0.125,-0.125,-0.125,-0.125,linear,0.025,TRUE,25,FALSE,3,NA,NA,3,splines_cal,0.0246,-9.852287240846359e-4,0.007521796739676517,0,10000
7,250,0,250,250,500,500,750,750,2,0,1,0,0,0,0,0,0,0,-0.125,-0.125,-0.125,-0.125,-0.125,-0.125,-0.125,-0.125,linear,0.025,TRUE,25,FALSE,3,NA,NA,4,fixmodel,0.0241,-3.1083718814850736e-4,0.007207705532471853,0,10000
7,250,0,250,250,500,500,750,750,2,0,1,0,0,0,0,0,0,0,-0.125,-0.125,-0.125,-0.125,-0.125,-0.125,-0.125,-0.125,linear,0.025,TRUE,25,FALSE,3,NA,NA,4,sepmodel,0.0238,-6.517622614244646e-4,0.008050236814356886,0,10000
7,250,0,250,250,500,500,750,750,2,0,1,0,0,0,0,0,0,0,-0.125,-0.125,-0.125,-0.125,-0.125,-0.125,-0.125,-0.125,linear,0.025,TRUE,25,FALSE,3,NA,NA,4,splines,0.0239,-2.0216189401537553e-4,0.007153833243895352,0,10000
7,250,0,250,250,500,500,750,750,2,0,1,0,0,0,0,0,0,0,-0.125,-0.125,-0.125,-0.125,-0.125,-0.125,-0.125,-0.125,linear,0.025,TRUE,25,FALSE,3,NA,NA,4,splines_cal,0.0236,-3.8871742741221723e-4,0.007199548652319035,0,10000
7,250,0,250,250,500,500,750,750,2,0,1,0,0,0,0,0,0,0,-0.125,-0.125,-0.125,-0.125,-0.125,-0.125,-0.125,-0.125,linear,0.025,TRUE,25,FALSE,3,NA,NA,5,fixmodel,0.0243,-0.0010734190990288077,0.007164353189922917,0,10000
7,250,0,250,250,500,500,750,750,2,0,1,0,0,0,0,0,0,0,-0.125,-0.125,-0.125,-0.125,-0.125,-0.125,-0.125,-0.125,linear,0.025,TRUE,25,FALSE,3,NA,NA,5,sepmodel,0.0241,-0.0014143441723047541,0.008052554149163765,0,10000
7,250,0,250,250,500,500,750,750,2,0,1,0,0,0,0,0,0,0,-0.125,-0.125,-0.125,-0.125,-0.125,-0.125,-0.125,-0.125,linear,0.025,TRUE,25,FALSE,3,NA,NA,5,splines,0.0241,-9.689805025512227e-4,0.007107416521023672,0,10000
7,250,0,250,250,500,500,750,750,2,0,1,0,0,0,0,0,0,0,-0.125,-0.125,-0.125,-0.125,-0.125,-0.125,-0.125,-0.125,linear,0.025,TRUE,25,FALSE,3,NA,NA,5,splines_cal,0.0252,-0.0011157983845470243,0.007170958823742627,0,10000
7,250,0,250,250,500,500,750,750,2,0,1,0,0,0,0,0,0,0,-0.125,-0.125,-0.125,-0.125,-0.125,-0.125,-0.125,-0.125,linear,0.025,TRUE,25,FALSE,3,NA,NA,6,fixmodel,0.0258,-3.0555525317204637e-4,0.006983280262892765,0,10000
7,250,0,250,250,500,500,750,750,2,0,1,0,0,0,0,0,0,0,-0.125,-0.125,-0.125,-0.125,-0.125,-0.125,-0.125,-0.125,linear,0.025,TRUE,25,FALSE,3,NA,NA,6,sepmodel,0.0252,-9.94685079394995e-4,0.007923404570102334,0,10000
7,250,0,250,250,500,500,750,750,2,0,1,0,0,0,0,0,0,0,-0.125,-0.125,-0.125,-0.125,-0.125,-0.125,-0.125,-0.125,linear,0.025,TRUE,25,FALSE,3,NA,NA,6,splines,0.0253,-2.826776523491058e-4,0.006921466354720214,0,10000
7,250,0,250,250,500,500,750,750,2,0,1,0,0,0,0,0,0,0,-0.125,-0.125,-0.125,-0.125,-0.125,-0.125,-0.125,-0.125,linear,0.025,TRUE,25,FALSE,3,NA,NA,6,splines_cal,0.0257,-3.096423230274529e-4,0.006986315773314604,0,10000
7,250,0,250,250,500,500,750,750,2,0,1,0,0,0,0,0,0,0,-0.125,-0.125,-0.125,-0.125,-0.125,-0.125,-0.125,-0.125,linear,0.025,TRUE,25,FALSE,3,NA,NA,7,fixmodel,0.026,-1.6170307220769595e-4,0.007143339807343302,0,10000
7,250,0,250,250,500,500,750,750,2,0,1,0,0,0,0,0,0,0,-0.125,-0.125,-0.125,-0.125,-0.125,-0.125,-0.125,-0.125,linear,0.025,TRUE,25,FALSE,3,NA,NA,7,sepmodel,0.0248,-8.508328984306574e-4,0.008173989317253529,0,10000
7,250,0,250,250,500,500,750,750,2,0,1,0,0,0,0,0,0,0,-0.125,-0.125,-0.125,-0.125,-0.125,-0.125,-0.125,-0.125,linear,0.025,TRUE,25,FALSE,3,NA,NA,7,splines,0.0252,-1.3204672953014314e-4,0.007107167006643583,0,10000
7,250,0,250,250,500,500,750,750,2,0,1,0,0,0,0,0,0,0,-0.125,-0.125,-0.125,-0.125,-0.125,-0.125,-0.125,-0.125,linear,0.025,TRUE,25,FALSE,3,NA,NA,7,splines_cal,0.027,-1.9665137654485977e-4,0.007157190860021924,0,10000
7,250,0,250,250,500,500,750,750,2,0,1,0,0,0,0,0,0,0,0,0,0,0,0,0,0,0,linear,0.025,TRUE,25,FALSE,1,NA,NA,2,fixmodel,0.0237,-2.9056456490801093e-4,0.007426569485382644,0,10000
7,250,0,250,250,500,500,750,750,2,0,1,0,0,0,0,0,0,0,0,0,0,0,0,0,0,0,linear,0.025,TRUE,25,FALSE,1,NA,NA,2,sepmodel,0.0247,-5.833155806962192e-4,0.007923380365915224,0,10000
7,250,0,250,250,500,500,750,750,2,0,1,0,0,0,0,0,0,0,0,0,0,0,0,0,0,0,linear,0.025,TRUE,25,FALSE,1,NA,NA,2,splines,0.0239,-1.1327886382564271e-4,0.00730300961095493,0,10000
7,250,0,250,250,500,500,750,750,2,0,1,0,0,0,0,0,0,0,0,0,0,0,0,0,0,0,linear,0.025,TRUE,25,FALSE,1,NA,NA,2,splines_cal,0.0244,-3.222174746645919e-4,0.007419809252461117,0,10000
7,250,0,250,250,500,500,750,750,2,0,1,0,0,0,0,0,0,0,0,0,0,0,0,0,0,0,linear,0.025,TRUE,25,FALSE,1,NA,NA,3,fixmodel,0.0252,-2.1079008953951754e-4,0.007440924370806953,0,10000
7,250,0,250,250,500,500,750,750,2,0,1,0,0,0,0,0,0,0,0,0,0,0,0,0,0,0,linear,0.025,TRUE,25,FALSE,1,NA,NA,3,sepmodel,0.0238,-5.035411053277652e-4,0.007939618062970421,0,10000
7,250,0,250,250,500,500,750,750,2,0,1,0,0,0,0,0,0,0,0,0,0,0,0,0,0,0,linear,0.025,TRUE,25,FALSE,1,NA,NA,3,splines,0.0252,-3.394455247303442e-5,0.007301868235672346,0,10000
7,250,0,250,250,500,500,750,750,2,0,1,0,0,0,0,0,0,0,0,0,0,0,0,0,0,0,linear,0.025,TRUE,25,FALSE,1,NA,NA,3,splines_cal,0.0244,-2.225710971120597e-4,0.007402666245488471,0,10000
7,250,0,250,250,500,500,750,750,2,0,1,0,0,0,0,0,0,0,0,0,0,0,0,0,0,0,linear,0.025,TRUE,25,FALSE,1,NA,NA,4,fixmodel,0.0266,-3.189678916077438e-4,0.007367021676669388,0,10000
7,250,0,250,250,500,500,750,750,2,0,1,0,0,0,0,0,0,0,0,0,0,0,0,0,0,0,linear,0.025,TRUE,25,FALSE,1,NA,NA,4,sepmodel,0.0258,-0.0011559138605190086,0.008264229107613109,0,10000
7,250,0,250,250,500,500,750,750,2,0,1,0,0,0,0,0,0,0,0,0,0,0,0,0,0,0,linear,0.025,TRUE,25,FALSE,1,NA,NA,4,splines,0.0266,-3.2483469160726194e-4,0.0072963226035339945,0,10000
7,250,0,250,250,500,500,750,750,2,0,1,0,0,0,0,0,0,0,0,0,0,0,0,0,0,0,linear,0.025,TRUE,25,FALSE,1,NA,NA,4,splines_cal,0.0264,-3.7446745402336726e-4,0.007341843977360907,0,10000
7,250,0,250,250,500,500,750,750,2,0,1,0,0,0,0,0,0,0,0,0,0,0,0,0,0,0,linear,0.025,TRUE,25,FALSE,1,NA,NA,5,fixmodel,0.0281,4.633574362377682e-4,0.007211361596412485,0,10000
7,250,0,250,250,500,500,750,750,2,0,1,0,0,0,0,0,0,0,0,0,0,0,0,0,0,0,linear,0.025,TRUE,25,FALSE,1,NA,NA,5,sepmodel,0.0265,-3.735885326734876e-4,0.008034846632375624,0,10000
7,250,0,250,250,500,500,750,750,2,0,1,0,0,0,0,0,0,0,0,0,0,0,0,0,0,0,linear,0.025,TRUE,25,FALSE,1,NA,NA,5,splines,0.0283,4.5544994258667437e-4,0.007156105802546588,0,10000
7,250,0,250,250,500,500,750,750,2,0,1,0,0,0,0,0,0,0,0,0,0,0,0,0,0,0,linear,0.025,TRUE,25,FALSE,1,NA,NA,5,splines_cal,0.0287,4.177047297089513e-4,0.00718954584831141,0,10000
7,250,0,250,250,500,500,750,750,2,0,1,0,0,0,0,0,0,0,0,0,0,0,0,0,0,0,linear,0.025,TRUE,25,FALSE,1,NA,NA,6,fixmodel,0.025,-1.8522299783814403e-4,0.007011016085133847,0,10000
7,250,0,250,250,500,500,750,750,2,0,1,0,0,0,0,0,0,0,0,0,0,0,0,0,0,0,linear,0.025,TRUE,25,FALSE,1,NA,NA,6,sepmodel,0.0243,-5.933617954492044e-4,0.008042777783979344,0,10000
7,250,0,250,250,500,500,750,750,2,0,1,0,0,0,0,0,0,0,0,0,0,0,0,0,0,0,linear,0.025,TRUE,25,FALSE,1,NA,NA,6,splines,0.0255,-1.6382413420297008e-4,0.0069630056384141475,0,10000
7,250,0,250,250,500,500,750,750,2,0,1,0,0,0,0,0,0,0,0,0,0,0,0,0,0,0,linear,0.025,TRUE,25,FALSE,1,NA,NA,6,splines_cal,0.025,-2.1328038632392084e-4,0.007021371579581327,0,10000
7,250,0,250,250,500,500,750,750,2,0,1,0,0,0,0,0,0,0,0,0,0,0,0,0,0,0,linear,0.025,TRUE,25,FALSE,1,NA,NA,7,fixmodel,0.0254,4.6036973732215366e-4,0.007130924329992525,0,10000
7,250,0,250,250,500,500,750,750,2,0,1,0,0,0,0,0,0,0,0,0,0,0,0,0,0,0,linear,0.025,TRUE,25,FALSE,1,NA,NA,7,sepmodel,0.0254,5.223093971108878e-5,0.00811329010766998,0,10000
7,250,0,250,250,500,500,750,750,2,0,1,0,0,0,0,0,0,0,0,0,0,0,0,0,0,0,linear,0.025,TRUE,25,FALSE,1,NA,NA,7,splines,0.0253,4.816212773644201e-4,0.0070849767395408545,0,10000
7,250,0,250,250,500,500,750,750,2,0,1,0,0,0,0,0,0,0,0,0,0,0,0,0,0,0,linear,0.025,TRUE,25,FALSE,1,NA,NA,7,splines_cal,0.0253,4.6230453498149825e-4,0.0071324194646116895,0,10000
7,250,0,250,250,500,500,750,750,2,0,1,0,0,0,0,0,0,0,0,0,0,0,0,0,0,0,linear,0.025,TRUE,25,FALSE,2,NA,NA,2,fixmodel,0.0248,-8.696761333158769e-4,0.0075389099295005025,0,10000
7,250,0,250,250,500,500,750,750,2,0,1,0,0,0,0,0,0,0,0,0,0,0,0,0,0,0,linear,0.025,TRUE,25,FALSE,2,NA,NA,2,sepmodel,0.0253,-9.457029109901239e-4,0.008173004702335689,0,10000
7,250,0,250,250,500,500,750,750,2,0,1,0,0,0,0,0,0,0,0,0,0,0,0,0,0,0,linear,0.025,TRUE,25,FALSE,2,NA,NA,2,splines,0.0248,-8.32346476643934e-4,0.007459140591517204,0,10000
7,250,0,250,250,500,500,750,750,2,0,1,0,0,0,0,0,0,0,0,0,0,0,0,0,0,0,linear,0.025,TRUE,25,FALSE,2,NA,NA,2,splines_cal,0.0254,-7.757050241382972e-4,0.007525305129731178,0,10000
7,250,0,250,250,500,500,750,750,2,0,1,0,0,0,0,0,0,0,0,0,0,0,0,0,0,0,linear,0.025,TRUE,25,FALSE,2,NA,NA,3,fixmodel,0.0248,-4.8836020425925746e-5,0.007481711013167728,0,10000
7,250,0,250,250,500,500,750,750,2,0,1,0,0,0,0,0,0,0,0,0,0,0,0,0,0,0,linear,0.025,TRUE,25,FALSE,2,NA,NA,3,sepmodel,0.0264,-1.2486279810014662e-4,0.008052495628893536,0,10000
7,250,0,250,250,500,500,750,750,2,0,1,0,0,0,0,0,0,0,0,0,0,0,0,0,0,0,linear,0.025,TRUE,25,FALSE,2,NA,NA,3,splines,0.025,-1.3747055309912877e-5,0.007415796247215808,0,10000
7,250,0,250,250,500,500,750,750,2,0,1,0,0,0,0,0,0,0,0,0,0,0,0,0,0,0,linear,0.025,TRUE,25,FALSE,2,NA,NA,3,splines_cal,0.0258,8.992028505306754e-5,0.007473157362221742,0,10000
7,250,0,250,250,500,500,750,750,2,0,1,0,0,0,0,0,0,0,0,0,0,0,0,0,0,0,linear,0.025,TRUE,25,FALSE,2,NA,NA,4,fixmodel,0.0247,-9.602525945923701e-4,0.00725413926368433,0,10000
7,250,0,250,250,500,500,750,750,2,0,1,0,0,0,0,0,0,0,0,0,0,0,0,0,0,0,linear,0.025,TRUE,25,FALSE,2,NA,NA,4,sepmodel,0.0231,-0.00106251708641024,0.008098834320753142,0,10000
7,250,0,250,250,500,500,750,750,2,0,1,0,0,0,0,0,0,0,0,0,0,0,0,0,0,0,linear,0.025,TRUE,25,FALSE,2,NA,NA,4,splines,0.0244,-0.0010387060506305524,0.007213347769675008,0,10000
7,250,0,250,250,500,500,750,750,2,0,1,0,0,0,0,0,0,0,0,0,0,0,0,0,0,0,linear,0.025,TRUE,25,FALSE,2,NA,NA,4,splines_cal,0.0239,-9.510715549047657e-4,0.007239345759372998,0,10000
7,250,0,250,250,500,500,750,750,2,0,1,0,0,0,0,0,0,0,0,0,0,0,0,0,0,0,linear,0.025,TRUE,25,FALSE,2,NA,NA,5,fixmodel,0.0264,-2.098192593513715e-4,0.007158312996625526,0,10000
7,250,0,250,250,500,500,750,750,2,0,1,0,0,0,0,0,0,0,0,0,0,0,0,0,0,0,linear,0.025,TRUE,25,FALSE,2,NA,NA,5,sepmodel,0.0258,-3.1208375116924015e-4,0.008043143426956058,0,10000
7,250,0,250,250,500,500,750,750,2,0,1,0,0,0,0,0,0,0,0,0,0,0,0,0,0,0,linear,0.025,TRUE,25,FALSE,2,NA,NA,5,splines,0.0258,-2.873118681477762e-4,0.00710032913066472,0,10000
7,250,0,250,250,500,500,750,750,2,0,1,0,0,0,0,0,0,0,0,0,0,0,0,0,0,0,linear,0.025,TRUE,25,FALSE,2,NA,NA,5,splines_cal,0.026,-2.1582085397615873e-4,0.007119991929432911,0,10000
7,250,0,250,250,500,500,750,750,2,0,1,0,0,0,0,0,0,0,0,0,0,0,0,0,0,0,linear,0.025,TRUE,25,FALSE,2,NA,NA,6,fixmodel,0.0243,-0.0016055294739717825,0.007249310403770768,0,10000
7,250,0,250,250,500,500,750,750,2,0,1,0,0,0,0,0,0,0,0,0,0,0,0,0,0,0,linear,0.025,TRUE,25,FALSE,2,NA,NA,6,sepmodel,0.0244,-0.0015191360276425423,0.008280372644282096,0,10000
7,250,0,250,250,500,500,750,750,2,0,1,0,0,0,0,0,0,0,0,0,0,0,0,0,0,0,linear,0.025,TRUE,25,FALSE,2,NA,NA,6,splines,0.0245,-0.0016313469060210244,0.007213371211613762,0,10000
7,250,0,250,250,500,500,750,750,2,0,1,0,0,0,0,0,0,0,0,0,0,0,0,0,0,0,linear,0.025,TRUE,25,FALSE,2,NA,NA,6,splines_cal,0.0236,-0.0016037775888453215,0.0072518953655593766,0,10000
7,250,0,250,250,500,500,750,750,2,0,1,0,0,0,0,0,0,0,0,0,0,0,0,0,0,0,linear,0.025,TRUE,25,FALSE,2,NA,NA,7,fixmodel,0.0262,-9.913624669379755e-4,0.006948766974871687,0,10000
7,250,0,250,250,500,500,750,750,2,0,1,0,0,0,0,0,0,0,0,0,0,0,0,0,0,0,linear,0.025,TRUE,25,FALSE,2,NA,NA,7,sepmodel,0.0245,-9.049690206087119e-4,0.007941722764918516,0,10000
7,250,0,250,250,500,500,750,750,2,0,1,0,0,0,0,0,0,0,0,0,0,0,0,0,0,0,linear,0.025,TRUE,25,FALSE,2,NA,NA,7,splines,0.0268,-0.0010182073638178924,0.006916291731118767,0,10000
7,250,0,250,250,500,500,750,750,2,0,1,0,0,0,0,0,0,0,0,0,0,0,0,0,0,0,linear,0.025,TRUE,25,FALSE,2,NA,NA,7,splines_cal,0.0259,-9.921842711126856e-4,0.0069725082868646255,0,10000
7,250,0,250,250,500,500,750,750,2,0,1,0,0,0,0,0,0,0,0,0,0,0,0,0,0,0,linear,0.025,TRUE,25,FALSE,3,NA,NA,2,fixmodel,0.0246,5.45638849005007e-4,0.007435328828729612,0,10000
7,250,0,250,250,500,500,750,750,2,0,1,0,0,0,0,0,0,0,0,0,0,0,0,0,0,0,linear,0.025,TRUE,25,FALSE,3,NA,NA,2,sepmodel,0.0252,2.1347390200017572e-4,0.0080029018913918,0,10000
7,250,0,250,250,500,500,750,750,2,0,1,0,0,0,0,0,0,0,0,0,0,0,0,0,0,0,linear,0.025,TRUE,25,FALSE,3,NA,NA,2,splines,0.0239,6.046237405325176e-4,0.0073382859978939315,0,10000
7,250,0,250,250,500,500,750,750,2,0,1,0,0,0,0,0,0,0,0,0,0,0,0,0,0,0,linear,0.025,TRUE,25,FALSE,3,NA,NA,2,splines_cal,0.0236,4.5853214043416765e-4,0.007432268198149843,0,10000
7,250,0,250,250,500,500,750,750,2,0,1,0,0,0,0,0,0,0,0,0,0,0,0,0,0,0,linear,0.025,TRUE,25,FALSE,3,NA,NA,3,fixmodel,0.0263,8.928634692920391e-4,0.007387285125267419,0,10000
7,250,0,250,250,500,500,750,750,2,0,1,0,0,0,0,0,0,0,0,0,0,0,0,0,0,0,linear,0.025,TRUE,25,FALSE,3,NA,NA,3,sepmodel,0.0258,5.60698522287141e-4,0.00796886601595917,0,10000
7,250,0,250,250,500,500,750,750,2,0,1,0,0,0,0,0,0,0,0,0,0,0,0,0,0,0,linear,0.025,TRUE,25,FALSE,3,NA,NA,3,splines,0.0264,9.506533598941847e-4,0.007300407798313577,0,10000
7,250,0,250,250,500,500,750,750,2,0,1,0,0,0,0,0,0,0,0,0,0,0,0,0,0,0,linear,0.025,TRUE,25,FALSE,3,NA,NA,3,splines_cal,0.0262,8.42896611667129e-4,0.0073699025478826796,0,10000
7,250,0,250,250,500,500,750,750,2,0,1,0,0,0,0,0,0,0,0,0,0,0,0,0,0,0,linear,0.025,TRUE,25,FALSE,3,NA,NA,4,fixmodel,0.0265,7.63129157469522e-5,0.007197858212654568,0,10000
7,250,0,250,250,500,500,750,750,2,0,1,0,0,0,0,0,0,0,0,0,0,0,0,0,0,0,linear,0.025,TRUE,25,FALSE,3,NA,NA,4,sepmodel,0.0262,-6.032755083974715e-4,0.008009682045882668,0,10000
7,250,0,250,250,500,500,750,750,2,0,1,0,0,0,0,0,0,0,0,0,0,0,0,0,0,0,linear,0.025,TRUE,25,FALSE,3,NA,NA,4,splines,0.0272,1.079143777265555e-4,0.00714409193725915,0,10000
7,250,0,250,250,500,500,750,750,2,0,1,0,0,0,0,0,0,0,0,0,0,0,0,0,0,0,linear,0.025,TRUE,25,FALSE,3,NA,NA,4,splines_cal,0.0262,9.182312515485819e-5,0.007173118622120644,0,10000
7,250,0,250,250,500,500,750,750,2,0,1,0,0,0,0,0,0,0,0,0,0,0,0,0,0,0,linear,0.025,TRUE,25,FALSE,3,NA,NA,5,fixmodel,0.0245,0.0010552226032064756,0.007225352776442545,0,10000
7,250,0,250,250,500,500,750,750,2,0,1,0,0,0,0,0,0,0,0,0,0,0,0,0,0,0,linear,0.025,TRUE,25,FALSE,3,NA,NA,5,sepmodel,0.0246,3.756341790620357e-4,0.008053445969723766,0,10000
7,250,0,250,250,500,500,750,750,2,0,1,0,0,0,0,0,0,0,0,0,0,0,0,0,0,0,linear,0.025,TRUE,25,FALSE,3,NA,NA,5,splines,0.0243,0.0010856981096245232,0.007183982949654235,0,10000
7,250,0,250,250,500,500,750,750,2,0,1,0,0,0,0,0,0,0,0,0,0,0,0,0,0,0,linear,0.025,TRUE,25,FALSE,3,NA,NA,5,splines_cal,0.0236,0.001045336934107161,0.00720316705986102,0,10000
7,250,0,250,250,500,500,750,750,2,0,1,0,0,0,0,0,0,0,0,0,0,0,0,0,0,0,linear,0.025,TRUE,25,FALSE,3,NA,NA,6,fixmodel,0.0249,9.568741738617552e-4,0.006921733337859404,0,10000
7,250,0,250,250,500,500,750,750,2,0,1,0,0,0,0,0,0,0,0,0,0,0,0,0,0,0,linear,0.025,TRUE,25,FALSE,3,NA,NA,6,sepmodel,0.0245,9.5069742265507e-5,0.00794796486689568,0,10000
7,250,0,250,250,500,500,750,750,2,0,1,0,0,0,0,0,0,0,0,0,0,0,0,0,0,0,linear,0.025,TRUE,25,FALSE,3,NA,NA,6,splines,0.0248,9.788369603287953e-4,0.0068786234102334535,0,10000
7,250,0,250,250,500,500,750,750,2,0,1,0,0,0,0,0,0,0,0,0,0,0,0,0,0,0,linear,0.025,TRUE,25,FALSE,3,NA,NA,6,splines_cal,0.0254,0.0010479034426162442,0.006924265428332716,0,10000
7,250,0,250,250,500,500,750,750,2,0,1,0,0,0,0,0,0,0,0,0,0,0,0,0,0,0,linear,0.025,TRUE,25,FALSE,3,NA,NA,7,fixmodel,0.0276,0.0014282390836085888,0.007148376332801145,0,10000
7,250,0,250,250,500,500,750,750,2,0,1,0,0,0,0,0,0,0,0,0,0,0,0,0,0,0,linear,0.025,TRUE,25,FALSE,3,NA,NA,7,sepmodel,0.0269,5.664346520123308e-4,0.008108842642916775,0,10000
7,250,0,250,250,500,500,750,750,2,0,1,0,0,0,0,0,0,0,0,0,0,0,0,0,0,0,linear,0.025,TRUE,25,FALSE,3,NA,NA,7,splines,0.0279,0.0014478795995911157,0.007101347766070573,0,10000
7,250,0,250,250,500,500,750,750,2,0,1,0,0,0,0,0,0,0,0,0,0,0,0,0,0,0,linear,0.025,TRUE,25,FALSE,3,NA,NA,7,splines_cal,0.0275,0.0015034340844277431,0.007163690249781592,0,10000
7,250,0,250,250,500,500,750,750,2,0,1,0,0,0,0,0,0,0,0.125,0.125,0.125,0.125,0.125,0.125,0.125,0.125,linear,0.025,TRUE,25,FALSE,1,NA,NA,2,fixmodel,0.026,0.0015799966189856825,0.007474762562670208,0,10000
7,250,0,250,250,500,500,750,750,2,0,1,0,0,0,0,0,0,0,0.125,0.125,0.125,0.125,0.125,0.125,0.125,0.125,linear,0.025,TRUE,25,FALSE,1,NA,NA,2,sepmodel,0.0256,0.0014161395062836926,0.00798888622051983,0,10000
7,250,0,250,250,500,500,750,750,2,0,1,0,0,0,0,0,0,0,0.125,0.125,0.125,0.125,0.125,0.125,0.125,0.125,linear,0.025,TRUE,25,FALSE,1,NA,NA,2,splines,0.026,0.0015457800556347076,0.007332308757095588,0,10000
7,250,0,250,250,500,500,750,750,2,0,1,0,0,0,0,0,0,0,0.125,0.125,0.125,0.125,0.125,0.125,0.125,0.125,linear,0.025,TRUE,25,FALSE,1,NA,NA,2,splines_cal,0.0268,0.0015801607351928378,0.007442431185114754,0,10000
7,250,0,250,250,500,500,750,750,2,0,1,0,0,0,0,0,0,0,0.125,0.125,0.125,0.125,0.125,0.125,0.125,0.125,linear,0.025,TRUE,25,FALSE,1,NA,NA,3,fixmodel,0.0285,0.001544447482436294,0.007588570154068611,0,10000
7,250,0,250,250,500,500,750,750,2,0,1,0,0,0,0,0,0,0,0.125,0.125,0.125,0.125,0.125,0.125,0.125,0.125,linear,0.025,TRUE,25,FALSE,1,NA,NA,3,sepmodel,0.029,0.0013805903697343969,0.008174715362108,0,10000
7,250,0,250,250,500,500,750,750,2,0,1,0,0,0,0,0,0,0,0.125,0.125,0.125,0.125,0.125,0.125,0.125,0.125,linear,0.025,TRUE,25,FALSE,1,NA,NA,3,splines,0.0294,0.0015104613822553212,0.007464165547105886,0,10000
7,250,0,250,250,500,500,750,750,2,0,1,0,0,0,0,0,0,0,0.125,0.125,0.125,0.125,0.125,0.125,0.125,0.125,linear,0.025,TRUE,25,FALSE,1,NA,NA,3,splines_cal,0.028,0.0015291633054301675,0.007573249256942475,0,10000
7,250,0,250,250,500,500,750,750,2,0,1,0,0,0,0,0,0,0,0.125,0.125,0.125,0.125,0.125,0.125,0.125,0.125,linear,0.025,TRUE,25,FALSE,1,NA,NA,4,fixmodel,0.0264,0.0019312614661528764,0.007234214661037256,0,10000
7,250,0,250,250,500,500,750,750,2,0,1,0,0,0,0,0,0,0,0.125,0.125,0.125,0.125,0.125,0.125,0.125,0.125,linear,0.025,TRUE,25,FALSE,1,NA,NA,4,sepmodel,0.026,0.0017137822073565404,0.008077064749287453,0,10000
7,250,0,250,250,500,500,750,750,2,0,1,0,0,0,0,0,0,0,0.125,0.125,0.125,0.125,0.125,0.125,0.125,0.125,linear,0.025,TRUE,25,FALSE,1,NA,NA,4,splines,0.0272,0.0019689012438815624,0.007192507325986134,0,10000
7,250,0,250,250,500,500,750,750,2,0,1,0,0,0,0,0,0,0,0.125,0.125,0.125,0.125,0.125,0.125,0.125,0.125,linear,0.025,TRUE,25,FALSE,1,NA,NA,4,splines_cal,0.0268,0.0019243885149511808,0.007205070978006232,0,10000
7,250,0,250,250,500,500,750,750,2,0,1,0,0,0,0,0,0,0,0.125,0.125,0.125,0.125,0.125,0.125,0.125,0.125,linear,0.025,TRUE,25,FALSE,1,NA,NA,5,fixmodel,0.0258,8.437015592264467e-4,0.007056036672353214,0,10000
7,250,0,250,250,500,500,750,750,2,0,1,0,0,0,0,0,0,0,0.125,0.125,0.125,0.125,0.125,0.125,0.125,0.125,linear,0.025,TRUE,25,FALSE,1,NA,NA,5,sepmodel,0.0258,6.262223004301268e-4,0.007945364945275707,0,10000
7,250,0,250,250,500,500,750,750,2,0,1,0,0,0,0,0,0,0,0.125,0.125,0.125,0.125,0.125,0.125,0.125,0.125,linear,0.025,TRUE,25,FALSE,1,NA,NA,5,splines,0.0256,8.821949248567288e-4,0.007019428158479127,0,10000
7,250,0,250,250,500,500,750,750,2,0,1,0,0,0,0,0,0,0,0.125,0.125,0.125,0.125,0.125,0.125,0.125,0.125,linear,0.025,TRUE,25,FALSE,1,NA,NA,5,splines_cal,0.0236,7.77480469274257e-4,0.007020718722572734,0,10000
7,250,0,250,250,500,500,750,750,2,0,1,0,0,0,0,0,0,0,0.125,0.125,0.125,0.125,0.125,0.125,0.125,0.125,linear,0.025,TRUE,25,FALSE,1,NA,NA,6,fixmodel,0.0262,0.001356580280064134,0.006969930796250156,0,10000
7,250,0,250,250,500,500,750,750,2,0,1,0,0,0,0,0,0,0,0.125,0.125,0.125,0.125,0.125,0.125,0.125,0.125,linear,0.025,TRUE,25,FALSE,1,NA,NA,6,sepmodel,0.0256,0.001214097188594513,0.007875707991910593,0,10000
7,250,0,250,250,500,500,750,750,2,0,1,0,0,0,0,0,0,0,0.125,0.125,0.125,0.125,0.125,0.125,0.125,0.125,linear,0.025,TRUE,25,FALSE,1,NA,NA,6,splines,0.0259,0.001353143409100007,0.006917500996863114,0,10000
7,250,0,250,250,500,500,750,750,2,0,1,0,0,0,0,0,0,0,0.125,0.125,0.125,0.125,0.125,0.125,0.125,0.125,linear,0.025,TRUE,25,FALSE,1,NA,NA,6,splines_cal,0.0261,0.0013842222650385775,0.006979079305555043,0,10000
7,250,0,250,250,500,500,750,750,2,0,1,0,0,0,0,0,0,0,0.125,0.125,0.125,0.125,0.125,0.125,0.125,0.125,linear,0.025,TRUE,25,FALSE,1,NA,NA,7,fixmodel,0.0286,0.0026901287223216816,0.006917810223338636,0,10000
7,250,0,250,250,500,500,750,750,2,0,1,0,0,0,0,0,0,0,0.125,0.125,0.125,0.125,0.125,0.125,0.125,0.125,linear,0.025,TRUE,25,FALSE,1,NA,NA,7,sepmodel,0.0295,0.0025476456308520957,0.007909902918613623,0,10000
7,250,0,250,250,500,500,750,750,2,0,1,0,0,0,0,0,0,0,0.125,0.125,0.125,0.125,0.125,0.125,0.125,0.125,linear,0.025,TRUE,25,FALSE,1,NA,NA,7,splines,0.0282,0.0026890554661160512,0.006863783153393538,0,10000
7,250,0,250,250,500,500,750,750,2,0,1,0,0,0,0,0,0,0,0.125,0.125,0.125,0.125,0.125,0.125,0.125,0.125,linear,0.025,TRUE,25,FALSE,1,NA,NA,7,splines_cal,0.0284,0.0027163661008053324,0.00693763478918314,0,10000
7,250,0,250,250,500,500,750,750,2,0,1,0,0,0,0,0,0,0,0.125,0.125,0.125,0.125,0.125,0.125,0.125,0.125,linear,0.025,TRUE,25,FALSE,2,NA,NA,2,fixmodel,0.0238,-5.228899811154232e-4,0.007412158129524373,0,10000
7,250,0,250,250,500,500,750,750,2,0,1,0,0,0,0,0,0,0,0.125,0.125,0.125,0.125,0.125,0.125,0.125,0.125,linear,0.025,TRUE,25,FALSE,2,NA,NA,2,sepmodel,0.0235,-4.446539780272948e-5,0.007962830866908919,0,10000
7,250,0,250,250,500,500,750,750,2,0,1,0,0,0,0,0,0,0,0.125,0.125,0.125,0.125,0.125,0.125,0.125,0.125,linear,0.025,TRUE,25,FALSE,2,NA,NA,2,splines,0.0239,-5.240205523198596e-4,0.0073452674769749395,0,10000
7,250,0,250,250,500,500,750,750,2,0,1,0,0,0,0,0,0,0,0.125,0.125,0.125,0.125,0.125,0.125,0.125,0.125,linear,0.025,TRUE,25,FALSE,2,NA,NA,2,splines_cal,0.0229,-5.944820626320809e-4,0.007393313247908254,0,10000
7,250,0,250,250,500,500,750,750,2,0,1,0,0,0,0,0,0,0,0.125,0.125,0.125,0.125,0.125,0.125,0.125,0.125,linear,0.025,TRUE,25,FALSE,2,NA,NA,3,fixmodel,0.0262,7.456453918956525e-4,0.007492253739822288,0,10000
7,250,0,250,250,500,500,750,750,2,0,1,0,0,0,0,0,0,0,0.125,0.125,0.125,0.125,0.125,0.125,0.125,0.125,linear,0.025,TRUE,25,FALSE,2,NA,NA,3,sepmodel,0.027,0.0012240699752084521,0.008072091578455355,0,10000
7,250,0,250,250,500,500,750,750,2,0,1,0,0,0,0,0,0,0,0.125,0.125,0.125,0.125,0.125,0.125,0.125,0.125,linear,0.025,TRUE,25,FALSE,2,NA,NA,3,splines,0.0263,7.444515679601525e-4,0.007410020489566105,0,10000
7,250,0,250,250,500,500,750,750,2,0,1,0,0,0,0,0,0,0,0.125,0.125,0.125,0.125,0.125,0.125,0.125,0.125,linear,0.025,TRUE,25,FALSE,2,NA,NA,3,splines_cal,0.026,8.431922183651852e-4,0.007489566788717328,0,10000
7,250,0,250,250,500,500,750,750,2,0,1,0,0,0,0,0,0,0,0.125,0.125,0.125,0.125,0.125,0.125,0.125,0.125,linear,0.025,TRUE,25,FALSE,2,NA,NA,4,fixmodel,0.0248,-3.759662691220594e-4,0.007272186058589565,0,10000
7,250,0,250,250,500,500,750,750,2,0,1,0,0,0,0,0,0,0,0.125,0.125,0.125,0.125,0.125,0.125,0.125,0.125,linear,0.025,TRUE,25,FALSE,2,NA,NA,4,sepmodel,0.0258,-1.3207515040409014e-4,0.00811522473005659,0,10000
7,250,0,250,250,500,500,750,750,2,0,1,0,0,0,0,0,0,0,0.125,0.125,0.125,0.125,0.125,0.125,0.125,0.125,linear,0.025,TRUE,25,FALSE,2,NA,NA,4,splines,0.0248,-3.5005719981932154e-4,0.0072290517843554255,0,10000
7,250,0,250,250,500,500,750,750,2,0,1,0,0,0,0,0,0,0,0.125,0.125,0.125,0.125,0.125,0.125,0.125,0.125,linear,0.025,TRUE,25,FALSE,2,NA,NA,4,splines_cal,0.0245,-3.9345011167474676e-4,0.007256424573038333,0,10000
7,250,0,250,250,500,500,750,750,2,0,1,0,0,0,0,0,0,0,0.125,0.125,0.125,0.125,0.125,0.125,0.125,0.125,linear,0.025,TRUE,25,FALSE,2,NA,NA,5,fixmodel,0.026,-3.6023971758761275e-4,0.007217723364047346,0,10000
7,250,0,250,250,500,500,750,750,2,0,1,0,0,0,0,0,0,0,0.125,0.125,0.125,0.125,0.125,0.125,0.125,0.125,linear,0.025,TRUE,25,FALSE,2,NA,NA,5,sepmodel,0.0248,-1.1634859886964844e-4,0.008082583934556315,0,10000
7,250,0,250,250,500,500,750,750,2,0,1,0,0,0,0,0,0,0,0.125,0.125,0.125,0.125,0.125,0.125,0.125,0.125,linear,0.025,TRUE,25,FALSE,2,NA,NA,5,splines,0.0264,-3.353719080497328e-4,0.00716617627918981,0,10000
7,250,0,250,250,500,500,750,750,2,0,1,0,0,0,0,0,0,0,0.125,0.125,0.125,0.125,0.125,0.125,0.125,0.125,linear,0.025,TRUE,25,FALSE,2,NA,NA,5,splines_cal,0.0261,-3.331680607865815e-4,0.007196204602526692,0,10000
7,250,0,250,250,500,500,750,750,2,0,1,0,0,0,0,0,0,0,0.125,0.125,0.125,0.125,0.125,0.125,0.125,0.125,linear,0.025,TRUE,25,FALSE,2,NA,NA,6,fixmodel,0.0247,-0.0016311715871578467,0.0069979605557697645,0,10000
7,250,0,250,250,500,500,750,750,2,0,1,0,0,0,0,0,0,0,0.125,0.125,0.125,0.125,0.125,0.125,0.125,0.125,linear,0.025,TRUE,25,FALSE,2,NA,NA,6,sepmodel,0.0244,-0.0015217190953386315,0.008037442594957601,0,10000
7,250,0,250,250,500,500,750,750,2,0,1,0,0,0,0,0,0,0,0.125,0.125,0.125,0.125,0.125,0.125,0.125,0.125,linear,0.025,TRUE,25,FALSE,2,NA,NA,6,splines,0.0245,-0.0015653277016997567,0.0069598168448716784,0,10000
7,250,0,250,250,500,500,750,750,2,0,1,0,0,0,0,0,0,0,0.125,0.125,0.125,0.125,0.125,0.125,0.125,0.125,linear,0.025,TRUE,25,FALSE,2,NA,NA,6,splines_cal,0.025,-0.001589681234103227,0.007009976580854107,0,10000
7,250,0,250,250,500,500,750,750,2,0,1,0,0,0,0,0,0,0,0.125,0.125,0.125,0.125,0.125,0.125,0.125,0.125,linear,0.025,TRUE,25,FALSE,2,NA,NA,7,fixmodel,0.0227,-1.2553260197884696e-4,0.006905683297302458,0,10000
7,250,0,250,250,500,500,750,750,2,0,1,0,0,0,0,0,0,0,0.125,0.125,0.125,0.125,0.125,0.125,0.125,0.125,linear,0.025,TRUE,25,FALSE,2,NA,NA,7,sepmodel,0.0228,-1.6080110159613953e-5,0.007884869243642541,0,10000
7,250,0,250,250,500,500,750,750,2,0,1,0,0,0,0,0,0,0,0.125,0.125,0.125,0.125,0.125,0.125,0.125,0.125,linear,0.025,TRUE,25,FALSE,2,NA,NA,7,splines,0.0224,-5.822969279950003e-5,0.006875281546230233,0,10000
7,250,0,250,250,500,500,750,750,2,0,1,0,0,0,0,0,0,0,0.125,0.125,0.125,0.125,0.125,0.125,0.125,0.125,linear,0.025,TRUE,25,FALSE,2,NA,NA,7,splines_cal,0.0223,-9.441369887734313e-5,0.006909034829161968,0,10000
7,250,0,250,250,500,500,750,750,2,0,1,0,0,0,0,0,0,0,0.125,0.125,0.125,0.125,0.125,0.125,0.125,0.125,linear,0.025,TRUE,25,FALSE,3,NA,NA,2,fixmodel,0.024,-0.0012924103824600787,0.007607695457669083,0,10000
7,250,0,250,250,500,500,750,750,2,0,1,0,0,0,0,0,0,0,0.125,0.125,0.125,0.125,0.125,0.125,0.125,0.125,linear,0.025,TRUE,25,FALSE,3,NA,NA,2,sepmodel,0.0251,-0.001434836500024806,0.008200587080541786,0,10000
7,250,0,250,250,500,500,750,750,2,0,1,0,0,0,0,0,0,0,0.125,0.125,0.125,0.125,0.125,0.125,0.125,0.125,linear,0.025,TRUE,25,FALSE,3,NA,NA,2,splines,0.0237,-0.0013239095332028882,0.007526087518650728,0,10000
7,250,0,250,250,500,500,750,750,2,0,1,0,0,0,0,0,0,0,0.125,0.125,0.125,0.125,0.125,0.125,0.125,0.125,linear,0.025,TRUE,25,FALSE,3,NA,NA,2,splines_cal,0.0251,-0.0014125077198553267,0.00761436045659048,0,10000
7,250,0,250,250,500,500,750,750,2,0,1,0,0,0,0,0,0,0,0.125,0.125,0.125,0.125,0.125,0.125,0.125,0.125,linear,0.025,TRUE,25,FALSE,3,NA,NA,3,fixmodel,0.0248,-0.0022012548224459934,0.007489313769698948,0,10000
7,250,0,250,250,500,500,750,750,2,0,1,0,0,0,0,0,0,0,0.125,0.125,0.125,0.125,0.125,0.125,0.125,0.125,linear,0.025,TRUE,25,FALSE,3,NA,NA,3,sepmodel,0.0265,-0.002343680940010576,0.00805390518668279,0,10000
7,250,0,250,250,500,500,750,750,2,0,1,0,0,0,0,0,0,0,0.125,0.125,0.125,0.125,0.125,0.125,0.125,0.125,linear,0.025,TRUE,25,FALSE,3,NA,NA,3,splines,0.0241,-0.0022335638769262604,0.007387310617409936,0,10000
7,250,0,250,250,500,500,750,750,2,0,1,0,0,0,0,0,0,0,0.125,0.125,0.125,0.125,0.125,0.125,0.125,0.125,linear,0.025,TRUE,25,FALSE,3,NA,NA,3,splines_cal,0.0256,-0.002334426407444334,0.007495758118417249,0,10000
7,250,0,250,250,500,500,750,750,2,0,1,0,0,0,0,0,0,0,0.125,0.125,0.125,0.125,0.125,0.125,0.125,0.125,linear,0.025,TRUE,25,FALSE,3,NA,NA,4,fixmodel,0.0227,-0.001939223069837282,0.007091153943065674,0,10000
7,250,0,250,250,500,500,750,750,2,0,1,0,0,0,0,0,0,0,0.125,0.125,0.125,0.125,0.125,0.125,0.125,0.125,linear,0.025,TRUE,25,FALSE,3,NA,NA,4,sepmodel,0.0234,-0.0024027085894203783,0.007915270891878082,0,10000
7,250,0,250,250,500,500,750,750,2,0,1,0,0,0,0,0,0,0,0.125,0.125,0.125,0.125,0.125,0.125,0.125,0.125,linear,0.025,TRUE,25,FALSE,3,NA,NA,4,splines,0.0223,-0.0018707582463801885,0.007046909740168847,0,10000
7,250,0,250,250,500,500,750,750,2,0,1,0,0,0,0,0,0,0,0.125,0.125,0.125,0.125,0.125,0.125,0.125,0.125,linear,0.025,TRUE,25,FALSE,3,NA,NA,4,splines_cal,0.0232,-0.00201946650544082,0.007057874127537574,0,10000
7,250,0,250,250,500,500,750,750,2,0,1,0,0,0,0,0,0,0,0.125,0.125,0.125,0.125,0.125,0.125,0.125,0.125,linear,0.025,TRUE,25,FALSE,3,NA,NA,5,fixmodel,0.0245,-0.0011910672446469777,0.006965870349864611,0,10000
7,250,0,250,250,500,500,750,750,2,0,1,0,0,0,0,0,0,0,0.125,0.125,0.125,0.125,0.125,0.125,0.125,0.125,linear,0.025,TRUE,25,FALSE,3,NA,NA,5,sepmodel,0.0211,-0.001654552764230059,0.007782387723317754,0,10000
7,250,0,250,250,500,500,750,750,2,0,1,0,0,0,0,0,0,0,0.125,0.125,0.125,0.125,0.125,0.125,0.125,0.125,linear,0.025,TRUE,25,FALSE,3,NA,NA,5,splines,0.0249,-0.0011228638513310035,0.006934443435700116,0,10000
7,250,0,250,250,500,500,750,750,2,0,1,0,0,0,0,0,0,0,0.125,0.125,0.125,0.125,0.125,0.125,0.125,0.125,linear,0.025,TRUE,25,FALSE,3,NA,NA,5,splines_cal,0.0241,-0.0012730398230717524,0.006949388234597811,0,10000
7,250,0,250,250,500,500,750,750,2,0,1,0,0,0,0,0,0,0,0.125,0.125,0.125,0.125,0.125,0.125,0.125,0.125,linear,0.025,TRUE,25,FALSE,3,NA,NA,6,fixmodel,0.0261,-0.00206448028096263,0.006989529157598957,0,10000
7,250,0,250,250,500,500,750,750,2,0,1,0,0,0,0,0,0,0,0.125,0.125,0.125,0.125,0.125,0.125,0.125,0.125,linear,0.025,TRUE,25,FALSE,3,NA,NA,6,sepmodel,0.0247,-0.002402072895049827,0.008084569919901415,0,10000
7,250,0,250,250,500,500,750,750,2,0,1,0,0,0,0,0,0,0,0.125,0.125,0.125,0.125,0.125,0.125,0.125,0.125,linear,0.025,TRUE,25,FALSE,3,NA,NA,6,splines,0.0263,-0.0020417714730527484,0.0069594027033293,0,10000
7,250,0,250,250,500,500,750,750,2,0,1,0,0,0,0,0,0,0,0.125,0.125,0.125,0.125,0.125,0.125,0.125,0.125,linear,0.025,TRUE,25,FALSE,3,NA,NA,6,splines_cal,0.0261,-0.002136068207250664,0.007005470088980704,0,10000
7,250,0,250,250,500,500,750,750,2,0,1,0,0,0,0,0,0,0,0.125,0.125,0.125,0.125,0.125,0.125,0.125,0.125,linear,0.025,TRUE,25,FALSE,3,NA,NA,7,fixmodel,0.0248,-0.0016794137633578184,0.00698845300147088,0,10000
7,250,0,250,250,500,500,750,750,2,0,1,0,0,0,0,0,0,0,0.125,0.125,0.125,0.125,0.125,0.125,0.125,0.125,linear,0.025,TRUE,25,FALSE,3,NA,NA,7,sepmodel,0.0237,-0.002017006377444983,0.007976821983024119,0,10000
7,250,0,250,250,500,500,750,750,2,0,1,0,0,0,0,0,0,0,0.125,0.125,0.125,0.125,0.125,0.125,0.125,0.125,linear,0.025,TRUE,25,FALSE,3,NA,NA,7,splines,0.0251,-0.0016530615912904694,0.0069615058477972905,0,10000
7,250,0,250,250,500,500,750,750,2,0,1,0,0,0,0,0,0,0,0.125,0.125,0.125,0.125,0.125,0.125,0.125,0.125,linear,0.025,TRUE,25,FALSE,3,NA,NA,7,splines_cal,0.0243,-0.001734281460296099,0.006996992674440262,0,10000
7,250,0,250,250,500,500,750,750,2,0,1,0,0,0,0,0,0,0,0.25,0.25,0.25,0.25,0.25,0.25,0.25,0.25,linear,0.025,TRUE,25,FALSE,1,NA,NA,2,fixmodel,0.0267,0.0011143346366344839,0.007372419666129536,0,10000
7,250,0,250,250,500,500,750,750,2,0,1,0,0,0,0,0,0,0,0.25,0.25,0.25,0.25,0.25,0.25,0.25,0.25,linear,0.025,TRUE,25,FALSE,1,NA,NA,2,sepmodel,0.0255,0.0013114169097444524,0.007992507917696765,0,10000
7,250,0,250,250,500,500,750,750,2,0,1,0,0,0,0,0,0,0,0.25,0.25,0.25,0.25,0.25,0.25,0.25,0.25,linear,0.025,TRUE,25,FALSE,1,NA,NA,2,splines,0.0254,8.198547736437523e-4,0.00722322989486693,0,10000
7,250,0,250,250,500,500,750,750,2,0,1,0,0,0,0,0,0,0,0.25,0.25,0.25,0.25,0.25,0.25,0.25,0.25,linear,0.025,TRUE,25,FALSE,1,NA,NA,2,splines_cal,0.026,0.0011468964403483519,0.0073631547850666074,0,10000
7,250,0,250,250,500,500,750,750,2,0,1,0,0,0,0,0,0,0,0.25,0.25,0.25,0.25,0.25,0.25,0.25,0.25,linear,0.025,TRUE,25,FALSE,1,NA,NA,3,fixmodel,0.0239,8.203803431717714e-5,0.00733308194704402,0,10000
7,250,0,250,250,500,500,750,750,2,0,1,0,0,0,0,0,0,0,0.25,0.25,0.25,0.25,0.25,0.25,0.25,0.25,linear,0.025,TRUE,25,FALSE,1,NA,NA,3,sepmodel,0.0244,2.791203074273887e-4,0.007888325458011798,0,10000
7,250,0,250,250,500,500,750,750,2,0,1,0,0,0,0,0,0,0,0.25,0.25,0.25,0.25,0.25,0.25,0.25,0.25,linear,0.025,TRUE,25,FALSE,1,NA,NA,3,splines,0.0234,-2.1254147141219602e-4,0.0071896732569821575,0,10000
7,250,0,250,250,500,500,750,750,2,0,1,0,0,0,0,0,0,0,0.25,0.25,0.25,0.25,0.25,0.25,0.25,0.25,linear,0.025,TRUE,25,FALSE,1,NA,NA,3,splines_cal,0.0247,-1.567193394377394e-5,0.0073381708267824235,0,10000
7,250,0,250,250,500,500,750,750,2,0,1,0,0,0,0,0,0,0,0.25,0.25,0.25,0.25,0.25,0.25,0.25,0.25,linear,0.025,TRUE,25,FALSE,1,NA,NA,4,fixmodel,0.0258,0.0015645188183400628,0.007172933401880853,0,10000
7,250,0,250,250,500,500,750,750,2,0,1,0,0,0,0,0,0,0,0.25,0.25,0.25,0.25,0.25,0.25,0.25,0.25,linear,0.025,TRUE,25,FALSE,1,NA,NA,4,sepmodel,0.026,0.001966219528863393,0.007997467904664235,0,10000
7,250,0,250,250,500,500,750,750,2,0,1,0,0,0,0,0,0,0,0.25,0.25,0.25,0.25,0.25,0.25,0.25,0.25,linear,0.025,TRUE,25,FALSE,1,NA,NA,4,splines,0.0253,0.0014684660005335757,0.007101201785255262,0,10000
7,250,0,250,250,500,500,750,750,2,0,1,0,0,0,0,0,0,0,0.25,0.25,0.25,0.25,0.25,0.25,0.25,0.25,linear,0.025,TRUE,25,FALSE,1,NA,NA,4,splines_cal,0.0257,0.0014068256725003187,0.007154834364897245,0,10000
7,250,0,250,250,500,500,750,750,2,0,1,0,0,0,0,0,0,0,0.25,0.25,0.25,0.25,0.25,0.25,0.25,0.25,linear,0.025,TRUE,25,FALSE,1,NA,NA,5,fixmodel,0.0243,0.0018359954788366413,0.007090706592235194,0,10000
7,250,0,250,250,500,500,750,750,2,0,1,0,0,0,0,0,0,0,0.25,0.25,0.25,0.25,0.25,0.25,0.25,0.25,linear,0.025,TRUE,25,FALSE,1,NA,NA,5,sepmodel,0.0283,0.002237696189359962,0.007941720460135384,0,10000
7,250,0,250,250,500,500,750,750,2,0,1,0,0,0,0,0,0,0,0.25,0.25,0.25,0.25,0.25,0.25,0.25,0.25,linear,0.025,TRUE,25,FALSE,1,NA,NA,5,splines,0.0243,0.0017419413167790313,0.007016016776311596,0,10000
7,250,0,250,250,500,500,750,750,2,0,1,0,0,0,0,0,0,0,0.25,0.25,0.25,0.25,0.25,0.25,0.25,0.25,linear,0.025,TRUE,25,FALSE,1,NA,NA,5,splines_cal,0.0246,0.0017603882486595269,0.007057302187738964,0,10000
7,250,0,250,250,500,500,750,750,2,0,1,0,0,0,0,0,0,0,0.25,0.25,0.25,0.25,0.25,0.25,0.25,0.25,linear,0.025,TRUE,25,FALSE,1,NA,NA,6,fixmodel,0.0246,5.141963634994147e-4,0.0070991415373222845,0,10000
7,250,0,250,250,500,500,750,750,2,0,1,0,0,0,0,0,0,0,0.25,0.25,0.25,0.25,0.25,0.25,0.25,0.25,linear,0.025,TRUE,25,FALSE,1,NA,NA,6,sepmodel,0.0266,8.513924862605702e-4,0.008140465417212243,0,10000
7,250,0,250,250,500,500,750,750,2,0,1,0,0,0,0,0,0,0,0.25,0.25,0.25,0.25,0.25,0.25,0.25,0.25,linear,0.025,TRUE,25,FALSE,1,NA,NA,6,splines,0.0246,4.7243487172996803e-4,0.007054655616615056,0,10000
7,250,0,250,250,500,500,750,750,2,0,1,0,0,0,0,0,0,0,0.25,0.25,0.25,0.25,0.25,0.25,0.25,0.25,linear,0.025,TRUE,25,FALSE,1,NA,NA,6,splines_cal,0.0251,5.010007626092461e-4,0.00712553872736405,0,10000
7,250,0,250,250,500,500,750,750,2,0,1,0,0,0,0,0,0,0,0.25,0.25,0.25,0.25,0.25,0.25,0.25,0.25,linear,0.025,TRUE,25,FALSE,1,NA,NA,7,fixmodel,0.0262,5.688403679265187e-4,0.0071102092406578376,0,10000
7,250,0,250,250,500,500,750,750,2,0,1,0,0,0,0,0,0,0,0.25,0.25,0.25,0.25,0.25,0.25,0.25,0.25,linear,0.025,TRUE,25,FALSE,1,NA,NA,7,sepmodel,0.0255,9.060364906877109e-4,0.008183269080743556,0,10000
7,250,0,250,250,500,500,750,750,2,0,1,0,0,0,0,0,0,0,0.25,0.25,0.25,0.25,0.25,0.25,0.25,0.25,linear,0.025,TRUE,25,FALSE,1,NA,NA,7,splines,0.0264,5.255289358430364e-4,0.007054456128873329,0,10000
7,250,0,250,250,500,500,750,750,2,0,1,0,0,0,0,0,0,0,0.25,0.25,0.25,0.25,0.25,0.25,0.25,0.25,linear,0.025,TRUE,25,FALSE,1,NA,NA,7,splines_cal,0.0268,5.119619936619703e-4,0.00713168678502171,0,10000
7,250,0,250,250,500,500,750,750,2,0,1,0,0,0,0,0,0,0,0.25,0.25,0.25,0.25,0.25,0.25,0.25,0.25,linear,0.025,TRUE,25,FALSE,2,NA,NA,2,fixmodel,0.0265,8.266447974953788e-4,0.007595774674922885,0,10000
7,250,0,250,250,500,500,750,750,2,0,1,0,0,0,0,0,0,0,0.25,0.25,0.25,0.25,0.25,0.25,0.25,0.25,linear,0.025,TRUE,25,FALSE,2,NA,NA,2,sepmodel,0.0266,4.106595791351554e-4,0.00810367331202228,0,10000
7,250,0,250,250,500,500,750,750,2,0,1,0,0,0,0,0,0,0,0.25,0.25,0.25,0.25,0.25,0.25,0.25,0.25,linear,0.025,TRUE,25,FALSE,2,NA,NA,2,splines,0.0248,8.98113273274795e-4,0.0075350181654979115,0,10000
7,250,0,250,250,500,500,750,750,2,0,1,0,0,0,0,0,0,0,0.25,0.25,0.25,0.25,0.25,0.25,0.25,0.25,linear,0.025,TRUE,25,FALSE,2,NA,NA,2,splines_cal,0.0259,8.723696645492608e-4,0.007599386508331801,0,10000
7,250,0,250,250,500,500,750,750,2,0,1,0,0,0,0,0,0,0,0.25,0.25,0.25,0.25,0.25,0.25,0.25,0.25,linear,0.025,TRUE,25,FALSE,2,NA,NA,3,fixmodel,0.0275,2.6685014107737422e-5,0.007482148608435412,0,10000
7,250,0,250,250,500,500,750,750,2,0,1,0,0,0,0,0,0,0,0.25,0.25,0.25,0.25,0.25,0.25,0.25,0.25,linear,0.025,TRUE,25,FALSE,2,NA,NA,3,sepmodel,0.0273,-3.893002042522665e-4,0.008083762621318774,0,10000
7,250,0,250,250,500,500,750,750,2,0,1,0,0,0,0,0,0,0,0.25,0.25,0.25,0.25,0.25,0.25,0.25,0.25,linear,0.025,TRUE,25,FALSE,2,NA,NA,3,splines,0.0268,1.010232222900267e-4,0.007445230198891493,0,10000
7,250,0,250,250,500,500,750,750,2,0,1,0,0,0,0,0,0,0,0.25,0.25,0.25,0.25,0.25,0.25,0.25,0.25,linear,0.025,TRUE,25,FALSE,2,NA,NA,3,splines_cal,0.0273,1.4706742276609692e-4,0.007498903833825815,0,10000
7,250,0,250,250,500,500,750,750,2,0,1,0,0,0,0,0,0,0,0.25,0.25,0.25,0.25,0.25,0.25,0.25,0.25,linear,0.025,TRUE,25,FALSE,2,NA,NA,4,fixmodel,0.0245,2.2901973955356667e-4,0.007058650204060923,0,10000
7,250,0,250,250,500,500,750,750,2,0,1,0,0,0,0,0,0,0,0.25,0.25,0.25,0.25,0.25,0.25,0.25,0.25,linear,0.025,TRUE,25,FALSE,2,NA,NA,4,sepmodel,0.0238,2.5564735939077816e-4,0.007857169868058667,0,10000
7,250,0,250,250,500,500,750,750,2,0,1,0,0,0,0,0,0,0,0.25,0.25,0.25,0.25,0.25,0.25,0.25,0.25,linear,0.025,TRUE,25,FALSE,2,NA,NA,4,splines,0.0248,2.2913996146279534e-4,0.0070266360008560515,0,10000
7,250,0,250,250,500,500,750,750,2,0,1,0,0,0,0,0,0,0,0.25,0.25,0.25,0.25,0.25,0.25,0.25,0.25,linear,0.025,TRUE,25,FALSE,2,NA,NA,4,splines_cal,0.0246,1.4393763116922652e-4,0.007032740963220916,0,10000
7,250,0,250,250,500,500,750,750,2,0,1,0,0,0,0,0,0,0,0.25,0.25,0.25,0.25,0.25,0.25,0.25,0.25,linear,0.025,TRUE,25,FALSE,2,NA,NA,5,fixmodel,0.0238,-8.54027835163617e-4,0.007129297391398935,0,10000
7,250,0,250,250,500,500,750,750,2,0,1,0,0,0,0,0,0,0,0.25,0.25,0.25,0.25,0.25,0.25,0.25,0.25,linear,0.025,TRUE,25,FALSE,2,NA,NA,5,sepmodel,0.0223,-8.274002153264105e-4,0.00790148026117831,0,10000
7,250,0,250,250,500,500,750,750,2,0,1,0,0,0,0,0,0,0,0.25,0.25,0.25,0.25,0.25,0.25,0.25,0.25,linear,0.025,TRUE,25,FALSE,2,NA,NA,5,splines,0.0236,-8.527215518909424e-4,0.007084504465371948,0,10000
7,250,0,250,250,500,500,750,750,2,0,1,0,0,0,0,0,0,0,0.25,0.25,0.25,0.25,0.25,0.25,0.25,0.25,linear,0.025,TRUE,25,FALSE,2,NA,NA,5,splines_cal,0.0232,-8.963042427927054e-4,0.0070816092051721,0,10000
7,250,0,250,250,500,500,750,750,2,0,1,0,0,0,0,0,0,0,0.25,0.25,0.25,0.25,0.25,0.25,0.25,0.25,linear,0.025,TRUE,25,FALSE,2,NA,NA,6,fixmodel,0.0249,-2.5014851004098786e-4,0.006964977022230158,0,10000
7,250,0,250,250,500,500,750,750,2,0,1,0,0,0,0,0,0,0,0.25,0.25,0.25,0.25,0.25,0.25,0.25,0.25,linear,0.025,TRUE,25,FALSE,2,NA,NA,6,sepmodel,0.0247,-1.3592809695628765e-4,0.00794545575497022,0,10000
7,250,0,250,250,500,500,750,750,2,0,1,0,0,0,0,0,0,0,0.25,0.25,0.25,0.25,0.25,0.25,0.25,0.25,linear,0.025,TRUE,25,FALSE,2,NA,NA,6,splines,0.0246,-2.720104244306912e-4,0.006945113987664801,0,10000
7,250,0,250,250,500,500,750,750,2,0,1,0,0,0,0,0,0,0,0.25,0.25,0.25,0.25,0.25,0.25,0.25,0.25,linear,0.025,TRUE,25,FALSE,2,NA,NA,6,splines_cal,0.0246,-2.728885130244483e-4,0.006980396310300132,0,10000
7,250,0,250,250,500,500,750,750,2,0,1,0,0,0,0,0,0,0,0.25,0.25,0.25,0.25,0.25,0.25,0.25,0.25,linear,0.025,TRUE,25,FALSE,2,NA,NA,7,fixmodel,0.026,2.2656793851772588e-4,0.00713449176501972,0,10000
7,250,0,250,250,500,500,750,750,2,0,1,0,0,0,0,0,0,0,0.25,0.25,0.25,0.25,0.25,0.25,0.25,0.25,linear,0.025,TRUE,25,FALSE,2,NA,NA,7,sepmodel,0.0242,3.4078835160245604e-4,0.008181047326350043,0,10000
7,250,0,250,250,500,500,750,750,2,0,1,0,0,0,0,0,0,0,0.25,0.25,0.25,0.25,0.25,0.25,0.25,0.25,linear,0.025,TRUE,25,FALSE,2,NA,NA,7,splines,0.0263,2.0947856010544564e-4,0.007111899336862816,0,10000
7,250,0,250,250,500,500,750,750,2,0,1,0,0,0,0,0,0,0,0.25,0.25,0.25,0.25,0.25,0.25,0.25,0.25,linear,0.025,TRUE,25,FALSE,2,NA,NA,7,splines_cal,0.026,2.911788980743645e-4,0.007153354292241455,0,10000
7,250,0,250,250,500,500,750,750,2,0,1,0,0,0,0,0,0,0,0.25,0.25,0.25,0.25,0.25,0.25,0.25,0.25,linear,0.025,TRUE,25,FALSE,3,NA,NA,2,fixmodel,0.0228,-1.154484068224488e-4,0.00729998843416868,0,10000
7,250,0,250,250,500,500,750,750,2,0,1,0,0,0,0,0,0,0,0.25,0.25,0.25,0.25,0.25,0.25,0.25,0.25,linear,0.025,TRUE,25,FALSE,3,NA,NA,2,sepmodel,0.0219,-2.718473116338493e-5,0.007916097443640212,0,10000
7,250,0,250,250,500,500,750,750,2,0,1,0,0,0,0,0,0,0,0.25,0.25,0.25,0.25,0.25,0.25,0.25,0.25,linear,0.025,TRUE,25,FALSE,3,NA,NA,2,splines,0.0216,-2.8197913053800913e-4,0.0072177379587012435,0,10000
7,250,0,250,250,500,500,750,750,2,0,1,0,0,0,0,0,0,0,0.25,0.25,0.25,0.25,0.25,0.25,0.25,0.25,linear,0.025,TRUE,25,FALSE,3,NA,NA,2,splines_cal,0.0226,-7.477400342610299e-5,0.0072869128938142375,0,10000
7,250,0,250,250,500,500,750,750,2,0,1,0,0,0,0,0,0,0,0.25,0.25,0.25,0.25,0.25,0.25,0.25,0.25,linear,0.025,TRUE,25,FALSE,3,NA,NA,3,fixmodel,0.0249,7.494518611795642e-4,0.007375966668352398,0,10000
7,250,0,250,250,500,500,750,750,2,0,1,0,0,0,0,0,0,0,0.25,0.25,0.25,0.25,0.25,0.25,0.25,0.25,linear,0.025,TRUE,25,FALSE,3,NA,NA,3,sepmodel,0.025,8.377155368388346e-4,0.007942987653947143,0,10000
7,250,0,250,250,500,500,750,750,2,0,1,0,0,0,0,0,0,0,0.25,0.25,0.25,0.25,0.25,0.25,0.25,0.25,linear,0.025,TRUE,25,FALSE,3,NA,NA,3,splines,0.0243,5.80537888468227e-4,0.00727742249112021,0,10000
7,250,0,250,250,500,500,750,750,2,0,1,0,0,0,0,0,0,0,0.25,0.25,0.25,0.25,0.25,0.25,0.25,0.25,linear,0.025,TRUE,25,FALSE,3,NA,NA,3,splines_cal,0.0252,7.951222776032444e-4,0.007361578295832545,0,10000
7,250,0,250,250,500,500,750,750,2,0,1,0,0,0,0,0,0,0,0.25,0.25,0.25,0.25,0.25,0.25,0.25,0.25,linear,0.025,TRUE,25,FALSE,3,NA,NA,4,fixmodel,0.0223,-0.0019145187116534703,0.007171590366266619,0,10000
7,250,0,250,250,500,500,750,750,2,0,1,0,0,0,0,0,0,0,0.25,0.25,0.25,0.25,0.25,0.25,0.25,0.25,linear,0.025,TRUE,25,FALSE,3,NA,NA,4,sepmodel,0.025,-0.00145395877501056,0.008141631436847005,0,10000
7,250,0,250,250,500,500,750,750,2,0,1,0,0,0,0,0,0,0,0.25,0.25,0.25,0.25,0.25,0.25,0.25,0.25,linear,0.025,TRUE,25,FALSE,3,NA,NA,4,splines,0.0215,-0.0020359876842912976,0.007129783307355995,0,10000
7,250,0,250,250,500,500,750,750,2,0,1,0,0,0,0,0,0,0,0.25,0.25,0.25,0.25,0.25,0.25,0.25,0.25,linear,0.025,TRUE,25,FALSE,3,NA,NA,4,splines_cal,0.0217,-0.0018079405645471365,0.007149478085452884,0,10000
7,250,0,250,250,500,500,750,750,2,0,1,0,0,0,0,0,0,0,0.25,0.25,0.25,0.25,0.25,0.25,0.25,0.25,linear,0.025,TRUE,25,FALSE,3,NA,NA,5,fixmodel,0.0221,-7.785085296037017e-4,0.007031943642708126,0,10000
7,250,0,250,250,500,500,750,750,2,0,1,0,0,0,0,0,0,0,0.25,0.25,0.25,0.25,0.25,0.25,0.25,0.25,linear,0.025,TRUE,25,FALSE,3,NA,NA,5,sepmodel,0.0224,-3.179485929607928e-4,0.007906624371059864,0,10000
7,250,0,250,250,500,500,750,750,2,0,1,0,0,0,0,0,0,0,0.25,0.25,0.25,0.25,0.25,0.25,0.25,0.25,linear,0.025,TRUE,25,FALSE,3,NA,NA,5,splines,0.0218,-9.011611530973264e-4,0.0069923288762986004,0,10000
7,250,0,250,250,500,500,750,750,2,0,1,0,0,0,0,0,0,0,0.25,0.25,0.25,0.25,0.25,0.25,0.25,0.25,linear,0.025,TRUE,25,FALSE,3,NA,NA,5,splines_cal,0.0221,-6.657008813870021e-4,0.007013199458080321,0,10000
7,250,0,250,250,500,500,750,750,2,0,1,0,0,0,0,0,0,0,0.25,0.25,0.25,0.25,0.25,0.25,0.25,0.25,linear,0.025,TRUE,25,FALSE,3,NA,NA,6,fixmodel,0.0248,3.672599047007543e-4,0.0069997630439707385,0,10000
7,250,0,250,250,500,500,750,750,2,0,1,0,0,0,0,0,0,0,0.25,0.25,0.25,0.25,0.25,0.25,0.25,0.25,linear,0.025,TRUE,25,FALSE,3,NA,NA,6,sepmodel,0.0264,8.157814693597866e-4,0.008057039625829966,0,10000
7,250,0,250,250,500,500,750,750,2,0,1,0,0,0,0,0,0,0,0.25,0.25,0.25,0.25,0.25,0.25,0.25,0.25,linear,0.025,TRUE,25,FALSE,3,NA,NA,6,splines,0.0242,2.9865717940784966e-4,0.00695537784369795,0,10000
