pavlakrotka/MASTERARBEIT/simulations_final/results/results_setting_4_pow.csv
num_arms,n_arm,d1,d2,d3,d4,d5,d6,d7,period_blocks,mu0,sigma,theta1,theta2,theta3,theta4,theta5,theta6,theta7,lambda0,lambda1,lambda2,lambda3,lambda4,lambda5,lambda6,lambda7,trend,alpha,ncc,unit_size,ci,bs_degree,n_wave,N_peak,study_arm,model,reject_h0,bias,MSE,failed,nsim
7,250,0,250,250,500,500,750,750,2,0,1,0.25,0.25,0.25,0.25,0.25,0.25,0.25,-0.5,-0.5,-0.5,-0.5,-0.5,-0.5,-0.5,-0.5,linear,0.025,TRUE,25,FALSE,1,NA,NA,2,fixmodel,0.8214,5.667488364301728e-4,0.007580902374635311,0,10000
7,250,0,250,250,500,500,750,750,2,0,1,0.25,0.25,0.25,0.25,0.25,0.25,0.25,-0.5,-0.5,-0.5,-0.5,-0.5,-0.5,-0.5,-0.5,linear,0.025,TRUE,25,FALSE,1,NA,NA,2,sepmodel,0.7894,9.596544514681346e-4,0.008215906191492837,0,10000
7,250,0,250,250,500,500,750,750,2,0,1,0.25,0.25,0.25,0.25,0.25,0.25,0.25,-0.5,-0.5,-0.5,-0.5,-0.5,-0.5,-0.5,-0.5,linear,0.025,TRUE,25,FALSE,1,NA,NA,2,splines,0.8309,6.29447083756482e-4,0.007410418746738533,0,10000
7,250,0,250,250,500,500,750,750,2,0,1,0.25,0.25,0.25,0.25,0.25,0.25,0.25,-0.5,-0.5,-0.5,-0.5,-0.5,-0.5,-0.5,-0.5,linear,0.025,TRUE,25,FALSE,1,NA,NA,2,splines_cal,0.8246,6.291609906780314e-4,0.0075416896406069085,0,10000
7,250,0,250,250,500,500,750,750,2,0,1,0.25,0.25,0.25,0.25,0.25,0.25,0.25,-0.5,-0.5,-0.5,-0.5,-0.5,-0.5,-0.5,-0.5,linear,0.025,TRUE,25,FALSE,1,NA,NA,3,fixmodel,0.8293,6.747584042490967e-4,0.007415192843837126,0,10000
7,250,0,250,250,500,500,750,750,2,0,1,0.25,0.25,0.25,0.25,0.25,0.25,0.25,-0.5,-0.5,-0.5,-0.5,-0.5,-0.5,-0.5,-0.5,linear,0.025,TRUE,25,FALSE,1,NA,NA,3,sepmodel,0.7987,0.0010676640192853568,0.007971354372647541,0,10000
7,250,0,250,250,500,500,750,750,2,0,1,0.25,0.25,0.25,0.25,0.25,0.25,0.25,-0.5,-0.5,-0.5,-0.5,-0.5,-0.5,-0.5,-0.5,linear,0.025,TRUE,25,FALSE,1,NA,NA,3,splines,0.8353,7.39055708520893e-4,0.007283416420235634,0,10000
7,250,0,250,250,500,500,750,750,2,0,1,0.25,0.25,0.25,0.25,0.25,0.25,0.25,-0.5,-0.5,-0.5,-0.5,-0.5,-0.5,-0.5,-0.5,linear,0.025,TRUE,25,FALSE,1,NA,NA,3,splines_cal,0.8298,7.479494001418805e-4,0.00737459502746831,0,10000
7,250,0,250,250,500,500,750,750,2,0,1,0.25,0.25,0.25,0.25,0.25,0.25,0.25,-0.5,-0.5,-0.5,-0.5,-0.5,-0.5,-0.5,-0.5,linear,0.025,TRUE,25,FALSE,1,NA,NA,4,fixmodel,0.8464,7.061315906949239e-4,0.007006446801920605,0,10000
7,250,0,250,250,500,500,750,750,2,0,1,0.25,0.25,0.25,0.25,0.25,0.25,0.25,-0.5,-0.5,-0.5,-0.5,-0.5,-0.5,-0.5,-0.5,linear,0.025,TRUE,25,FALSE,1,NA,NA,4,sepmodel,0.7998,0.0013511925507211395,0.007971468890889781,0,10000
7,250,0,250,250,500,500,750,750,2,0,1,0.25,0.25,0.25,0.25,0.25,0.25,0.25,-0.5,-0.5,-0.5,-0.5,-0.5,-0.5,-0.5,-0.5,linear,0.025,TRUE,25,FALSE,1,NA,NA,4,splines,0.8479,8.255165226506534e-4,0.006965574900064108,0,10000
7,250,0,250,250,500,500,750,750,2,0,1,0.25,0.25,0.25,0.25,0.25,0.25,0.25,-0.5,-0.5,-0.5,-0.5,-0.5,-0.5,-0.5,-0.5,linear,0.025,TRUE,25,FALSE,1,NA,NA,4,splines_cal,0.85,7.736111648977115e-4,0.006970033506875816,0,10000
7,250,0,250,250,500,500,750,750,2,0,1,0.25,0.25,0.25,0.25,0.25,0.25,0.25,-0.5,-0.5,-0.5,-0.5,-0.5,-0.5,-0.5,-0.5,linear,0.025,TRUE,25,FALSE,1,NA,NA,5,fixmodel,0.8431,1.2573643922174416e-5,0.007115021567749267,0,10000
7,250,0,250,250,500,500,750,750,2,0,1,0.25,0.25,0.25,0.25,0.25,0.25,0.25,-0.5,-0.5,-0.5,-0.5,-0.5,-0.5,-0.5,-0.5,linear,0.025,TRUE,25,FALSE,1,NA,NA,5,sepmodel,0.7949,6.576346039479924e-4,0.008019982606986012,0,10000
7,250,0,250,250,500,500,750,750,2,0,1,0.25,0.25,0.25,0.25,0.25,0.25,0.25,-0.5,-0.5,-0.5,-0.5,-0.5,-0.5,-0.5,-0.5,linear,0.025,TRUE,25,FALSE,1,NA,NA,5,splines,0.8455,1.3271740827381712e-4,0.007073194052937716,0,10000
7,250,0,250,250,500,500,750,750,2,0,1,0.25,0.25,0.25,0.25,0.25,0.25,0.25,-0.5,-0.5,-0.5,-0.5,-0.5,-0.5,-0.5,-0.5,linear,0.025,TRUE,25,FALSE,1,NA,NA,5,splines_cal,0.845,6.910293513858574e-5,0.007098167993094601,0,10000
7,250,0,250,250,500,500,750,750,2,0,1,0.25,0.25,0.25,0.25,0.25,0.25,0.25,-0.5,-0.5,-0.5,-0.5,-0.5,-0.5,-0.5,-0.5,linear,0.025,TRUE,25,FALSE,1,NA,NA,6,fixmodel,0.8483,3.8548578551636335e-4,0.007000968518506532,0,10000
7,250,0,250,250,500,500,750,750,2,0,1,0.25,0.25,0.25,0.25,0.25,0.25,0.25,-0.5,-0.5,-0.5,-0.5,-0.5,-0.5,-0.5,-0.5,linear,0.025,TRUE,25,FALSE,1,NA,NA,6,sepmodel,0.8021,0.0015973630616134937,0.007987253373772043,0,10000
7,250,0,250,250,500,500,750,750,2,0,1,0.25,0.25,0.25,0.25,0.25,0.25,0.25,-0.5,-0.5,-0.5,-0.5,-0.5,-0.5,-0.5,-0.5,linear,0.025,TRUE,25,FALSE,1,NA,NA,6,splines,0.853,4.7499603464154044e-4,0.006955101936449107,0,10000
7,250,0,250,250,500,500,750,750,2,0,1,0.25,0.25,0.25,0.25,0.25,0.25,0.25,-0.5,-0.5,-0.5,-0.5,-0.5,-0.5,-0.5,-0.5,linear,0.025,TRUE,25,FALSE,1,NA,NA,6,splines_cal,0.8496,3.9679598560352243e-4,0.007029750248916444,0,10000
7,250,0,250,250,500,500,750,750,2,0,1,0.25,0.25,0.25,0.25,0.25,0.25,0.25,-0.5,-0.5,-0.5,-0.5,-0.5,-0.5,-0.5,-0.5,linear,0.025,TRUE,25,FALSE,1,NA,NA,7,fixmodel,0.8488,-5.443135184102359e-4,0.006976896787470253,0,10000
7,250,0,250,250,500,500,750,750,2,0,1,0.25,0.25,0.25,0.25,0.25,0.25,0.25,-0.5,-0.5,-0.5,-0.5,-0.5,-0.5,-0.5,-0.5,linear,0.025,TRUE,25,FALSE,1,NA,NA,7,sepmodel,0.7983,6.675637576867453e-4,0.008029331388676533,0,10000
7,250,0,250,250,500,500,750,750,2,0,1,0.25,0.25,0.25,0.25,0.25,0.25,0.25,-0.5,-0.5,-0.5,-0.5,-0.5,-0.5,-0.5,-0.5,linear,0.025,TRUE,25,FALSE,1,NA,NA,7,splines,0.8504,-4.5399789692077825e-4,0.006940027639230182,0,10000
7,250,0,250,250,500,500,750,750,2,0,1,0.25,0.25,0.25,0.25,0.25,0.25,0.25,-0.5,-0.5,-0.5,-0.5,-0.5,-0.5,-0.5,-0.5,linear,0.025,TRUE,25,FALSE,1,NA,NA,7,splines_cal,0.8487,-6.163753932645919e-4,0.006984979192418084,0,10000
7,250,0,250,250,500,500,750,750,2,0,1,0.25,0.25,0.25,0.25,0.25,0.25,0.25,-0.5,-0.5,-0.5,-0.5,-0.5,-0.5,-0.5,-0.5,linear,0.025,TRUE,25,FALSE,2,NA,NA,2,fixmodel,0.827,1.7528854490382747e-4,0.007495685163660454,0,10000
7,250,0,250,250,500,500,750,750,2,0,1,0.25,0.25,0.25,0.25,0.25,0.25,0.25,-0.5,-0.5,-0.5,-0.5,-0.5,-0.5,-0.5,-0.5,linear,0.025,TRUE,25,FALSE,2,NA,NA,2,sepmodel,0.7933,-1.8871499595814713e-4,0.008088378440713138,0,10000
7,250,0,250,250,500,500,750,750,2,0,1,0.25,0.25,0.25,0.25,0.25,0.25,0.25,-0.5,-0.5,-0.5,-0.5,-0.5,-0.5,-0.5,-0.5,linear,0.025,TRUE,25,FALSE,2,NA,NA,2,splines,0.8325,2.1477675833474124e-4,0.007396839802132799,0,10000
7,250,0,250,250,500,500,750,750,2,0,1,0.25,0.25,0.25,0.25,0.25,0.25,0.25,-0.5,-0.5,-0.5,-0.5,-0.5,-0.5,-0.5,-0.5,linear,0.025,TRUE,25,FALSE,2,NA,NA,2,splines_cal,0.8274,9.259409988761513e-5,0.007502281016225255,0,10000
7,250,0,250,250,500,500,750,750,2,0,1,0.25,0.25,0.25,0.25,0.25,0.25,0.25,-0.5,-0.5,-0.5,-0.5,-0.5,-0.5,-0.5,-0.5,linear,0.025,TRUE,25,FALSE,2,NA,NA,3,fixmodel,0.8234,7.029867031211085e-4,0.007367868811582809,0,10000
7,250,0,250,250,500,500,750,750,2,0,1,0.25,0.25,0.25,0.25,0.25,0.25,0.25,-0.5,-0.5,-0.5,-0.5,-0.5,-0.5,-0.5,-0.5,linear,0.025,TRUE,25,FALSE,2,NA,NA,3,sepmodel,0.7927,3.389831622574387e-4,0.007873939150940298,0,10000
7,250,0,250,250,500,500,750,750,2,0,1,0.25,0.25,0.25,0.25,0.25,0.25,0.25,-0.5,-0.5,-0.5,-0.5,-0.5,-0.5,-0.5,-0.5,linear,0.025,TRUE,25,FALSE,2,NA,NA,3,splines,0.832,7.415539055428352e-4,0.007281468555721973,0,10000
7,250,0,250,250,500,500,750,750,2,0,1,0.25,0.25,0.25,0.25,0.25,0.25,0.25,-0.5,-0.5,-0.5,-0.5,-0.5,-0.5,-0.5,-0.5,linear,0.025,TRUE,25,FALSE,2,NA,NA,3,splines_cal,0.8247,6.084375646409127e-4,0.007368542407874434,0,10000
7,250,0,250,250,500,500,750,750,2,0,1,0.25,0.25,0.25,0.25,0.25,0.25,0.25,-0.5,-0.5,-0.5,-0.5,-0.5,-0.5,-0.5,-0.5,linear,0.025,TRUE,25,FALSE,2,NA,NA,4,fixmodel,0.8425,0.0015092654599045423,0.007139666250383882,0,10000
7,250,0,250,250,500,500,750,750,2,0,1,0.25,0.25,0.25,0.25,0.25,0.25,0.25,-0.5,-0.5,-0.5,-0.5,-0.5,-0.5,-0.5,-0.5,linear,0.025,TRUE,25,FALSE,2,NA,NA,4,sepmodel,0.7968,0.001108419646654224,0.007956917302871092,0,10000
7,250,0,250,250,500,500,750,750,2,0,1,0.25,0.25,0.25,0.25,0.25,0.25,0.25,-0.5,-0.5,-0.5,-0.5,-0.5,-0.5,-0.5,-0.5,linear,0.025,TRUE,25,FALSE,2,NA,NA,4,splines,0.8457,0.0014877433186075136,0.0070865815508850865,0,10000
7,250,0,250,250,500,500,750,750,2,0,1,0.25,0.25,0.25,0.25,0.25,0.25,0.25,-0.5,-0.5,-0.5,-0.5,-0.5,-0.5,-0.5,-0.5,linear,0.025,TRUE,25,FALSE,2,NA,NA,4,splines_cal,0.8467,0.0015195104030153585,0.0071241792140458214,0,10000
7,250,0,250,250,500,500,750,750,2,0,1,0.25,0.25,0.25,0.25,0.25,0.25,0.25,-0.5,-0.5,-0.5,-0.5,-0.5,-0.5,-0.5,-0.5,linear,0.025,TRUE,25,FALSE,2,NA,NA,5,fixmodel,0.8395,8.773219081746812e-4,0.007184919573753012,0,10000
7,250,0,250,250,500,500,750,750,2,0,1,0.25,0.25,0.25,0.25,0.25,0.25,0.25,-0.5,-0.5,-0.5,-0.5,-0.5,-0.5,-0.5,-0.5,linear,0.025,TRUE,25,FALSE,2,NA,NA,5,sepmodel,0.7952,4.764760949239981e-4,0.007975291455976474,0,10000
7,250,0,250,250,500,500,750,750,2,0,1,0.25,0.25,0.25,0.25,0.25,0.25,0.25,-0.5,-0.5,-0.5,-0.5,-0.5,-0.5,-0.5,-0.5,linear,0.025,TRUE,25,FALSE,2,NA,NA,5,splines,0.8408,8.573315426111215e-4,0.007128728143112982,0,10000
7,250,0,250,250,500,500,750,750,2,0,1,0.25,0.25,0.25,0.25,0.25,0.25,0.25,-0.5,-0.5,-0.5,-0.5,-0.5,-0.5,-0.5,-0.5,linear,0.025,TRUE,25,FALSE,2,NA,NA,5,splines_cal,0.8399,8.365914022384626e-4,0.007146191149523888,0,10000
7,250,0,250,250,500,500,750,750,2,0,1,0.25,0.25,0.25,0.25,0.25,0.25,0.25,-0.5,-0.5,-0.5,-0.5,-0.5,-0.5,-0.5,-0.5,linear,0.025,TRUE,25,FALSE,2,NA,NA,6,fixmodel,0.8459,1.3331656225880852e-4,0.007002373251371484,0,10000
7,250,0,250,250,500,500,750,750,2,0,1,0.25,0.25,0.25,0.25,0.25,0.25,0.25,-0.5,-0.5,-0.5,-0.5,-0.5,-0.5,-0.5,-0.5,linear,0.025,TRUE,25,FALSE,2,NA,NA,6,sepmodel,0.7942,-4.2228649780551315e-5,0.00796048168590715,0,10000
7,250,0,250,250,500,500,750,750,2,0,1,0.25,0.25,0.25,0.25,0.25,0.25,0.25,-0.5,-0.5,-0.5,-0.5,-0.5,-0.5,-0.5,-0.5,linear,0.025,TRUE,25,FALSE,2,NA,NA,6,splines,0.8492,1.0992924311722873e-4,0.006966836126384291,0,10000
7,250,0,250,250,500,500,750,750,2,0,1,0.25,0.25,0.25,0.25,0.25,0.25,0.25,-0.5,-0.5,-0.5,-0.5,-0.5,-0.5,-0.5,-0.5,linear,0.025,TRUE,25,FALSE,2,NA,NA,6,splines_cal,0.8452,1.286120145472409e-4,0.00703177682080275,0,10000
7,250,0,250,250,500,500,750,750,2,0,1,0.25,0.25,0.25,0.25,0.25,0.25,0.25,-0.5,-0.5,-0.5,-0.5,-0.5,-0.5,-0.5,-0.5,linear,0.025,TRUE,25,FALSE,2,NA,NA,7,fixmodel,0.8549,9.977595403139758e-4,0.006937259322377201,0,10000
7,250,0,250,250,500,500,750,750,2,0,1,0.25,0.25,0.25,0.25,0.25,0.25,0.25,-0.5,-0.5,-0.5,-0.5,-0.5,-0.5,-0.5,-0.5,linear,0.025,TRUE,25,FALSE,2,NA,NA,7,sepmodel,0.7996,8.22214328274535e-4,0.00788060692665414,0,10000
7,250,0,250,250,500,500,750,750,2,0,1,0.25,0.25,0.25,0.25,0.25,0.25,0.25,-0.5,-0.5,-0.5,-0.5,-0.5,-0.5,-0.5,-0.5,linear,0.025,TRUE,25,FALSE,2,NA,NA,7,splines,0.8566,9.775085898039036e-4,0.006889775084431391,0,10000
7,250,0,250,250,500,500,750,750,2,0,1,0.25,0.25,0.25,0.25,0.25,0.25,0.25,-0.5,-0.5,-0.5,-0.5,-0.5,-0.5,-0.5,-0.5,linear,0.025,TRUE,25,FALSE,2,NA,NA,7,splines_cal,0.8559,9.813596858645225e-4,0.006958435520887782,0,10000
7,250,0,250,250,500,500,750,750,2,0,1,0.25,0.25,0.25,0.25,0.25,0.25,0.25,-0.5,-0.5,-0.5,-0.5,-0.5,-0.5,-0.5,-0.5,linear,0.025,TRUE,25,FALSE,3,NA,NA,2,fixmodel,0.8247,-2.289733963391618e-4,0.007401795690262765,0,10000
7,250,0,250,250,500,500,750,750,2,0,1,0.25,0.25,0.25,0.25,0.25,0.25,0.25,-0.5,-0.5,-0.5,-0.5,-0.5,-0.5,-0.5,-0.5,linear,0.025,TRUE,25,FALSE,3,NA,NA,2,sepmodel,0.7929,-8.620787125830676e-5,0.008072575033448662,0,10000
7,250,0,250,250,500,500,750,750,2,0,1,0.25,0.25,0.25,0.25,0.25,0.25,0.25,-0.5,-0.5,-0.5,-0.5,-0.5,-0.5,-0.5,-0.5,linear,0.025,TRUE,25,FALSE,3,NA,NA,2,splines,0.8299,-2.56636701701093e-4,0.007282428848586246,0,10000
7,250,0,250,250,500,500,750,750,2,0,1,0.25,0.25,0.25,0.25,0.25,0.25,0.25,-0.5,-0.5,-0.5,-0.5,-0.5,-0.5,-0.5,-0.5,linear,0.025,TRUE,25,FALSE,3,NA,NA,2,splines_cal,0.8266,-3.251854545460611e-4,0.007355716867855653,0,10000
7,250,0,250,250,500,500,750,750,2,0,1,0.25,0.25,0.25,0.25,0.25,0.25,0.25,-0.5,-0.5,-0.5,-0.5,-0.5,-0.5,-0.5,-0.5,linear,0.025,TRUE,25,FALSE,3,NA,NA,3,fixmodel,0.8226,-0.0011391475580206341,0.007458854478987248,0,10000
7,250,0,250,250,500,500,750,750,2,0,1,0.25,0.25,0.25,0.25,0.25,0.25,0.25,-0.5,-0.5,-0.5,-0.5,-0.5,-0.5,-0.5,-0.5,linear,0.025,TRUE,25,FALSE,3,NA,NA,3,sepmodel,0.7912,-9.963820329413947e-4,0.008115537451198291,0,10000
7,250,0,250,250,500,500,750,750,2,0,1,0.25,0.25,0.25,0.25,0.25,0.25,0.25,-0.5,-0.5,-0.5,-0.5,-0.5,-0.5,-0.5,-0.5,linear,0.025,TRUE,25,FALSE,3,NA,NA,3,splines,0.8258,-0.0011681537575989472,0.007358706464110906,0,10000
7,250,0,250,250,500,500,750,750,2,0,1,0.25,0.25,0.25,0.25,0.25,0.25,0.25,-0.5,-0.5,-0.5,-0.5,-0.5,-0.5,-0.5,-0.5,linear,0.025,TRUE,25,FALSE,3,NA,NA,3,splines_cal,0.8251,-0.0012249402676775445,0.00743555346547613,0,10000
7,250,0,250,250,500,500,750,750,2,0,1,0.25,0.25,0.25,0.25,0.25,0.25,0.25,-0.5,-0.5,-0.5,-0.5,-0.5,-0.5,-0.5,-0.5,linear,0.025,TRUE,25,FALSE,3,NA,NA,4,fixmodel,0.8372,5.949249519237151e-4,0.007360557919391832,0,10000
7,250,0,250,250,500,500,750,750,2,0,1,0.25,0.25,0.25,0.25,0.25,0.25,0.25,-0.5,-0.5,-0.5,-0.5,-0.5,-0.5,-0.5,-0.5,linear,0.025,TRUE,25,FALSE,3,NA,NA,4,sepmodel,0.7967,8.566355909047181e-4,0.008191690110505082,0,10000
7,250,0,250,250,500,500,750,750,2,0,1,0.25,0.25,0.25,0.25,0.25,0.25,0.25,-0.5,-0.5,-0.5,-0.5,-0.5,-0.5,-0.5,-0.5,linear,0.025,TRUE,25,FALSE,3,NA,NA,4,splines,0.8414,6.567576357987765e-4,0.007303065553086107,0,10000
7,250,0,250,250,500,500,750,750,2,0,1,0.25,0.25,0.25,0.25,0.25,0.25,0.25,-0.5,-0.5,-0.5,-0.5,-0.5,-0.5,-0.5,-0.5,linear,0.025,TRUE,25,FALSE,3,NA,NA,4,splines_cal,0.8382,5.432515302223847e-4,0.007342516397927107,0,10000
7,250,0,250,250,500,500,750,750,2,0,1,0.25,0.25,0.25,0.25,0.25,0.25,0.25,-0.5,-0.5,-0.5,-0.5,-0.5,-0.5,-0.5,-0.5,linear,0.025,TRUE,25,FALSE,3,NA,NA,5,fixmodel,0.8405,8.295213469237873e-6,0.007014307879952919,0,10000
7,250,0,250,250,500,500,750,750,2,0,1,0.25,0.25,0.25,0.25,0.25,0.25,0.25,-0.5,-0.5,-0.5,-0.5,-0.5,-0.5,-0.5,-0.5,linear,0.025,TRUE,25,FALSE,3,NA,NA,5,sepmodel,0.7952,2.7000585244992936e-4,0.0078881941077396291,0,10000
7,250,0,250,250,500,500,750,750,2,0,1,0.25,0.25,0.25,0.25,0.25,0.25,0.25,-0.5,-0.5,-0.5,-0.5,-0.5,-0.5,-0.5,-0.5,linear,0.025,TRUE,25,FALSE,3,NA,NA,5,splines,0.8443,6.680686592400642e-5,0.00696157668480636,0,10000
7,250,0,250,250,500,500,750,750,2,0,1,0.25,0.25,0.25,0.25,0.25,0.25,0.25,-0.5,-0.5,-0.5,-0.5,-0.5,-0.5,-0.5,-0.5,linear,0.025,TRUE,25,FALSE,3,NA,NA,5,splines_cal,0.8438,-9.404716005427627e-5,0.006990490778749572,0,10000
7,250,0,250,250,500,500,750,750,2,0,1,0.25,0.25,0.25,0.25,0.25,0.25,0.25,-0.5,-0.5,-0.5,-0.5,-0.5,-0.5,-0.5,-0.5,linear,0.025,TRUE,25,FALSE,3,NA,NA,6,fixmodel,0.8463,0.001478180313561291,0.007168834539351008,0,10000
7,250,0,250,250,500,500,750,750,2,0,1,0.25,0.25,0.25,0.25,0.25,0.25,0.25,-0.5,-0.5,-0.5,-0.5,-0.5,-0.5,-0.5,-0.5,linear,0.025,TRUE,25,FALSE,3,NA,NA,6,sepmodel,0.7961,0.0017032912283055257,0.008118641387301409,0,10000
7,250,0,250,250,500,500,750,750,2,0,1,0.25,0.25,0.25,0.25,0.25,0.25,0.25,-0.5,-0.5,-0.5,-0.5,-0.5,-0.5,-0.5,-0.5,linear,0.025,TRUE,25,FALSE,3,NA,NA,6,splines,0.85,0.0014825539159004902,0.007123040761534116,0,10000
7,250,0,250,250,500,500,750,750,2,0,1,0.25,0.25,0.25,0.25,0.25,0.25,0.25,-0.5,-0.5,-0.5,-0.5,-0.5,-0.5,-0.5,-0.5,linear,0.025,TRUE,25,FALSE,3,NA,NA,6,splines_cal,0.844,0.0014031069635617184,0.007188241475681526,0,10000
7,250,0,250,250,500,500,750,750,2,0,1,0.25,0.25,0.25,0.25,0.25,0.25,0.25,-0.5,-0.5,-0.5,-0.5,-0.5,-0.5,-0.5,-0.5,linear,0.025,TRUE,25,FALSE,3,NA,NA,7,fixmodel,0.8501,8.169106364457228e-4,0.007154855833669968,0,10000
7,250,0,250,250,500,500,750,750,2,0,1,0.25,0.25,0.25,0.25,0.25,0.25,0.25,-0.5,-0.5,-0.5,-0.5,-0.5,-0.5,-0.5,-0.5,linear,0.025,TRUE,25,FALSE,3,NA,NA,7,sepmodel,0.7985,0.0010420215511898364,0.008065042754995515,0,10000
7,250,0,250,250,500,500,750,750,2,0,1,0.25,0.25,0.25,0.25,0.25,0.25,0.25,-0.5,-0.5,-0.5,-0.5,-0.5,-0.5,-0.5,-0.5,linear,0.025,TRUE,25,FALSE,3,NA,NA,7,splines,0.8521,8.24685709801965e-4,0.007113047260848045,0,10000
7,250,0,250,250,500,500,750,750,2,0,1,0.25,0.25,0.25,0.25,0.25,0.25,0.25,-0.5,-0.5,-0.5,-0.5,-0.5,-0.5,-0.5,-0.5,linear,0.025,TRUE,25,FALSE,3,NA,NA,7,splines_cal,0.8478,8.071992962475219e-4,0.007177071002282931,0,10000
7,250,0,250,250,500,500,750,750,2,0,1,0.25,0.25,0.25,0.25,0.25,0.25,0.25,-0.5,-0.5,-0.5,-0.5,-0.5,-0.5,-0.5,-0.5,linear,0.025,TRUE,50,FALSE,1,NA,NA,2,fixmodel,0.8199,3.69613796456583e-5,0.0076215422478178065,0,10000
7,250,0,250,250,500,500,750,750,2,0,1,0.25,0.25,0.25,0.25,0.25,0.25,0.25,-0.5,-0.5,-0.5,-0.5,-0.5,-0.5,-0.5,-0.5,linear,0.025,TRUE,50,FALSE,1,NA,NA,2,sepmodel,0.7913,3.4256519911084085e-4,0.008192242968530236,0,10000
7,250,0,250,250,500,500,750,750,2,0,1,0.25,0.25,0.25,0.25,0.25,0.25,0.25,-0.5,-0.5,-0.5,-0.5,-0.5,-0.5,-0.5,-0.5,linear,0.025,TRUE,50,FALSE,1,NA,NA,2,splines,0.828,7.952895264121345e-5,0.007458677671809322,0,10000
7,250,0,250,250,500,500,750,750,2,0,1,0.25,0.25,0.25,0.25,0.25,0.25,0.25,-0.5,-0.5,-0.5,-0.5,-0.5,-0.5,-0.5,-0.5,linear,0.025,TRUE,50,FALSE,1,NA,NA,2,splines_cal,0.8252,9.37110869501314e-5,0.007555925082657356,0,10000
7,250,0,250,250,500,500,750,750,2,0,1,0.25,0.25,0.25,0.25,0.25,0.25,0.25,-0.5,-0.5,-0.5,-0.5,-0.5,-0.5,-0.5,-0.5,linear,0.025,TRUE,50,FALSE,1,NA,NA,3,fixmodel,0.8227,1.929291492708074e-4,0.00766835043942592,0,10000
7,250,0,250,250,500,500,750,750,2,0,1,0.25,0.25,0.25,0.25,0.25,0.25,0.25,-0.5,-0.5,-0.5,-0.5,-0.5,-0.5,-0.5,-0.5,linear,0.025,TRUE,50,FALSE,1,NA,NA,3,sepmodel,0.7952,4.985329687343074e-4,0.008208577411979761,0,10000
7,250,0,250,250,500,500,750,750,2,0,1,0.25,0.25,0.25,0.25,0.25,0.25,0.25,-0.5,-0.5,-0.5,-0.5,-0.5,-0.5,-0.5,-0.5,linear,0.025,TRUE,50,FALSE,1,NA,NA,3,splines,0.8316,2.3781397335328016e-4,0.007486288956019521,0,10000
7,250,0,250,250,500,500,750,750,2,0,1,0.25,0.25,0.25,0.25,0.25,0.25,0.25,-0.5,-0.5,-0.5,-0.5,-0.5,-0.5,-0.5,-0.5,linear,0.025,TRUE,50,FALSE,1,NA,NA,3,splines_cal,0.8251,2.7392541242371996e-4,0.007600718249255461,0,10000
7,250,0,250,250,500,500,750,750,2,0,1,0.25,0.25,0.25,0.25,0.25,0.25,0.25,-0.5,-0.5,-0.5,-0.5,-0.5,-0.5,-0.5,-0.5,linear,0.025,TRUE,50,FALSE,1,NA,NA,4,fixmodel,0.837,-6.055546758697724e-4,0.007242016542004615,0,10000
7,250,0,250,250,500,500,750,750,2,0,1,0.25,0.25,0.25,0.25,0.25,0.25,0.25,-0.5,-0.5,-0.5,-0.5,-0.5,-0.5,-0.5,-0.5,linear,0.025,TRUE,50,FALSE,1,NA,NA,4,sepmodel,0.7911,-1.3506412411557435e-4,0.008155110627670369,0,10000
7,250,0,250,250,500,500,750,750,2,0,1,0.25,0.25,0.25,0.25,0.25,0.25,0.25,-0.5,-0.5,-0.5,-0.5,-0.5,-0.5,-0.5,-0.5,linear,0.025,TRUE,50,FALSE,1,NA,NA,4,splines,0.8418,-6.203029898218528e-4,0.007177348019877744,0,10000
7,250,0,250,250,500,500,750,750,2,0,1,0.25,0.25,0.25,0.25,0.25,0.25,0.25,-0.5,-0.5,-0.5,-0.5,-0.5,-0.5,-0.5,-0.5,linear,0.025,TRUE,50,FALSE,1,NA,NA,4,splines_cal,0.8443,-7.416507737165655e-4,0.007111312776245453,0,10000
7,250,0,250,250,500,500,750,750,2,0,1,0.25,0.25,0.25,0.25,0.25,0.25,0.25,-0.5,-0.5,-0.5,-0.5,-0.5,-0.5,-0.5,-0.5,linear,0.025,TRUE,50,FALSE,1,NA,NA,5,fixmodel,0.8355,-7.297330712250977e-4,0.007369773027855445,0,10000
7,250,0,250,250,500,500,750,750,2,0,1,0.25,0.25,0.25,0.25,0.25,0.25,0.25,-0.5,-0.5,-0.5,-0.5,-0.5,-0.5,-0.5,-0.5,linear,0.025,TRUE,50,FALSE,1,NA,NA,5,sepmodel,0.7916,-2.592425194712492e-4,0.008221848303522896,0,10000
7,250,0,250,250,500,500,750,750,2,0,1,0.25,0.25,0.25,0.25,0.25,0.25,0.25,-0.5,-0.5,-0.5,-0.5,-0.5,-0.5,-0.5,-0.5,linear,0.025,TRUE,50,FALSE,1,NA,NA,5,splines,0.8394,-7.476508320257036e-4,0.007296022104791235,0,10000
7,250,0,250,250,500,500,750,750,2,0,1,0.25,0.25,0.25,0.25,0.25,0.25,0.25,-0.5,-0.5,-0.5,-0.5,-0.5,-0.5,-0.5,-0.5,linear,0.025,TRUE,50,FALSE,1,NA,NA,5,splines_cal,0.8402,-8.790552568732376e-4,0.007266771558382443,0,10000
7,250,0,250,250,500,500,750,750,2,0,1,0.25,0.25,0.25,0.25,0.25,0.25,0.25,-0.5,-0.5,-0.5,-0.5,-0.5,-0.5,-0.5,-0.5,linear,0.025,TRUE,50,FALSE,1,NA,NA,6,fixmodel,0.8424,-8.823014233634904e-4,0.007190640284565125,0,10000
7,250,0,250,250,500,500,750,750,2,0,1,0.25,0.25,0.25,0.25,0.25,0.25,0.25,-0.5,-0.5,-0.5,-0.5,-0.5,-0.5,-0.5,-0.5,linear,0.025,TRUE,50,FALSE,1,NA,NA,6,sepmodel,0.7882,-4.902165043415834e-4,0.008198560362985307,0,10000
7,250,0,250,250,500,500,750,750,2,0,1,0.25,0.25,0.25,0.25,0.25,0.25,0.25,-0.5,-0.5,-0.5,-0.5,-0.5,-0.5,-0.5,-0.5,linear,0.025,TRUE,50,FALSE,1,NA,NA,6,splines,0.8438,-8.356835438746269e-4,0.007130452156562763,0,10000
7,250,0,250,250,500,500,750,750,2,0,1,0.25,0.25,0.25,0.25,0.25,0.25,0.25,-0.5,-0.5,-0.5,-0.5,-0.5,-0.5,-0.5,-0.5,linear,0.025,TRUE,50,FALSE,1,NA,NA,6,splines_cal,0.843,-8.925351252340569e-4,0.007170999442038825,0,10000
7,250,0,250,250,500,500,750,750,2,0,1,0.25,0.25,0.25,0.25,0.25,0.25,0.25,-0.5,-0.5,-0.5,-0.5,-0.5,-0.5,-0.5,-0.5,linear,0.025,TRUE,50,FALSE,1,NA,NA,7,fixmodel,0.8486,-8.182851230253557e-4,0.006998820246216537,0,10000
7,250,0,250,250,500,500,750,750,2,0,1,0.25,0.25,0.25,0.25,0.25,0.25,0.25,-0.5,-0.5,-0.5,-0.5,-0.5,-0.5,-0.5,-0.5,linear,0.025,TRUE,50,FALSE,1,NA,NA,7,sepmodel,0.7953,-4.2620020400359625e-4,0.008006402251394158,0,10000
7,250,0,250,250,500,500,750,750,2,0,1,0.25,0.25,0.25,0.25,0.25,0.25,0.25,-0.5,-0.5,-0.5,-0.5,-0.5,-0.5,-0.5,-0.5,linear,0.025,TRUE,50,FALSE,1,NA,NA,7,splines,0.8498,-7.709733667016209e-4,0.006930787318427081,0,10000
7,250,0,250,250,500,500,750,750,2,0,1,0.25,0.25,0.25,0.25,0.25,0.25,0.25,-0.5,-0.5,-0.5,-0.5,-0.5,-0.5,-0.5,-0.5,linear,0.025,TRUE,50,FALSE,1,NA,NA,7,splines_cal,0.8484,-8.379048242881592e-4,0.006980003108255406,0,10000
7,250,0,250,250,500,500,750,750,2,0,1,0.25,0.25,0.25,0.25,0.25,0.25,0.25,-0.5,-0.5,-0.5,-0.5,-0.5,-0.5,-0.5,-0.5,linear,0.025,TRUE,50,FALSE,2,NA,NA,2,fixmodel,0.8283,3.173520981657906e-4,0.007360811593827424,0,10000
7,250,0,250,250,500,500,750,750,2,0,1,0.25,0.25,0.25,0.25,0.25,0.25,0.25,-0.5,-0.5,-0.5,-0.5,-0.5,-0.5,-0.5,-0.5,linear,0.025,TRUE,50,FALSE,2,NA,NA,2,sepmodel,0.7979,5.036080625573886e-4,0.007883720668370293,0,10000
7,250,0,250,250,500,500,750,750,2,0,1,0.25,0.25,0.25,0.25,0.25,0.25,0.25,-0.5,-0.5,-0.5,-0.5,-0.5,-0.5,-0.5,-0.5,linear,0.025,TRUE,50,FALSE,2,NA,NA,2,splines,0.8324,3.9973243280533484e-4,0.007285116227639798,0,10000
7,250,0,250,250,500,500,750,750,2,0,1,0.25,0.25,0.25,0.25,0.25,0.25,0.25,-0.5,-0.5,-0.5,-0.5,-0.5,-0.5,-0.5,-0.5,linear,0.025,TRUE,50,FALSE,2,NA,NA,2,splines_cal,0.8318,2.6479179821765756e-4,0.007336805093422158,0,10000
7,250,0,250,250,500,500,750,750,2,0,1,0.25,0.25,0.25,0.25,0.25,0.25,0.25,-0.5,-0.5,-0.5,-0.5,-0.5,-0.5,-0.5,-0.5,linear,0.025,TRUE,50,FALSE,2,NA,NA,3,fixmodel,0.8276,2.039340652439877e-5,0.007332162984059914,0,10000
7,250,0,250,250,500,500,750,750,2,0,1,0.25,0.25,0.25,0.25,0.25,0.25,0.25,-0.5,-0.5,-0.5,-0.5,-0.5,-0.5,-0.5,-0.5,linear,0.025,TRUE,50,FALSE,2,NA,NA,3,sepmodel,0.8002,2.066493709143576e-4,0.007847894041501878,0,10000
7,250,0,250,250,500,500,750,750,2,0,1,0.25,0.25,0.25,0.25,0.25,0.25,0.25,-0.5,-0.5,-0.5,-0.5,-0.5,-0.5,-0.5,-0.5,linear,0.025,TRUE,50,FALSE,2,NA,NA,3,splines,0.8328,1.0228333500629984e-4,0.0072554467034030715,0,10000
7,250,0,250,250,500,500,750,750,2,0,1,0.25,0.25,0.25,0.25,0.25,0.25,0.25,-0.5,-0.5,-0.5,-0.5,-0.5,-0.5,-0.5,-0.5,linear,0.025,TRUE,50,FALSE,2,NA,NA,3,splines_cal,0.8313,-4.879378459162353e-5,0.00729709539288709,0,10000
7,250,0,250,250,500,500,750,750,2,0,1,0.25,0.25,0.25,0.25,0.25,0.25,0.25,-0.5,-0.5,-0.5,-0.5,-0.5,-0.5,-0.5,-0.5,linear,0.025,TRUE,50,FALSE,2,NA,NA,4,fixmodel,0.8412,8.117493945168376e-4,0.007098905718556513,0,10000
7,250,0,250,250,500,500,750,750,2,0,1,0.25,0.25,0.25,0.25,0.25,0.25,0.25,-0.5,-0.5,-0.5,-0.5,-0.5,-0.5,-0.5,-0.5,linear,0.025,TRUE,50,FALSE,2,NA,NA,4,sepmodel,0.7997,0.0012634936826753746,0.007852480318339489,0,10000
7,250,0,250,250,500,500,750,750,2,0,1,0.25,0.25,0.25,0.25,0.25,0.25,0.25,-0.5,-0.5,-0.5,-0.5,-0.5,-0.5,-0.5,-0.5,linear,0.025,TRUE,50,FALSE,2,NA,NA,4,splines,0.8429,7.448397338332039e-4,0.007032101105655173,0,10000
7,250,0,250,250,500,500,750,750,2,0,1,0.25,0.25,0.25,0.25,0.25,0.25,0.25,-0.5,-0.5,-0.5,-0.5,-0.5,-0.5,-0.5,-0.5,linear,0.025,TRUE,50,FALSE,2,NA,NA,4,splines_cal,0.8449,8.072182156669916e-4,0.007029532763616789,0,10000
7,250,0,250,250,500,500,750,750,2,0,1,0.25,0.25,0.25,0.25,0.25,0.25,0.25,-0.5,-0.5,-0.5,-0.5,-0.5,-0.5,-0.5,-0.5,linear,0.025,TRUE,50,FALSE,2,NA,NA,5,fixmodel,0.8418,6.106618247456901e-4,0.007187093050054579,0,10000
7,250,0,250,250,500,500,750,750,2,0,1,0.25,0.25,0.25,0.25,0.25,0.25,0.25,-0.5,-0.5,-0.5,-0.5,-0.5,-0.5,-0.5,-0.5,linear,0.025,TRUE,50,FALSE,2,NA,NA,5,sepmodel,0.7967,0.001062406112903805,0.00796143702303481,0,10000
7,250,0,250,250,500,500,750,750,2,0,1,0.25,0.25,0.25,0.25,0.25,0.25,0.25,-0.5,-0.5,-0.5,-0.5,-0.5,-0.5,-0.5,-0.5,linear,0.025,TRUE,50,FALSE,2,NA,NA,5,splines,0.8447,5.446642424317921e-4,0.007121282735419609,0,10000
7,250,0,250,250,500,500,750,750,2,0,1,0.25,0.25,0.25,0.25,0.25,0.25,0.25,-0.5,-0.5,-0.5,-0.5,-0.5,-0.5,-0.5,-0.5,linear,0.025,TRUE,50,FALSE,2,NA,NA,5,splines_cal,0.8446,6.587715297192602e-4,0.007107973533886241,0,10000
7,250,0,250,250,500,500,750,750,2,0,1,0.25,0.25,0.25,0.25,0.25,0.25,0.25,-0.5,-0.5,-0.5,-0.5,-0.5,-0.5,-0.5,-0.5,linear,0.025,TRUE,50,FALSE,2,NA,NA,6,fixmodel,0.8494,4.7293960337133246e-4,0.007256526905500638,0,10000
7,250,0,250,250,500,500,750,750,2,0,1,0.25,0.25,0.25,0.25,0.25,0.25,0.25,-0.5,-0.5,-0.5,-0.5,-0.5,-0.5,-0.5,-0.5,linear,0.025,TRUE,50,FALSE,2,NA,NA,6,sepmodel,0.7923,8.083133964627115e-4,0.008176066582199444,0,10000
7,250,0,250,250,500,500,750,750,2,0,1,0.25,0.25,0.25,0.25,0.25,0.25,0.25,-0.5,-0.5,-0.5,-0.5,-0.5,-0.5,-0.5,-0.5,linear,0.025,TRUE,50,FALSE,2,NA,NA,6,splines,0.8492,4.601404132657435e-4,0.007211238287766465,0,10000
7,250,0,250,250,500,500,750,750,2,0,1,0.25,0.25,0.25,0.25,0.25,0.25,0.25,-0.5,-0.5,-0.5,-0.5,-0.5,-0.5,-0.5,-0.5,linear,0.025,TRUE,50,FALSE,2,NA,NA,6,splines_cal,0.8489,4.5860978691677557e-4,0.00724192038869577,0,10000
7,250,0,250,250,500,500,750,750,2,0,1,0.25,0.25,0.25,0.25,0.25,0.25,0.25,-0.5,-0.5,-0.5,-0.5,-0.5,-0.5,-0.5,-0.5,linear,0.025,TRUE,50,FALSE,2,NA,NA,7,fixmodel,0.8484,2.87992218889936e-4,0.007061279338672265,0,10000
7,250,0,250,250,500,500,750,750,2,0,1,0.25,0.25,0.25,0.25,0.25,0.25,0.25,-0.5,-0.5,-0.5,-0.5,-0.5,-0.5,-0.5,-0.5,linear,0.025,TRUE,50,FALSE,2,NA,NA,7,sepmodel,0.7973,6.233660119811594e-4,0.008004226392538906,0,10000
7,250,0,250,250,500,500,750,750,2,0,1,0.25,0.25,0.25,0.25,0.25,0.25,0.25,-0.5,-0.5,-0.5,-0.5,-0.5,-0.5,-0.5,-0.5,linear,0.025,TRUE,50,FALSE,2,NA,NA,7,splines,0.8502,2.699396095961827e-4,0.0070188588357679976,0,10000
7,250,0,250,250,500,500,750,750,2,0,1,0.25,0.25,0.25,0.25,0.25,0.25,0.25,-0.5,-0.5,-0.5,-0.5,-0.5,-0.5,-0.5,-0.5,linear,0.025,TRUE,50,FALSE,2,NA,NA,7,splines_cal,0.848,2.966311857102005e-4,0.007054802790226443,0,10000
7,250,0,250,250,500,500,750,750,2,0,1,0.25,0.25,0.25,0.25,0.25,0.25,0.25,-0.5,-0.5,-0.5,-0.5,-0.5,-0.5,-0.5,-0.5,linear,0.025,TRUE,50,FALSE,3,NA,NA,2,fixmodel,0.8296,3.1222075200089443e-4,0.007433374528624473,0,10000
7,250,0,250,250,500,500,750,750,2,0,1,0.25,0.25,0.25,0.25,0.25,0.25,0.25,-0.5,-0.5,-0.5,-0.5,-0.5,-0.5,-0.5,-0.5,linear,0.025,TRUE,50,FALSE,3,NA,NA,2,sepmodel,0.8,3.589604199913324e-4,0.008024547855369917,0,10000
7,250,0,250,250,500,500,750,750,2,0,1,0.25,0.25,0.25,0.25,0.25,0.25,0.25,-0.5,-0.5,-0.5,-0.5,-0.5,-0.5,-0.5,-0.5,linear,0.025,TRUE,50,FALSE,3,NA,NA,2,splines,0.8342,3.115576025417306e-4,0.007358016018471573,0,10000
7,250,0,250,250,500,500,750,750,2,0,1,0.25,0.25,0.25,0.25,0.25,0.25,0.25,-0.5,-0.5,-0.5,-0.5,-0.5,-0.5,-0.5,-0.5,linear,0.025,TRUE,50,FALSE,3,NA,NA,2,splines_cal,0.8298,3.2234780911365163e-4,0.007379176516303478,0,10000
7,250,0,250,250,500,500,750,750,2,0,1,0.25,0.25,0.25,0.25,0.25,0.25,0.25,-0.5,-0.5,-0.5,-0.5,-0.5,-0.5,-0.5,-0.5,linear,0.025,TRUE,50,FALSE,3,NA,NA,3,fixmodel,0.8331,0.00126887546706706,0.007274774120498946,0,10000
7,250,0,250,250,500,500,750,750,2,0,1,0.25,0.25,0.25,0.25,0.25,0.25,0.25,-0.5,-0.5,-0.5,-0.5,-0.5,-0.5,-0.5,-0.5,linear,0.025,TRUE,50,FALSE,3,NA,NA,3,sepmodel,0.8015,0.0013156151350559077,0.0077846733488675926,0,10000
7,250,0,250,250,500,500,750,750,2,0,1,0.25,0.25,0.25,0.25,0.25,0.25,0.25,-0.5,-0.5,-0.5,-0.5,-0.5,-0.5,-0.5,-0.5,linear,0.025,TRUE,50,FALSE,3,NA,NA,3,splines,0.8359,0.001267208183274318,0.007208352623667945,0,10000
7,250,0,250,250,500,500,750,750,2,0,1,0.25,0.25,0.25,0.25,0.25,0.25,0.25,-0.5,-0.5,-0.5,-0.5,-0.5,-0.5,-0.5,-0.5,linear,0.025,TRUE,50,FALSE,3,NA,NA,3,splines_cal,0.8356,0.0013055202589550285,0.007226674966575322,0,10000
7,250,0,250,250,500,500,750,750,2,0,1,0.25,0.25,0.25,0.25,0.25,0.25,0.25,-0.5,-0.5,-0.5,-0.5,-0.5,-0.5,-0.5,-0.5,linear,0.025,TRUE,50,FALSE,3,NA,NA,4,fixmodel,0.8391,-1.3082920150304426e-4,0.007136911833244396,0,10000
7,250,0,250,250,500,500,750,750,2,0,1,0.25,0.25,0.25,0.25,0.25,0.25,0.25,-0.5,-0.5,-0.5,-0.5,-0.5,-0.5,-0.5,-0.5,linear,0.025,TRUE,50,FALSE,3,NA,NA,4,sepmodel,0.7904,-2.3372975548259885e-4,0.007988305065032793,0,10000
7,250,0,250,250,500,500,750,750,2,0,1,0.25,0.25,0.25,0.25,0.25,0.25,0.25,-0.5,-0.5,-0.5,-0.5,-0.5,-0.5,-0.5,-0.5,linear,0.025,TRUE,50,FALSE,3,NA,NA,4,splines,0.842,-1.6015361995768378e-4,0.007071737760970101,0,10000
7,250,0,250,250,500,500,750,750,2,0,1,0.25,0.25,0.25,0.25,0.25,0.25,0.25,-0.5,-0.5,-0.5,-0.5,-0.5,-0.5,-0.5,-0.5,linear,0.025,TRUE,50,FALSE,3,NA,NA,4,splines_cal,0.841,-2.360632252822595e-4,0.007054940744890573,0,10000
7,250,0,250,250,500,500,750,750,2,0,1,0.25,0.25,0.25,0.25,0.25,0.25,0.25,-0.5,-0.5,-0.5,-0.5,-0.5,-0.5,-0.5,-0.5,linear,0.025,TRUE,50,FALSE,3,NA,NA,5,fixmodel,0.8346,-4.786927154962618e-5,0.00735123468146565,0,10000
7,250,0,250,250,500,500,750,750,2,0,1,0.25,0.25,0.25,0.25,0.25,0.25,0.25,-0.5,-0.5,-0.5,-0.5,-0.5,-0.5,-0.5,-0.5,linear,0.025,TRUE,50,FALSE,3,NA,NA,5,sepmodel,0.7843,-1.5076982552950926e-4,0.008230129484784502,0,10000
7,250,0,250,250,500,500,750,750,2,0,1,0.25,0.25,0.25,0.25,0.25,0.25,0.25,-0.5,-0.5,-0.5,-0.5,-0.5,-0.5,-0.5,-0.5,linear,0.025,TRUE,50,FALSE,3,NA,NA,5,splines,0.8381,-7.796625964482905e-5,0.007282632391882339,0,10000
7,250,0,250,250,500,500,750,750,2,0,1,0.25,0.25,0.25,0.25,0.25,0.25,0.25,-0.5,-0.5,-0.5,-0.5,-0.5,-0.5,-0.5,-0.5,linear,0.025,TRUE,50,FALSE,3,NA,NA,5,splines_cal,0.8398,-1.276887448614073e-4,0.007247448187557685,0,10000
7,250,0,250,250,500,500,750,750,2,0,1,0.25,0.25,0.25,0.25,0.25,0.25,0.25,-0.5,-0.5,-0.5,-0.5,-0.5,-0.5,-0.5,-0.5,linear,0.025,TRUE,50,FALSE,3,NA,NA,6,fixmodel,0.847,0.0010932963178355059,0.0071192824725078594,0,10000
7,250,0,250,250,500,500,750,750,2,0,1,0.25,0.25,0.25,0.25,0.25,0.25,0.25,-0.5,-0.5,-0.5,-0.5,-0.5,-0.5,-0.5,-0.5,linear,0.025,TRUE,50,FALSE,3,NA,NA,6,sepmodel,0.7957,9.158869004056023e-4,0.008099486329058825,0,10000
7,250,0,250,250,500,500,750,750,2,0,1,0.25,0.25,0.25,0.25,0.25,0.25,0.25,-0.5,-0.5,-0.5,-0.5,-0.5,-0.5,-0.5,-0.5,linear,0.025,TRUE,50,FALSE,3,NA,NA,6,splines,0.8491,0.001098913260166265,0.007088576337623034,0,10000
7,250,0,250,250,500,500,750,750,2,0,1,0.25,0.25,0.25,0.25,0.25,0.25,0.25,-0.5,-0.5,-0.5,-0.5,-0.5,-0.5,-0.5,-0.5,linear,0.025,TRUE,50,FALSE,3,NA,NA,6,splines_cal,0.8473,0.0010922772938454935,0.007117116541740792,0,10000
7,250,0,250,250,500,500,750,750,2,0,1,0.25,0.25,0.25,0.25,0.25,0.25,0.25,-0.5,-0.5,-0.5,-0.5,-0.5,-0.5,-0.5,-0.5,linear,0.025,TRUE,50,FALSE,3,NA,NA,7,fixmodel,0.8467,-1.8510056999049054e-4,0.007068201186914231,0,10000
7,250,0,250,250,500,500,750,750,2,0,1,0.25,0.25,0.25,0.25,0.25,0.25,0.25,-0.5,-0.5,-0.5,-0.5,-0.5,-0.5,-0.5,-0.5,linear,0.025,TRUE,50,FALSE,3,NA,NA,7,sepmodel,0.7924,-3.6250998742051494e-4,0.008045751512454364,0,10000
7,250,0,250,250,500,500,750,750,2,0,1,0.25,0.25,0.25,0.25,0.25,0.25,0.25,-0.5,-0.5,-0.5,-0.5,-0.5,-0.5,-0.5,-0.5,linear,0.025,TRUE,50,FALSE,3,NA,NA,7,splines,0.8495,-1.8192792901222635e-4,0.007025004568596163,0,10000
7,250,0,250,250,500,500,750,750,2,0,1,0.25,0.25,0.25,0.25,0.25,0.25,0.25,-0.5,-0.5,-0.5,-0.5,-0.5,-0.5,-0.5,-0.5,linear,0.025,TRUE,50,FALSE,3,NA,NA,7,splines_cal,0.8466,-2.1728354842552816e-4,0.007059256603913161,0,10000
7,250,0,250,250,500,500,750,750,2,0,1,0.25,0.25,0.25,0.25,0.25,0.25,0.25,-0.5,-0.5,-0.5,-0.5,-0.5,-0.5,-0.5,-0.5,linear,0.025,TRUE,100,FALSE,1,NA,NA,2,fixmodel,0.8228,-4.090301179490372e-4,0.007426215876574549,0,10000
7,250,0,250,250,500,500,750,750,2,0,1,0.25,0.25,0.25,0.25,0.25,0.25,0.25,-0.5,-0.5,-0.5,-0.5,-0.5,-0.5,-0.5,-0.5,linear,0.025,TRUE,100,FALSE,1,NA,NA,2,sepmodel,0.7957,-1.2551057186204338e-4,0.00791324803562597,0,10000
7,250,0,250,250,500,500,750,750,2,0,1,0.25,0.25,0.25,0.25,0.25,0.25,0.25,-0.5,-0.5,-0.5,-0.5,-0.5,-0.5,-0.5,-0.5,linear,0.025,TRUE,100,FALSE,1,NA,NA,2,splines,0.8303,-5.313017056058137e-4,0.007267584265371294,0,10000
7,250,0,250,250,500,500,750,750,2,0,1,0.25,0.25,0.25,0.25,0.25,0.25,0.25,-0.5,-0.5,-0.5,-0.5,-0.5,-0.5,-0.5,-0.5,linear,0.025,TRUE,100,FALSE,1,NA,NA,2,splines_cal,0.8253,-5.206914666240377e-4,0.00734966178069498,0,10000
7,250,0,250,250,500,500,750,750,2,0,1,0.25,0.25,0.25,0.25,0.25,0.25,0.25,-0.5,-0.5,-0.5,-0.5,-0.5,-0.5,-0.5,-0.5,linear,0.025,TRUE,100,FALSE,1,NA,NA,3,fixmodel,0.8283,7.898588387044531e-4,0.007344722914875105,0,10000
7,250,0,250,250,500,500,750,750,2,0,1,0.25,0.25,0.25,0.25,0.25,0.25,0.25,-0.5,-0.5,-0.5,-0.5,-0.5,-0.5,-0.5,-0.5,linear,0.025,TRUE,100,FALSE,1,NA,NA,3,sepmodel,0.7983,0.0010733783847897687,0.00787322147324802,0,10000
7,250,0,250,250,500,500,750,750,2,0,1,0.25,0.25,0.25,0.25,0.25,0.25,0.25,-0.5,-0.5,-0.5,-0.5,-0.5,-0.5,-0.5,-0.5,linear,0.025,TRUE,100,FALSE,1,NA,NA,3,splines,0.8368,6.700920873584449e-4,0.007188914805995823,0,10000
7,250,0,250,250,500,500,750,750,2,0,1,0.25,0.25,0.25,0.25,0.25,0.25,0.25,-0.5,-0.5,-0.5,-0.5,-0.5,-0.5,-0.5,-0.5,linear,0.025,TRUE,100,FALSE,1,NA,NA,3,splines_cal,0.8308,6.767798782306429e-4,0.0072786421630766296,0,10000
7,250,0,250,250,500,500,750,750,2,0,1,0.25,0.25,0.25,0.25,0.25,0.25,0.25,-0.5,-0.5,-0.5,-0.5,-0.5,-0.5,-0.5,-0.5,linear,0.025,TRUE,100,FALSE,1,NA,NA,4,fixmodel,0.8382,-2.0813227145835726e-4,0.007155585334522401,0,10000
7,250,0,250,250,500,500,750,750,2,0,1,0.25,0.25,0.25,0.25,0.25,0.25,0.25,-0.5,-0.5,-0.5,-0.5,-0.5,-0.5,-0.5,-0.5,linear,0.025,TRUE,100,FALSE,1,NA,NA,4,sepmodel,0.7909,-7.775159898597113e-5,0.00798609410803511,0,10000
7,250,0,250,250,500,500,750,750,2,0,1,0.25,0.25,0.25,0.25,0.25,0.25,0.25,-0.5,-0.5,-0.5,-0.5,-0.5,-0.5,-0.5,-0.5,linear,0.025,TRUE,100,FALSE,1,NA,NA,4,splines,0.8414,-1.8853992395870365e-4,0.007081438753616659,0,10000
7,250,0,250,250,500,500,750,750,2,0,1,0.25,0.25,0.25,0.25,0.25,0.25,0.25,-0.5,-0.5,-0.5,-0.5,-0.5,-0.5,-0.5,-0.5,linear,0.025,TRUE,100,FALSE,1,NA,NA,4,splines_cal,0.8476,-1.0419189041150025e-4,0.006942270927934728,0,10000
7,250,0,250,250,500,500,750,750,2,0,1,0.25,0.25,0.25,0.25,0.25,0.25,0.25,-0.5,-0.5,-0.5,-0.5,-0.5,-0.5,-0.5,-0.5,linear,0.025,TRUE,100,FALSE,1,NA,NA,5,fixmodel,0.8378,-7.925264846554323e-4,0.007088652148710777,0,10000
7,250,0,250,250,500,500,750,750,2,0,1,0.25,0.25,0.25,0.25,0.25,0.25,0.25,-0.5,-0.5,-0.5,-0.5,-0.5,-0.5,-0.5,-0.5,linear,0.025,TRUE,100,FALSE,1,NA,NA,5,sepmodel,0.7923,-6.621458121833766e-4,0.0079446595374114,0,10000
7,250,0,250,250,500,500,750,750,2,0,1,0.25,0.25,0.25,0.25,0.25,0.25,0.25,-0.5,-0.5,-0.5,-0.5,-0.5,-0.5,-0.5,-0.5,linear,0.025,TRUE,100,FALSE,1,NA,NA,5,splines,0.8396,-7.734585387990655e-4,0.007033185763265558,0,10000
7,250,0,250,250,500,500,750,750,2,0,1,0.25,0.25,0.25,0.25,0.25,0.25,0.25,-0.5,-0.5,-0.5,-0.5,-0.5,-0.5,-0.5,-0.5,linear,0.025,TRUE,100,FALSE,1,NA,NA,5,splines_cal,0.8453,-6.284202086056257e-4,0.0068957069036107285,0,10000
7,250,0,250,250,500,500,750,750,2,0,1,0.25,0.25,0.25,0.25,0.25,0.25,0.25,-0.5,-0.5,-0.5,-0.5,-0.5,-0.5,-0.5,-0.5,linear,0.025,TRUE,100,FALSE,1,NA,NA,6,fixmodel,0.8501,0.0011249529764668642,0.006951867374646597,0,10000
7,250,0,250,250,500,500,750,750,2,0,1,0.25,0.25,0.25,0.25,0.25,0.25,0.25,-0.5,-0.5,-0.5,-0.5,-0.5,-0.5,-0.5,-0.5,linear,0.025,TRUE,100,FALSE,1,NA,NA,6,sepmodel,0.8002,0.00119147875757015,0.007972607717786398,0,10000
7,250,0,250,250,500,500,750,750,2,0,1,0.25,0.25,0.25,0.25,0.25,0.25,0.25,-0.5,-0.5,-0.5,-0.5,-0.5,-0.5,-0.5,-0.5,linear,0.025,TRUE,100,FALSE,1,NA,NA,6,splines,0.8526,0.0010779788406784189,0.00691341443892187,0,10000
7,250,0,250,250,500,500,750,750,2,0,1,0.25,0.25,0.25,0.25,0.25,0.25,0.25,-0.5,-0.5,-0.5,-0.5,-0.5,-0.5,-0.5,-0.5,linear,0.025,TRUE,100,FALSE,1,NA,NA,6,splines_cal,0.8511,0.0010731594901262232,0.006926639380840969,0,10000
7,250,0,250,250,500,500,750,750,2,0,1,0.25,0.25,0.25,0.25,0.25,0.25,0.25,-0.5,-0.5,-0.5,-0.5,-0.5,-0.5,-0.5,-0.5,linear,0.025,TRUE,100,FALSE,1,NA,NA,7,fixmodel,0.8516,-5.933710773814526e-4,0.006817180702441579,0,10000
7,250,0,250,250,500,500,750,750,2,0,1,0.25,0.25,0.25,0.25,0.25,0.25,0.25,-0.5,-0.5,-0.5,-0.5,-0.5,-0.5,-0.5,-0.5,linear,0.025,TRUE,100,FALSE,1,NA,NA,7,sepmodel,0.7978,-5.268452962782814e-4,0.00786710749251318,0,10000
7,250,0,250,250,500,500,750,750,2,0,1,0.25,0.25,0.25,0.25,0.25,0.25,0.25,-0.5,-0.5,-0.5,-0.5,-0.5,-0.5,-0.5,-0.5,linear,0.025,TRUE,100,FALSE,1,NA,NA,7,splines,0.8528,-6.396783975193054e-4,0.006766848161626629,0,10000
7,250,0,250,250,500,500,750,750,2,0,1,0.25,0.25,0.25,0.25,0.25,0.25,0.25,-0.5,-0.5,-0.5,-0.5,-0.5,-0.5,-0.5,-0.5,linear,0.025,TRUE,100,FALSE,1,NA,NA,7,splines_cal,0.8527,-6.367246369505732e-4,0.0067912427705306,0,10000
7,250,0,250,250,500,500,750,750,2,0,1,0.25,0.25,0.25,0.25,0.25,0.25,0.25,-0.5,-0.5,-0.5,-0.5,-0.5,-0.5,-0.5,-0.5,linear,0.025,TRUE,100,FALSE,2,NA,NA,2,fixmodel,0.8269,5.353890023611119e-4,0.007577119374808384,0,10000
7,250,0,250,250,500,500,750,750,2,0,1,0.25,0.25,0.25,0.25,0.25,0.25,0.25,-0.5,-0.5,-0.5,-0.5,-0.5,-0.5,-0.5,-0.5,linear,0.025,TRUE,100,FALSE,2,NA,NA,2,sepmodel,0.7937,5.81699922675566e-4,0.008129608635904817,0,10000
7,250,0,250,250,500,500,750,750,2,0,1,0.25,0.25,0.25,0.25,0.25,0.25,0.25,-0.5,-0.5,-0.5,-0.5,-0.5,-0.5,-0.5,-0.5,linear,0.025,TRUE,100,FALSE,2,NA,NA,2,splines,0.8312,4.280618369485285e-4,0.00748027731634262,0,10000
7,250,0,250,250,500,500,750,750,2,0,1,0.25,0.25,0.25,0.25,0.25,0.25,0.25,-0.5,-0.5,-0.5,-0.5,-0.5,-0.5,-0.5,-0.5,linear,0.025,TRUE,100,FALSE,2,NA,NA,2,splines_cal,0.8312,4.4947869456251884e-4,0.007474631704841874,0,10000
7,250,0,250,250,500,500,750,750,2,0,1,0.25,0.25,0.25,0.25,0.25,0.25,0.25,-0.5,-0.5,-0.5,-0.5,-0.5,-0.5,-0.5,-0.5,linear,0.025,TRUE,100,FALSE,2,NA,NA,3,fixmodel,0.8233,9.043610981878977e-4,0.007570588542529412,0,10000
7,250,0,250,250,500,500,750,750,2,0,1,0.25,0.25,0.25,0.25,0.25,0.25,0.25,-0.5,-0.5,-0.5,-0.5,-0.5,-0.5,-0.5,-0.5,linear,0.025,TRUE,100,FALSE,2,NA,NA,3,sepmodel,0.795,9.506720185005694e-4,0.008144761540159983,0,10000
7,250,0,250,250,500,500,750,750,2,0,1,0.25,0.25,0.25,0.25,0.25,0.25,0.25,-0.5,-0.5,-0.5,-0.5,-0.5,-0.5,-0.5,-0.5,linear,0.025,TRUE,100,FALSE,2,NA,NA,3,splines,0.828,7.988224942458904e-4,0.007468316208813066,0,10000
7,250,0,250,250,500,500,750,750,2,0,1,0.25,0.25,0.25,0.25,0.25,0.25,0.25,-0.5,-0.5,-0.5,-0.5,-0.5,-0.5,-0.5,-0.5,linear,0.025,TRUE,100,FALSE,2,NA,NA,3,splines_cal,0.8275,8.16030735482792e-4,0.007458709020698875,0,10000
7,250,0,250,250,500,500,750,750,2,0,1,0.25,0.25,0.25,0.25,0.25,0.25,0.25,-0.5,-0.5,-0.5,-0.5,-0.5,-0.5,-0.5,-0.5,linear,0.025,TRUE,100,FALSE,2,NA,NA,4,fixmodel,0.8425,9.117272153876708e-4,0.00698443368493711,0,10000
7,250,0,250,250,500,500,750,750,2,0,1,0.25,0.25,0.25,0.25,0.25,0.25,0.25,-0.5,-0.5,-0.5,-0.5,-0.5,-0.5,-0.5,-0.5,linear,0.025,TRUE,100,FALSE,2,NA,NA,4,sepmodel,0.7977,5.544707149432568e-4,0.007832992439865892,0,10000
7,250,0,250,250,500,500,750,750,2,0,1,0.25,0.25,0.25,0.25,0.25,0.25,0.25,-0.5,-0.5,-0.5,-0.5,-0.5,-0.5,-0.5,-0.5,linear,0.025,TRUE,100,FALSE,2,NA,NA,4,splines,0.847,8.499216835962829e-4,0.0069408974400465406,0,10000
7,250,0,250,250,500,500,750,750,2,0,1,0.25,0.25,0.25,0.25,0.25,0.25,0.25,-0.5,-0.5,-0.5,-0.5,-0.5,-0.5,-0.5,-0.5,linear,0.025,TRUE,100,FALSE,2,NA,NA,4,splines_cal,0.8513,8.104315758918848e-4,0.006796776618135642,0,10000
7,250,0,250,250,500,500,750,750,2,0,1,0.25,0.25,0.25,0.25,0.25,0.25,0.25,-0.5,-0.5,-0.5,-0.5,-0.5,-0.5,-0.5,-0.5,linear,0.025,TRUE,100,FALSE,2,NA,NA,5,fixmodel,0.8459,6.365763901442677e-4,0.007014872164839815,0,10000
7,250,0,250,250,500,500,750,750,2,0,1,0.25,0.25,0.25,0.25,0.25,0.25,0.25,-0.5,-0.5,-0.5,-0.5,-0.5,-0.5,-0.5,-0.5,linear,0.025,TRUE,100,FALSE,2,NA,NA,5,sepmodel,0.7987,2.7931988969954997e-4,0.007892266378203457,0,10000
7,250,0,250,250,500,500,750,750,2,0,1,0.25,0.25,0.25,0.25,0.25,0.25,0.25,-0.5,-0.5,-0.5,-0.5,-0.5,-0.5,-0.5,-0.5,linear,0.025,TRUE,100,FALSE,2,NA,NA,5,splines,0.8493,5.749626173323943e-4,0.006971926925670306,0,10000
7,250,0,250,250,500,500,750,750,2,0,1,0.25,0.25,0.25,0.25,0.25,0.25,0.25,-0.5,-0.5,-0.5,-0.5,-0.5,-0.5,-0.5,-0.5,linear,0.025,TRUE,100,FALSE,2,NA,NA,5,splines_cal,0.8556,4.71710752287749e-4,0.0068625283600458695,0,10000
7,250,0,250,250,500,500,750,750,2,0,1,0.25,0.25,0.25,0.25,0.25,0.25,0.25,-0.5,-0.5,-0.5,-0.5,-0.5,-0.5,-0.5,-0.5,linear,0.025,TRUE,100,FALSE,2,NA,NA,6,fixmodel,0.8494,7.070826664577719e-4,0.00696524912475565,0,10000
7,250,0,250,250,500,500,750,750,2,0,1,0.25,0.25,0.25,0.25,0.25,0.25,0.25,-0.5,-0.5,-0.5,-0.5,-0.5,-0.5,-0.5,-0.5,linear,0.025,TRUE,100,FALSE,2,NA,NA,6,sepmodel,0.7957,6.16277672550039e-4,0.00793579164175774,0,10000
7,250,0,250,250,500,500,750,750,2,0,1,0.25,0.25,0.25,0.25,0.25,0.25,0.25,-0.5,-0.5,-0.5,-0.5,-0.5,-0.5,-0.5,-0.5,linear,0.025,TRUE,100,FALSE,2,NA,NA,6,splines,0.8515,6.524623286790857e-4,0.00692511936941344,0,10000
7,250,0,250,250,500,500,750,750,2,0,1,0.25,0.25,0.25,0.25,0.25,0.25,0.25,-0.5,-0.5,-0.5,-0.5,-0.5,-0.5,-0.5,-0.5,linear,0.025,TRUE,100,FALSE,2,NA,NA,6,splines_cal,0.8512,6.718008535808433e-4,0.006937064956509831,0,10000
7,250,0,250,250,500,500,750,750,2,0,1,0.25,0.25,0.25,0.25,0.25,0.25,0.25,-0.5,-0.5,-0.5,-0.5,-0.5,-0.5,-0.5,-0.5,linear,0.025,TRUE,100,FALSE,2,NA,NA,7,fixmodel,0.8461,-1.1226054326600881e-4,0.007034479293326537,0,10000
7,250,0,250,250,500,500,750,750,2,0,1,0.25,0.25,0.25,0.25,0.25,0.25,0.25,-0.5,-0.5,-0.5,-0.5,-0.5,-0.5,-0.5,-0.5,linear,0.025,TRUE,100,FALSE,2,NA,NA,7,sepmodel,0.7956,-2.030655371738251e-4,0.0080034762973802,0,10000
7,250,0,250,250,500,500,750,750,2,0,1,0.25,0.25,0.25,0.25,0.25,0.25,0.25,-0.5,-0.5,-0.5,-0.5,-0.5,-0.5,-0.5,-0.5,linear,0.025,TRUE,100,FALSE,2,NA,NA,7,splines,0.8496,-1.6808829865699987e-4,0.0069831818082743205,0,10000
7,250,0,250,250,500,500,750,750,2,0,1,0.25,0.25,0.25,0.25,0.25,0.25,0.25,-0.5,-0.5,-0.5,-0.5,-0.5,-0.5,-0.5,-0.5,linear,0.025,TRUE,100,FALSE,2,NA,NA,7,splines_cal,0.8487,-1.4852515159156498e-4,0.0069980236348924085,0,10000
7,250,0,250,250,500,500,750,750,2,0,1,0.25,0.25,0.25,0.25,0.25,0.25,0.25,-0.5,-0.5,-0.5,-0.5,-0.5,-0.5,-0.5,-0.5,linear,0.025,TRUE,100,FALSE,3,NA,NA,2,fixmodel,0.8231,-5.041452337923984e-4,0.00741067921557358,0,10000
7,250,0,250,250,500,500,750,750,2,0,1,0.25,0.25,0.25,0.25,0.25,0.25,0.25,-0.5,-0.5,-0.5,-0.5,-0.5,-0.5,-0.5,-0.5,linear,0.025,TRUE,100,FALSE,3,NA,NA,2,sepmodel,0.7888,-4.2857968499687655e-4,0.007987880758423103,0,10000
7,250,0,250,250,500,500,750,750,2,0,1,0.25,0.25,0.25,0.25,0.25,0.25,0.25,-0.5,-0.5,-0.5,-0.5,-0.5,-0.5,-0.5,-0.5,linear,0.025,TRUE,100,FALSE,3,NA,NA,2,splines,0.8283,-3.691814769698605e-4,0.007311700907163321,0,10000
7,250,0,250,250,500,500,750,750,2,0,1,0.25,0.25,0.25,0.25,0.25,0.25,0.25,-0.5,-0.5,-0.5,-0.5,-0.5,-0.5,-0.5,-0.5,linear,0.025,TRUE,100,FALSE,3,NA,NA,2,splines_cal,0.8265,-4.151568921784092e-4,0.007348997325212565,0,10000
7,250,0,250,250,500,500,750,750,2,0,1,0.25,0.25,0.25,0.25,0.25,0.25,0.25,-0.5,-0.5,-0.5,-0.5,-0.5,-0.5,-0.5,-0.5,linear,0.025,TRUE,100,FALSE,3,NA,NA,3,fixmodel,0.8187,-0.0015551058764115434,0.00743781531461615,0,10000
7,250,0,250,250,500,500,750,750,2,0,1,0.25,0.25,0.25,0.25,0.25,0.25,0.25,-0.5,-0.5,-0.5,-0.5,-0.5,-0.5,-0.5,-0.5,linear,0.025,TRUE,100,FALSE,3,NA,NA,3,sepmodel,0.7865,-0.0014795403276176722,0.008092023779922136,0,10000
7,250,0,250,250,500,500,750,750,2,0,1,0.25,0.25,0.25,0.25,0.25,0.25,0.25,-0.5,-0.5,-0.5,-0.5,-0.5,-0.5,-0.5,-0.5,linear,0.025,TRUE,100,FALSE,3,NA,NA,3,splines,0.825,-0.001419574080185567,0.00735292308355224,0,10000
7,250,0,250,250,500,500,750,750,2,0,1,0.25,0.25,0.25,0.25,0.25,0.25,0.25,-0.5,-0.5,-0.5,-0.5,-0.5,-0.5,-0.5,-0.5,linear,0.025,TRUE,100,FALSE,3,NA,NA,3,splines_cal,0.8241,-0.00146330090410629,0.007356397071469888,0,10000
7,250,0,250,250,500,500,750,750,2,0,1,0.25,0.25,0.25,0.25,0.25,0.25,0.25,-0.5,-0.5,-0.5,-0.5,-0.5,-0.5,-0.5,-0.5,linear,0.025,TRUE,100,FALSE,3,NA,NA,4,fixmodel,0.8366,-1.7763767645874318e-4,0.00725748248419235,0,10000
7,250,0,250,250,500,500,750,750,2,0,1,0.25,0.25,0.25,0.25,0.25,0.25,0.25,-0.5,-0.5,-0.5,-0.5,-0.5,-0.5,-0.5,-0.5,linear,0.025,TRUE,100,FALSE,3,NA,NA,4,sepmodel,0.7925,-9.025734111956136e-5,0.008131718923755454,0,10000
7,250,0,250,250,500,500,750,750,2,0,1,0.25,0.25,0.25,0.25,0.25,0.25,0.25,-0.5,-0.5,-0.5,-0.5,-0.5,-0.5,-0.5,-0.5,linear,0.025,TRUE,100,FALSE,3,NA,NA,4,splines,0.8373,-2.489832900513121e-5,0.0071883151493545286,0,10000
7,250,0,250,250,500,500,750,750,2,0,1,0.25,0.25,0.25,0.25,0.25,0.25,0.25,-0.5,-0.5,-0.5,-0.5,-0.5,-0.5,-0.5,-0.5,linear,0.025,TRUE,100,FALSE,3,NA,NA,4,splines_cal,0.8436,-2.4842806698410243e-4,0.007065148941619541,0,10000
7,250,0,250,250,500,500,750,750,2,0,1,0.25,0.25,0.25,0.25,0.25,0.25,0.25,-0.5,-0.5,-0.5,-0.5,-0.5,-0.5,-0.5,-0.5,linear,0.025,TRUE,100,FALSE,3,NA,NA,5,fixmodel,0.8379,7.381538085262473e-4,0.007086889436755291,0,10000
7,250,0,250,250,500,500,750,750,2,0,1,0.25,0.25,0.25,0.25,0.25,0.25,0.25,-0.5,-0.5,-0.5,-0.5,-0.5,-0.5,-0.5,-0.5,linear,0.025,TRUE,100,FALSE,3,NA,NA,5,sepmodel,0.7903,8.255341438650495e-4,0.008047450581160047,0,10000
7,250,0,250,250,500,500,750,750,2,0,1,0.25,0.25,0.25,0.25,0.25,0.25,0.25,-0.5,-0.5,-0.5,-0.5,-0.5,-0.5,-0.5,-0.5,linear,0.025,TRUE,100,FALSE,3,NA,NA,5,splines,0.8427,8.919731707467267e-4,0.007040942129749646,0,10000
7,250,0,250,250,500,500,750,750,2,0,1,0.25,0.25,0.25,0.25,0.25,0.25,0.25,-0.5,-0.5,-0.5,-0.5,-0.5,-0.5,-0.5,-0.5,linear,0.025,TRUE,100,FALSE,3,NA,NA,5,splines_cal,0.8495,5.487091117107747e-4,0.006889770853696693,0,10000
7,250,0,250,250,500,500,750,750,2,0,1,0.25,0.25,0.25,0.25,0.25,0.25,0.25,-0.5,-0.5,-0.5,-0.5,-0.5,-0.5,-0.5,-0.5,linear,0.025,TRUE,100,FALSE,3,NA,NA,6,fixmodel,0.8469,0.0010168434850273806,0.006954830841186336,0,10000
7,250,0,250,250,500,500,750,750,2,0,1,0.25,0.25,0.25,0.25,0.25,0.25,0.25,-0.5,-0.5,-0.5,-0.5,-0.5,-0.5,-0.5,-0.5,linear,0.025,TRUE,100,FALSE,3,NA,NA,6,sepmodel,0.7944,0.0012121702110904854,0.008006619344347115,0,10000
7,250,0,250,250,500,500,750,750,2,0,1,0.25,0.25,0.25,0.25,0.25,0.25,0.25,-0.5,-0.5,-0.5,-0.5,-0.5,-0.5,-0.5,-0.5,linear,0.025,TRUE,100,FALSE,3,NA,NA,6,splines,0.8513,0.0011021098797292332,0.006891310055215056,0,10000
7,250,0,250,250,500,500,750,750,2,0,1,0.25,0.25,0.25,0.25,0.25,0.25,0.25,-0.5,-0.5,-0.5,-0.5,-0.5,-0.5,-0.5,-0.5,linear,0.025,TRUE,100,FALSE,3,NA,NA,6,splines_cal,0.8499,0.0010626066404196071,0.006926798215963563,0,10000
7,250,0,250,250,500,500,750,750,2,0,1,0.25,0.25,0.25,0.25,0.25,0.25,0.25,-0.5,-0.5,-0.5,-0.5,-0.5,-0.5,-0.5,-0.5,linear,0.025,TRUE,100,FALSE,3,NA,NA,7,fixmodel,0.8486,2.9990384370800983e-4,0.007176412979234612,0,10000
7,250,0,250,250,500,500,750,750,2,0,1,0.25,0.25,0.25,0.25,0.25,0.25,0.25,-0.5,-0.5,-0.5,-0.5,-0.5,-0.5,-0.5,-0.5,linear,0.025,TRUE,100,FALSE,3,NA,NA,7,sepmodel,0.7928,4.952305697709825e-4,0.008241782353860038,0,10000
7,250,0,250,250,500,500,750,750,2,0,1,0.25,0.25,0.25,0.25,0.25,0.25,0.25,-0.5,-0.5,-0.5,-0.5,-0.5,-0.5,-0.5,-0.5,linear,0.025,TRUE,100,FALSE,3,NA,NA,7,splines,0.8506,3.8869415757090183e-4,0.007116399168443444,0,10000
7,250,0,250,250,500,500,750,750,2,0,1,0.25,0.25,0.25,0.25,0.25,0.25,0.25,-0.5,-0.5,-0.5,-0.5,-0.5,-0.5,-0.5,-0.5,linear,0.025,TRUE,100,FALSE,3,NA,NA,7,splines_cal,0.8497,3.420432790948128e-4,0.007145319792028898,0,10000
7,250,0,250,250,500,500,750,750,2,0,1,0.25,0.25,0.25,0.25,0.25,0.25,0.25,-0.375,-0.375,-0.375,-0.375,-0.375,-0.375,-0.375,-0.375,linear,0.025,TRUE,25,FALSE,1,NA,NA,2,fixmodel,0.8269,6.714248563468734e-4,0.0074220721645500455,0,10000
7,250,0,250,250,500,500,750,750,2,0,1,0.25,0.25,0.25,0.25,0.25,0.25,0.25,-0.375,-0.375,-0.375,-0.375,-0.375,-0.375,-0.375,-0.375,linear,0.025,TRUE,25,FALSE,1,NA,NA,2,sepmodel,0.7953,6.852618945987879e-4,0.008021890222722526,0,10000
7,250,0,250,250,500,500,750,750,2,0,1,0.25,0.25,0.25,0.25,0.25,0.25,0.25,-0.375,-0.375,-0.375,-0.375,-0.375,-0.375,-0.375,-0.375,linear,0.025,TRUE,25,FALSE,1,NA,NA,2,splines,0.8376,7.945804669918315e-4,0.0072683281200936626,0,10000
7,250,0,250,250,500,500,750,750,2,0,1,0.25,0.25,0.25,0.25,0.25,0.25,0.25,-0.375,-0.375,-0.375,-0.375,-0.375,-0.375,-0.375,-0.375,linear,0.025,TRUE,25,FALSE,1,NA,NA,2,splines_cal,0.83,7.85319132625613e-4,0.007423244915881399,0,10000
7,250,0,250,250,500,500,750,750,2,0,1,0.25,0.25,0.25,0.25,0.25,0.25,0.25,-0.375,-0.375,-0.375,-0.375,-0.375,-0.375,-0.375,-0.375,linear,0.025,TRUE,25,FALSE,1,NA,NA,3,fixmodel,0.8213,-6.138527018365313e-4,0.007637961278877389,0,10000
7,250,0,250,250,500,500,750,750,2,0,1,0.25,0.25,0.25,0.25,0.25,0.25,0.25,-0.375,-0.375,-0.375,-0.375,-0.375,-0.375,-0.375,-0.375,linear,0.025,TRUE,25,FALSE,1,NA,NA,3,sepmodel,0.7922,-6.000156635860951e-4,0.008201462992960233,0,10000
7,250,0,250,250,500,500,750,750,2,0,1,0.25,0.25,0.25,0.25,0.25,0.25,0.25,-0.375,-0.375,-0.375,-0.375,-0.375,-0.375,-0.375,-0.375,linear,0.025,TRUE,25,FALSE,1,NA,NA,3,splines,0.8293,-4.904130840183465e-4,0.007463172044529436,0,10000
7,250,0,250,250,500,500,750,750,2,0,1,0.25,0.25,0.25,0.25,0.25,0.25,0.25,-0.375,-0.375,-0.375,-0.375,-0.375,-0.375,-0.375,-0.375,linear,0.025,TRUE,25,FALSE,1,NA,NA,3,splines_cal,0.8229,-6.607842710861394e-4,0.007616425169638332,0,10000
7,250,0,250,250,500,500,750,750,2,0,1,0.25,0.25,0.25,0.25,0.25,0.25,0.25,-0.375,-0.375,-0.375,-0.375,-0.375,-0.375,-0.375,-0.375,linear,0.025,TRUE,25,FALSE,1,NA,NA,4,fixmodel,0.8366,-5.200931747841797e-4,0.007261483420224543,0,10000
7,250,0,250,250,500,500,750,750,2,0,1,0.25,0.25,0.25,0.25,0.25,0.25,0.25,-0.375,-0.375,-0.375,-0.375,-0.375,-0.375,-0.375,-0.375,linear,0.025,TRUE,25,FALSE,1,NA,NA,4,sepmodel,0.7908,-4.695819221132691e-4,0.008170926691913117,0,10000
7,250,0,250,250,500,500,750,750,2,0,1,0.25,0.25,0.25,0.25,0.25,0.25,0.25,-0.375,-0.375,-0.375,-0.375,-0.375,-0.375,-0.375,-0.375,linear,0.025,TRUE,25,FALSE,1,NA,NA,4,splines,0.8395,-4.905493322773966e-4,0.007206148544008871,0,10000
7,250,0,250,250,500,500,750,750,2,0,1,0.25,0.25,0.25,0.25,0.25,0.25,0.25,-0.375,-0.375,-0.375,-0.375,-0.375,-0.375,-0.375,-0.375,linear,0.025,TRUE,25,FALSE,1,NA,NA,4,splines_cal,0.8379,-6.049141053117566e-4,0.007259328012293424,0,10000
7,250,0,250,250,500,500,750,750,2,0,1,0.25,0.25,0.25,0.25,0.25,0.25,0.25,-0.375,-0.375,-0.375,-0.375,-0.375,-0.375,-0.375,-0.375,linear,0.025,TRUE,25,FALSE,1,NA,NA,5,fixmodel,0.8329,-8.827422752028697e-4,0.007310114897889743,0,10000
7,250,0,250,250,500,500,750,750,2,0,1,0.25,0.25,0.25,0.25,0.25,0.25,0.25,-0.375,-0.375,-0.375,-0.375,-0.375,-0.375,-0.375,-0.375,linear,0.025,TRUE,25,FALSE,1,NA,NA,5,sepmodel,0.7898,-8.322310225323287e-4,0.008182200192518613,0,10000
7,250,0,250,250,500,500,750,750,2,0,1,0.25,0.25,0.25,0.25,0.25,0.25,0.25,-0.375,-0.375,-0.375,-0.375,-0.375,-0.375,-0.375,-0.375,linear,0.025,TRUE,25,FALSE,1,NA,NA,5,splines,0.8381,-8.547048731557977e-4,0.007234102226497463,0,10000
7,250,0,250,250,500,500,750,750,2,0,1,0.25,0.25,0.25,0.25,0.25,0.25,0.25,-0.375,-0.375,-0.375,-0.375,-0.375,-0.375,-0.375,-0.375,linear,0.025,TRUE,25,FALSE,1,NA,NA,5,splines_cal,0.8356,-8.550127491172277e-4,0.0072983352816830965,0,10000
7,250,0,250,250,500,500,750,750,2,0,1,0.25,0.25,0.25,0.25,0.25,0.25,0.25,-0.375,-0.375,-0.375,-0.375,-0.375,-0.375,-0.375,-0.375,linear,0.025,TRUE,25,FALSE,1,NA,NA,6,fixmodel,0.841,-8.87276095179376e-4,0.007093426395721128,0,10000
7,250,0,250,250,500,500,750,750,2,0,1,0.25,0.25,0.25,0.25,0.25,0.25,0.25,-0.375,-0.375,-0.375,-0.375,-0.375,-0.375,-0.375,-0.375,linear,0.025,TRUE,25,FALSE,1,NA,NA,6,sepmodel,0.7897,-9.696739675121921e-4,0.008158561799589454,0,10000
7,250,0,250,250,500,500,750,750,2,0,1,0.25,0.25,0.25,0.25,0.25,0.25,0.25,-0.375,-0.375,-0.375,-0.375,-0.375,-0.375,-0.375,-0.375,linear,0.025,TRUE,25,FALSE,1,NA,NA,6,splines,0.8451,-8.149964639757394e-4,0.007070740555162809,0,10000
7,250,0,250,250,500,500,750,750,2,0,1,0.25,0.25,0.25,0.25,0.25,0.25,0.25,-0.375,-0.375,-0.375,-0.375,-0.375,-0.375,-0.375,-0.375,linear,0.025,TRUE,25,FALSE,1,NA,NA,6,splines_cal,0.843,-8.943419924662214e-4,0.007117789197472683,0,10000
7,250,0,250,250,500,500,750,750,2,0,1,0.25,0.25,0.25,0.25,0.25,0.25,0.25,-0.375,-0.375,-0.375,-0.375,-0.375,-0.375,-0.375,-0.375,linear,0.025,TRUE,25,FALSE,1,NA,NA,7,fixmodel,0.851,3.5655939499057497e-4,0.00705968500192521,0,10000
7,250,0,250,250,500,500,750,750,2,0,1,0.25,0.25,0.25,0.25,0.25,0.25,0.25,-0.375,-0.375,-0.375,-0.375,-0.375,-0.375,-0.375,-0.375,linear,0.025,TRUE,25,FALSE,1,NA,NA,7,sepmodel,0.7965,2.7416152265763346e-4,0.008095730090451225,0,10000
7,250,0,250,250,500,500,750,750,2,0,1,0.25,0.25,0.25,0.25,0.25,0.25,0.25,-0.375,-0.375,-0.375,-0.375,-0.375,-0.375,-0.375,-0.375,linear,0.025,TRUE,25,FALSE,1,NA,NA,7,splines,0.8541,4.283951384584153e-4,0.007011401071289311,0,10000
7,250,0,250,250,500,500,750,750,2,0,1,0.25,0.25,0.25,0.25,0.25,0.25,0.25,-0.375,-0.375,-0.375,-0.375,-0.375,-0.375,-0.375,-0.375,linear,0.025,TRUE,25,FALSE,1,NA,NA,7,splines_cal,0.8506,4.85579145848819e-4,0.0070806813635920065,0,10000
7,250,0,250,250,500,500,750,750,2,0,1,0.25,0.25,0.25,0.25,0.25,0.25,0.25,-0.375,-0.375,-0.375,-0.375,-0.375,-0.375,-0.375,-0.375,linear,0.025,TRUE,25,FALSE,2,NA,NA,2,fixmodel,0.8193,-0.0014468438052833105,0.0074872621016825154,0,10000
7,250,0,250,250,500,500,750,750,2,0,1,0.25,0.25,0.25,0.25,0.25,0.25,0.25,-0.375,-0.375,-0.375,-0.375,-0.375,-0.375,-0.375,-0.375,linear,0.025,TRUE,25,FALSE,2,NA,NA,2,sepmodel,0.7901,-0.0014557389503893814,0.008107556372267795,0,10000
7,250,0,250,250,500,500,750,750,2,0,1,0.25,0.25,0.25,0.25,0.25,0.25,0.25,-0.375,-0.375,-0.375,-0.375,-0.375,-0.375,-0.375,-0.375,linear,0.025,TRUE,25,FALSE,2,NA,NA,2,splines,0.8236,-0.0014231460997588324,0.007425818692571867,0,10000
7,250,0,250,250,500,500,750,750,2,0,1,0.25,0.25,0.25,0.25,0.25,0.25,0.25,-0.375,-0.375,-0.375,-0.375,-0.375,-0.375,-0.375,-0.375,linear,0.025,TRUE,25,FALSE,2,NA,NA,2,splines_cal,0.8207,-0.0014112541324674008,0.007479008798273433,0,10000
7,250,0,250,250,500,500,750,750,2,0,1,0.25,0.25,0.25,0.25,0.25,0.25,0.25,-0.375,-0.375,-0.375,-0.375,-0.375,-0.375,-0.375,-0.375,linear,0.025,TRUE,25,FALSE,2,NA,NA,3,fixmodel,0.8273,-6.655787880037228e-4,0.00740453710698083,0,10000
7,250,0,250,250,500,500,750,750,2,0,1,0.25,0.25,0.25,0.25,0.25,0.25,0.25,-0.375,-0.375,-0.375,-0.375,-0.375,-0.375,-0.375,-0.375,linear,0.025,TRUE,25,FALSE,2,NA,NA,3,sepmodel,0.7937,-6.744739331112903e-4,0.008022729171095228,0,10000
7,250,0,250,250,500,500,750,750,2,0,1,0.25,0.25,0.25,0.25,0.25,0.25,0.25,-0.375,-0.375,-0.375,-0.375,-0.375,-0.375,-0.375,-0.375,linear,0.025,TRUE,25,FALSE,2,NA,NA,3,splines,0.8305,-6.399788907568351e-4,0.0073417615564402286,0,10000
7,250,0,250,250,500,500,750,750,2,0,1,0.25,0.25,0.25,0.25,0.25,0.25,0.25,-0.375,-0.375,-0.375,-0.375,-0.375,-0.375,-0.375,-0.375,linear,0.025,TRUE,25,FALSE,2,NA,NA,3,splines_cal,0.8269,-6.414432844807369e-4,0.007391379977976706,0,10000
7,250,0,250,250,500,500,750,750,2,0,1,0.25,0.25,0.25,0.25,0.25,0.25,0.25,-0.375,-0.375,-0.375,-0.375,-0.375,-0.375,-0.375,-0.375,linear,0.025,TRUE,25,FALSE,2,NA,NA,4,fixmodel,0.8457,5.820007086649692e-4,0.00704339497799161,0,10000
7,250,0,250,250,500,500,750,750,2,0,1,0.25,0.25,0.25,0.25,0.25,0.25,0.25,-0.375,-0.375,-0.375,-0.375,-0.375,-0.375,-0.375,-0.375,linear,0.025,TRUE,25,FALSE,2,NA,NA,4,sepmodel,0.8041,7.073309989885674e-4,0.0077778439522008915,0,10000
7,250,0,250,250,500,500,750,750,2,0,1,0.25,0.25,0.25,0.25,0.25,0.25,0.25,-0.375,-0.375,-0.375,-0.375,-0.375,-0.375,-0.375,-0.375,linear,0.025,TRUE,25,FALSE,2,NA,NA,4,splines,0.8499,6.185506679761566e-4,0.006999876666560597,0,10000
7,250,0,250,250,500,500,750,750,2,0,1,0.25,0.25,0.25,0.25,0.25,0.25,0.25,-0.375,-0.375,-0.375,-0.375,-0.375,-0.375,-0.375,-0.375,linear,0.025,TRUE,25,FALSE,2,NA,NA,4,splines_cal,0.8499,6.474154603199703e-4,0.007039152941289636,0,10000
7,250,0,250,250,500,500,750,750,2,0,1,0.25,0.25,0.25,0.25,0.25,0.25,0.25,-0.375,-0.375,-0.375,-0.375,-0.375,-0.375,-0.375,-0.375,linear,0.025,TRUE,25,FALSE,2,NA,NA,5,fixmodel,0.8351,-0.0013078284918327844,0.007164797710801722,0,10000
7,250,0,250,250,500,500,750,750,2,0,1,0.25,0.25,0.25,0.25,0.25,0.25,0.25,-0.375,-0.375,-0.375,-0.375,-0.375,-0.375,-0.375,-0.375,linear,0.025,TRUE,25,FALSE,2,NA,NA,5,sepmodel,0.7901,-0.0011824982015094445,0.007903060637990945,0,10000
7,250,0,250,250,500,500,750,750,2,0,1,0.25,0.25,0.25,0.25,0.25,0.25,0.25,-0.375,-0.375,-0.375,-0.375,-0.375,-0.375,-0.375,-0.375,linear,0.025,TRUE,25,FALSE,2,NA,NA,5,splines,0.8379,-0.0012702308916724804,0.007129918006897741,0,10000
7,250,0,250,250,500,500,750,750,2,0,1,0.25,0.25,0.25,0.25,0.25,0.25,0.25,-0.375,-0.375,-0.375,-0.375,-0.375,-0.375,-0.375,-0.375,linear,0.025,TRUE,25,FALSE,2,NA,NA,5,splines_cal,0.8353,-0.001339283063234871,0.007141501240710135,0,10000
7,250,0,250,250,500,500,750,750,2,0,1,0.25,0.25,0.25,0.25,0.25,0.25,0.25,-0.375,-0.375,-0.375,-0.375,-0.375,-0.375,-0.375,-0.375,linear,0.025,TRUE,25,FALSE,2,NA,NA,6,fixmodel,0.8449,-0.0011146994742247081,0.0070129824207391086,0,10000
7,250,0,250,250,500,500,750,750,2,0,1,0.25,0.25,0.25,0.25,0.25,0.25,0.25,-0.375,-0.375,-0.375,-0.375,-0.375,-0.375,-0.375,-0.375,linear,0.025,TRUE,25,FALSE,2,NA,NA,6,sepmodel,0.7932,-9.401202553984011e-4,0.007973001753691153,0,10000
7,250,0,250,250,500,500,750,750,2,0,1,0.25,0.25,0.25,0.25,0.25,0.25,0.25,-0.375,-0.375,-0.375,-0.375,-0.375,-0.375,-0.375,-0.375,linear,0.025,TRUE,25,FALSE,2,NA,NA,6,splines,0.8463,-0.001100675361148678,0.006989884145270943,0,10000
7,250,0,250,250,500,500,750,750,2,0,1,0.25,0.25,0.25,0.25,0.25,0.25,0.25,-0.375,-0.375,-0.375,-0.375,-0.375,-0.375,-0.375,-0.375,linear,0.025,TRUE,25,FALSE,2,NA,NA,6,splines_cal,0.8449,-0.001059494920206874,0.007031191580298387,0,10000
7,250,0,250,250,500,500,750,750,2,0,1,0.25,0.25,0.25,0.25,0.25,0.25,0.25,-0.375,-0.375,-0.375,-0.375,-0.375,-0.375,-0.375,-0.375,linear,0.025,TRUE,25,FALSE,2,NA,NA,7,fixmodel,0.8494,-7.214799231463007e-4,0.0068542005215655386,0,10000
7,250,0,250,250,500,500,750,750,2,0,1,0.25,0.25,0.25,0.25,0.25,0.25,0.25,-0.375,-0.375,-0.375,-0.375,-0.375,-0.375,-0.375,-0.375,linear,0.025,TRUE,25,FALSE,2,NA,NA,7,sepmodel,0.7942,-5.469007043200799e-4,0.007881943728312012,0,10000
7,250,0,250,250,500,500,750,750,2,0,1,0.25,0.25,0.25,0.25,0.25,0.25,0.25,-0.375,-0.375,-0.375,-0.375,-0.375,-0.375,-0.375,-0.375,linear,0.025,TRUE,25,FALSE,2,NA,NA,7,splines,0.8506,-7.116974999757556e-4,0.006840745773445399,0,10000
7,250,0,250,250,500,500,750,750,2,0,1,0.25,0.25,0.25,0.25,0.25,0.25,0.25,-0.375,-0.375,-0.375,-0.375,-0.375,-0.375,-0.375,-0.375,linear,0.025,TRUE,25,FALSE,2,NA,NA,7,splines_cal,0.8498,-7.219056185969844e-4,0.006875333630239485,0,10000
7,250,0,250,250,500,500,750,750,2,0,1,0.25,0.25,0.25,0.25,0.25,0.25,0.25,-0.375,-0.375,-0.375,-0.375,-0.375,-0.375,-0.375,-0.375,linear,0.025,TRUE,25,FALSE,3,NA,NA,2,fixmodel,0.8255,-1.912884025844868e-4,0.0073854076860254995,0,10000
7,250,0,250,250,500,500,750,750,2,0,1,0.25,0.25,0.25,0.25,0.25,0.25,0.25,-0.375,-0.375,-0.375,-0.375,-0.375,-0.375,-0.375,-0.375,linear,0.025,TRUE,25,FALSE,3,NA,NA,2,sepmodel,0.7986,-3.9185450530801333e-4,0.007925394903458378,0,10000
7,250,0,250,250,500,500,750,750,2,0,1,0.25,0.25,0.25,0.25,0.25,0.25,0.25,-0.375,-0.375,-0.375,-0.375,-0.375,-0.375,-0.375,-0.375,linear,0.025,TRUE,25,FALSE,3,NA,NA,2,splines,0.8332,-6.576918527641713e-5,0.007293233377950458,0,10000
7,250,0,250,250,500,500,750,750,2,0,1,0.25,0.25,0.25,0.25,0.25,0.25,0.25,-0.375,-0.375,-0.375,-0.375,-0.375,-0.375,-0.375,-0.375,linear,0.025,TRUE,25,FALSE,3,NA,NA,2,splines_cal,0.8258,-7.461480532249246e-5,0.007377240832468253,0,10000
7,250,0,250,250,500,500,750,750,2,0,1,0.25,0.25,0.25,0.25,0.25,0.25,0.25,-0.375,-0.375,-0.375,-0.375,-0.375,-0.375,-0.375,-0.375,linear,0.025,TRUE,25,FALSE,3,NA,NA,3,fixmodel,0.8191,-0.0010020859001567447,0.007458829378227181,0,10000
7,250,0,250,250,500,500,750,750,2,0,1,0.25,0.25,0.25,0.25,0.25,0.25,0.25,-0.375,-0.375,-0.375,-0.375,-0.375,-0.375,-0.375,-0.375,linear,0.025,TRUE,25,FALSE,3,NA,NA,3,sepmodel,0.7887,-0.0012026520028818057,0.007979363428012668,0,10000
7,250,0,250,250,500,500,750,750,2,0,1,0.25,0.25,0.25,0.25,0.25,0.25,0.25,-0.375,-0.375,-0.375,-0.375,-0.375,-0.375,-0.375,-0.375,linear,0.025,TRUE,25,FALSE,3,NA,NA,3,splines,0.8252,-8.756412867279389e-4,0.007379347342808978,0,10000
7,250,0,250,250,500,500,750,750,2,0,1,0.25,0.25,0.25,0.25,0.25,0.25,0.25,-0.375,-0.375,-0.375,-0.375,-0.375,-0.375,-0.375,-0.375,linear,0.025,TRUE,25,FALSE,3,NA,NA,3,splines_cal,0.8196,-8.85722089036539e-4,0.0074415979999099095,0,10000
7,250,0,250,250,500,500,750,750,2,0,1,0.25,0.25,0.25,0.25,0.25,0.25,0.25,-0.375,-0.375,-0.375,-0.375,-0.375,-0.375,-0.375,-0.375,linear,0.025,TRUE,25,FALSE,3,NA,NA,4,fixmodel,0.837,-2.670457720472136e-4,0.007121459886011989,0,10000
7,250,0,250,250,500,500,750,750,2,0,1,0.25,0.25,0.25,0.25,0.25,0.25,0.25,-0.375,-0.375,-0.375,-0.375,-0.375,-0.375,-0.375,-0.375,linear,0.025,TRUE,25,FALSE,3,NA,NA,4,sepmodel,0.7921,-6.558045946831057e-4,0.008081726230175399,0,10000
7,250,0,250,250,500,500,750,750,2,0,1,0.25,0.25,0.25,0.25,0.25,0.25,0.25,-0.375,-0.375,-0.375,-0.375,-0.375,-0.375,-0.375,-0.375,linear,0.025,TRUE,25,FALSE,3,NA,NA,4,splines,0.8395,-2.648709772145144e-4,0.007086998364527389,0,10000
7,250,0,250,250,500,500,750,750,2,0,1,0.25,0.25,0.25,0.25,0.25,0.25,0.25,-0.375,-0.375,-0.375,-0.375,-0.375,-0.375,-0.375,-0.375,linear,0.025,TRUE,25,FALSE,3,NA,NA,4,splines_cal,0.8378,-2.6642879845182156e-4,0.007110285270432582,0,10000
7,250,0,250,250,500,500,750,750,2,0,1,0.25,0.25,0.25,0.25,0.25,0.25,0.25,-0.375,-0.375,-0.375,-0.375,-0.375,-0.375,-0.375,-0.375,linear,0.025,TRUE,25,FALSE,3,NA,NA,5,fixmodel,0.8425,-3.779611201585002e-4,0.0069763602052719835,0,10000
7,250,0,250,250,500,500,750,750,2,0,1,0.25,0.25,0.25,0.25,0.25,0.25,0.25,-0.375,-0.375,-0.375,-0.375,-0.375,-0.375,-0.375,-0.375,linear,0.025,TRUE,25,FALSE,3,NA,NA,5,sepmodel,0.799,-7.667199427946473e-4,0.007875230858189218,0,10000
7,250,0,250,250,500,500,750,750,2,0,1,0.25,0.25,0.25,0.25,0.25,0.25,0.25,-0.375,-0.375,-0.375,-0.375,-0.375,-0.375,-0.375,-0.375,linear,0.025,TRUE,25,FALSE,3,NA,NA,5,splines,0.8453,-3.7700998105170616e-4,0.006953078217442805,0,10000
7,250,0,250,250,500,500,750,750,2,0,1,0.25,0.25,0.25,0.25,0.25,0.25,0.25,-0.375,-0.375,-0.375,-0.375,-0.375,-0.375,-0.375,-0.375,linear,0.025,TRUE,25,FALSE,3,NA,NA,5,splines_cal,0.843,-4.0087599619312883e-4,0.006975393447783359,0,10000
7,250,0,250,250,500,500,750,750,2,0,1,0.25,0.25,0.25,0.25,0.25,0.25,0.25,-0.375,-0.375,-0.375,-0.375,-0.375,-0.375,-0.375,-0.375,linear,0.025,TRUE,25,FALSE,3,NA,NA,6,fixmodel,0.8544,-5.8328821027331036e-5,0.006852082376839798,0,10000
7,250,0,250,250,500,500,750,750,2,0,1,0.25,0.25,0.25,0.25,0.25,0.25,0.25,-0.375,-0.375,-0.375,-0.375,-0.375,-0.375,-0.375,-0.375,linear,0.025,TRUE,25,FALSE,3,NA,NA,6,sepmodel,0.7968,-3.401645286773496e-4,0.007865862229213753,0,10000
7,250,0,250,250,500,500,750,750,2,0,1,0.25,0.25,0.25,0.25,0.25,0.25,0.25,-0.375,-0.375,-0.375,-0.375,-0.375,-0.375,-0.375,-0.375,linear,0.025,TRUE,25,FALSE,3,NA,NA,6,splines,0.8543,-4.953605322734722e-5,0.006815918527919268,0,10000
7,250,0,250,250,500,500,750,750,2,0,1,0.25,0.25,0.25,0.25,0.25,0.25,0.25,-0.375,-0.375,-0.375,-0.375,-0.375,-0.375,-0.375,-0.375,linear,0.025,TRUE,25,FALSE,3,NA,NA,6,splines_cal,0.852,-1.1833572868266598e-4,0.006869939960166094,0,10000
7,250,0,250,250,500,500,750,750,2,0,1,0.25,0.25,0.25,0.25,0.25,0.25,0.25,-0.375,-0.375,-0.375,-0.375,-0.375,-0.375,-0.375,-0.375,linear,0.025,TRUE,25,FALSE,3,NA,NA,7,fixmodel,0.8486,-6.259813421731826e-4,0.006925691340547731,0,10000
7,250,0,250,250,500,500,750,750,2,0,1,0.25,0.25,0.25,0.25,0.25,0.25,0.25,-0.375,-0.375,-0.375,-0.375,-0.375,-0.375,-0.375,-0.375,linear,0.025,TRUE,25,FALSE,3,NA,NA,7,sepmodel,0.7957,-9.078170498232892e-4,0.007867204040323277,0,10000
7,250,0,250,250,500,500,750,750,2,0,1,0.25,0.25,0.25,0.25,0.25,0.25,0.25,-0.375,-0.375,-0.375,-0.375,-0.375,-0.375,-0.375,-0.375,linear,0.025,TRUE,25,FALSE,3,NA,NA,7,splines,0.8512,-6.179679458284563e-4,0.0068938504622620255,0,10000
7,250,0,250,250,500,500,750,750,2,0,1,0.25,0.25,0.25,0.25,0.25,0.25,0.25,-0.375,-0.375,-0.375,-0.375,-0.375,-0.375,-0.375,-0.375,linear,0.025,TRUE,25,FALSE,3,NA,NA,7,splines_cal,0.8473,-5.803720703504614e-4,0.006939246326487418,0,10000
7,250,0,250,250,500,500,750,750,2,0,1,0.25,0.25,0.25,0.25,0.25,0.25,0.25,-0.375,-0.375,-0.375,-0.375,-0.375,-0.375,-0.375,-0.375,linear,0.025,TRUE,50,FALSE,1,NA,NA,2,fixmodel,0.8224,-3.0553616378808257e-4,0.007398833271278997,0,10000
7,250,0,250,250,500,500,750,750,2,0,1,0.25,0.25,0.25,0.25,0.25,0.25,0.25,-0.375,-0.375,-0.375,-0.375,-0.375,-0.375,-0.375,-0.375,linear,0.025,TRUE,50,FALSE,1,NA,NA,2,sepmodel,0.7905,-4.6736215249185815e-4,0.008008706077464062,0,10000
7,250,0,250,250,500,500,750,750,2,0,1,0.25,0.25,0.25,0.25,0.25,0.25,0.25,-0.375,-0.375,-0.375,-0.375,-0.375,-0.375,-0.375,-0.375,linear,0.025,TRUE,50,FALSE,1,NA,NA,2,splines,0.8301,-5.223225167007428e-4,0.0072578519714664265,0,10000
7,250,0,250,250,500,500,750,750,2,0,1,0.25,0.25,0.25,0.25,0.25,0.25,0.25,-0.375,-0.375,-0.375,-0.375,-0.375,-0.375,-0.375,-0.375,linear,0.025,TRUE,50,FALSE,1,NA,NA,2,splines_cal,0.8256,-5.46171073660066e-4,0.007363288753795313,0,10000
7,250,0,250,250,500,500,750,750,2,0,1,0.25,0.25,0.25,0.25,0.25,0.25,0.25,-0.375,-0.375,-0.375,-0.375,-0.375,-0.375,-0.375,-0.375,linear,0.025,TRUE,50,FALSE,1,NA,NA,3,fixmodel,0.8323,0.0016246082098370024,0.007558101300970814,0,10000
7,250,0,250,250,500,500,750,750,2,0,1,0.25,0.25,0.25,0.25,0.25,0.25,0.25,-0.375,-0.375,-0.375,-0.375,-0.375,-0.375,-0.375,-0.375,linear,0.025,TRUE,50,FALSE,1,NA,NA,3,sepmodel,0.8006,0.0014627822211316832,0.008069842373634182,0,10000
7,250,0,250,250,500,500,750,750,2,0,1,0.25,0.25,0.25,0.25,0.25,0.25,0.25,-0.375,-0.375,-0.375,-0.375,-0.375,-0.375,-0.375,-0.375,linear,0.025,TRUE,50,FALSE,1,NA,NA,3,splines,0.8377,0.0014078612879023149,0.007422273470511684,0,10000
7,250,0,250,250,500,500,750,750,2,0,1,0.25,0.25,0.25,0.25,0.25,0.25,0.25,-0.375,-0.375,-0.375,-0.375,-0.375,-0.375,-0.375,-0.375,linear,0.025,TRUE,50,FALSE,1,NA,NA,3,splines_cal,0.8328,0.0014052783783546417,0.007505731655239564,0,10000
7,250,0,250,250,500,500,750,750,2,0,1,0.25,0.25,0.25,0.25,0.25,0.25,0.25,-0.375,-0.375,-0.375,-0.375,-0.375,-0.375,-0.375,-0.375,linear,0.025,TRUE,50,FALSE,1,NA,NA,4,fixmodel,0.8436,9.260681831165342e-4,0.0071751995592721956,0,10000
7,250,0,250,250,500,500,750,750,2,0,1,0.25,0.25,0.25,0.25,0.25,0.25,0.25,-0.375,-0.375,-0.375,-0.375,-0.375,-0.375,-0.375,-0.375,linear,0.025,TRUE,50,FALSE,1,NA,NA,4,sepmodel,0.7963,4.6982609707735696e-4,0.008109720366213541,0,10000
7,250,0,250,250,500,500,750,750,2,0,1,0.25,0.25,0.25,0.25,0.25,0.25,0.25,-0.375,-0.375,-0.375,-0.375,-0.375,-0.375,-0.375,-0.375,linear,0.025,TRUE,50,FALSE,1,NA,NA,4,splines,0.8469,7.746941362160125e-4,0.007108857335476504,0,10000
7,250,0,250,250,500,500,750,750,2,0,1,0.25,0.25,0.25,0.25,0.25,0.25,0.25,-0.375,-0.375,-0.375,-0.375,-0.375,-0.375,-0.375,-0.375,linear,0.025,TRUE,50,FALSE,1,NA,NA,4,splines_cal,0.8508,8.469448561199693e-4,0.007072140859310542,0,10000
7,250,0,250,250,500,500,750,750,2,0,1,0.25,0.25,0.25,0.25,0.25,0.25,0.25,-0.375,-0.375,-0.375,-0.375,-0.375,-0.375,-0.375,-0.375,linear,0.025,TRUE,50,FALSE,1,NA,NA,5,fixmodel,0.84,1.4131209760773303e-4,0.0071062428546972214,0,10000
7,250,0,250,250,500,500,750,750,2,0,1,0.25,0.25,0.25,0.25,0.25,0.25,0.25,-0.375,-0.375,-0.375,-0.375,-0.375,-0.375,-0.375,-0.375,linear,0.025,TRUE,50,FALSE,1,NA,NA,5,sepmodel,0.7946,-3.149299884317088e-4,0.007946855499026101,0,10000
7,250,0,250,250,500,500,750,750,2,0,1,0.25,0.25,0.25,0.25,0.25,0.25,0.25,-0.375,-0.375,-0.375,-0.375,-0.375,-0.375,-0.375,-0.375,linear,0.025,TRUE,50,FALSE,1,NA,NA,5,splines,0.8422,-1.0010814210295063e-5,0.007040430683637674,0,10000
7,250,0,250,250,500,500,750,750,2,0,1,0.25,0.25,0.25,0.25,0.25,0.25,0.25,-0.375,-0.375,-0.375,-0.375,-0.375,-0.375,-0.375,-0.375,linear,0.025,TRUE,50,FALSE,1,NA,NA,5,splines_cal,0.842,1.237139781805018e-4,0.007037554692070928,0,10000
7,250,0,250,250,500,500,750,750,2,0,1,0.25,0.25,0.25,0.25,0.25,0.25,0.25,-0.375,-0.375,-0.375,-0.375,-0.375,-0.375,-0.375,-0.375,linear,0.025,TRUE,50,FALSE,1,NA,NA,6,fixmodel,0.8444,-1.5748938653042366e-4,0.007014353044859977,0,10000
7,250,0,250,250,500,500,750,750,2,0,1,0.25,0.25,0.25,0.25,0.25,0.25,0.25,-0.375,-0.375,-0.375,-0.375,-0.375,-0.375,-0.375,-0.375,linear,0.025,TRUE,50,FALSE,1,NA,NA,6,sepmodel,0.7955,-5.684957447356726e-4,0.00802109664544323,0,10000
7,250,0,250,250,500,500,750,750,2,0,1,0.25,0.25,0.25,0.25,0.25,0.25,0.25,-0.375,-0.375,-0.375,-0.375,-0.375,-0.375,-0.375,-0.375,linear,0.025,TRUE,50,FALSE,1,NA,NA,6,splines,0.8437,-2.1848597486411094e-4,0.006979210011375079,0,10000
7,250,0,250,250,500,500,750,750,2,0,1,0.25,0.25,0.25,0.25,0.25,0.25,0.25,-0.375,-0.375,-0.375,-0.375,-0.375,-0.375,-0.375,-0.375,linear,0.025,TRUE,50,FALSE,1,NA,NA,6,splines_cal,0.8439,-2.2845668670012725e-4,0.007015378173517896,0,10000
7,250,0,250,250,500,500,750,750,2,0,1,0.25,0.25,0.25,0.25,0.25,0.25,0.25,-0.375,-0.375,-0.375,-0.375,-0.375,-0.375,-0.375,-0.375,linear,0.025,TRUE,50,FALSE,1,NA,NA,7,fixmodel,0.8534,0.001076942261991179,0.006925349533457594,0,10000
7,250,0,250,250,500,500,750,750,2,0,1,0.25,0.25,0.25,0.25,0.25,0.25,0.25,-0.375,-0.375,-0.375,-0.375,-0.375,-0.375,-0.375,-0.375,linear,0.025,TRUE,50,FALSE,1,NA,NA,7,sepmodel,0.7964,6.659359037858112e-4,0.007903949331881661,0,10000
7,250,0,250,250,500,500,750,750,2,0,1,0.25,0.25,0.25,0.25,0.25,0.25,0.25,-0.375,-0.375,-0.375,-0.375,-0.375,-0.375,-0.375,-0.375,linear,0.025,TRUE,50,FALSE,1,NA,NA,7,splines,0.8562,0.0010144385634948375,0.00688785750489653,0,10000
7,250,0,250,250,500,500,750,750,2,0,1,0.25,0.25,0.25,0.25,0.25,0.25,0.25,-0.375,-0.375,-0.375,-0.375,-0.375,-0.375,-0.375,-0.375,linear,0.025,TRUE,50,FALSE,1,NA,NA,7,splines_cal,0.855,0.001000654441368008,0.006926103896728768,0,10000
7,250,0,250,250,500,500,750,750,2,0,1,0.25,0.25,0.25,0.25,0.25,0.25,0.25,-0.375,-0.375,-0.375,-0.375,-0.375,-0.375,-0.375,-0.375,linear,0.025,TRUE,50,FALSE,2,NA,NA,2,fixmodel,0.831,2.5043288715325047e-4,0.007161375735899486,0,10000
7,250,0,250,250,500,500,750,750,2,0,1,0.25,0.25,0.25,0.25,0.25,0.25,0.25,-0.375,-0.375,-0.375,-0.375,-0.375,-0.375,-0.375,-0.375,linear,0.025,TRUE,50,FALSE,2,NA,NA,2,sepmodel,0.7993,3.5270668884382437e-4,0.007736597642567346,0,10000
7,250,0,250,250,500,500,750,750,2,0,1,0.25,0.25,0.25,0.25,0.25,0.25,0.25,-0.375,-0.375,-0.375,-0.375,-0.375,-0.375,-0.375,-0.375,linear,0.025,TRUE,50,FALSE,2,NA,NA,2,splines,0.8339,2.6243576914009264e-4,0.007096834360332565,0,10000
7,250,0,250,250,500,500,750,750,2,0,1,0.25,0.25,0.25,0.25,0.25,0.25,0.25,-0.375,-0.375,-0.375,-0.375,-0.375,-0.375,-0.375,-0.375,linear,0.025,TRUE,50,FALSE,2,NA,NA,2,splines_cal,0.8331,2.340615948477588e-4,0.007122784238283937,0,10000
7,250,0,250,250,500,500,750,750,2,0,1,0.25,0.25,0.25,0.25,0.25,0.25,0.25,-0.375,-0.375,-0.375,-0.375,-0.375,-0.375,-0.375,-0.375,linear,0.025,TRUE,50,FALSE,2,NA,NA,3,fixmodel,0.8211,3.0799744452253576e-4,0.007427131325773404,0,10000
7,250,0,250,250,500,500,750,750,2,0,1,0.25,0.25,0.25,0.25,0.25,0.25,0.25,-0.375,-0.375,-0.375,-0.375,-0.375,-0.375,-0.375,-0.375,linear,0.025,TRUE,50,FALSE,2,NA,NA,3,sepmodel,0.7943,4.102712462115896e-4,0.007958454967091407,0,10000
7,250,0,250,250,500,500,750,750,2,0,1,0.25,0.25,0.25,0.25,0.25,0.25,0.25,-0.375,-0.375,-0.375,-0.375,-0.375,-0.375,-0.375,-0.375,linear,0.025,TRUE,50,FALSE,2,NA,NA,3,splines,0.826,3.1783524692015444e-4,0.007340682910814189,0,10000
7,250,0,250,250,500,500,750,750,2,0,1,0.25,0.25,0.25,0.25,0.25,0.25,0.25,-0.375,-0.375,-0.375,-0.375,-0.375,-0.375,-0.375,-0.375,linear,0.025,TRUE,50,FALSE,2,NA,NA,3,splines_cal,0.8241,2.9032081009304223e-4,0.007372167840683086,0,10000
7,250,0,250,250,500,500,750,750,2,0,1,0.25,0.25,0.25,0.25,0.25,0.25,0.25,-0.375,-0.375,-0.375,-0.375,-0.375,-0.375,-0.375,-0.375,linear,0.025,TRUE,50,FALSE,2,NA,NA,4,fixmodel,0.841,-3.5113466509836225e-4,0.007176995701495801,0,10000
7,250,0,250,250,500,500,750,750,2,0,1,0.25,0.25,0.25,0.25,0.25,0.25,0.25,-0.375,-0.375,-0.375,-0.375,-0.375,-0.375,-0.375,-0.375,linear,0.025,TRUE,50,FALSE,2,NA,NA,4,sepmodel,0.7965,-1.9091773143630774e-4,0.008022839077963452,0,10000
7,250,0,250,250,500,500,750,750,2,0,1,0.25,0.25,0.25,0.25,0.25,0.25,0.25,-0.375,-0.375,-0.375,-0.375,-0.375,-0.375,-0.375,-0.375,linear,0.025,TRUE,50,FALSE,2,NA,NA,4,splines,0.8433,-3.798780319966095e-4,0.007120733863001288,0,10000
7,250,0,250,250,500,500,750,750,2,0,1,0.25,0.25,0.25,0.25,0.25,0.25,0.25,-0.375,-0.375,-0.375,-0.375,-0.375,-0.375,-0.375,-0.375,linear,0.025,TRUE,50,FALSE,2,NA,NA,4,splines_cal,0.8432,-1.948939156445415e-4,0.007094461517701167,0,10000
7,250,0,250,250,500,500,750,750,2,0,1,0.25,0.25,0.25,0.25,0.25,0.25,0.25,-0.375,-0.375,-0.375,-0.375,-0.375,-0.375,-0.375,-0.375,linear,0.025,TRUE,50,FALSE,2,NA,NA,5,fixmodel,0.8393,-4.4499290648592155e-4,0.0069981766052292565,0,10000
7,250,0,250,250,500,500,750,750,2,0,1,0.25,0.25,0.25,0.25,0.25,0.25,0.25,-0.375,-0.375,-0.375,-0.375,-0.375,-0.375,-0.375,-0.375,linear,0.025,TRUE,50,FALSE,2,NA,NA,5,sepmodel,0.7954,-2.847759728242304e-4,0.007818438791281936,0,10000
7,250,0,250,250,500,500,750,750,2,0,1,0.25,0.25,0.25,0.25,0.25,0.25,0.25,-0.375,-0.375,-0.375,-0.375,-0.375,-0.375,-0.375,-0.375,linear,0.025,TRUE,50,FALSE,2,NA,NA,5,splines,0.841,-4.7373485466907067e-4,0.006964661839575772,0,10000
7,250,0,250,250,500,500,750,750,2,0,1,0.25,0.25,0.25,0.25,0.25,0.25,0.25,-0.375,-0.375,-0.375,-0.375,-0.375,-0.375,-0.375,-0.375,linear,0.025,TRUE,50,FALSE,2,NA,NA,5,splines_cal,0.8423,-4.4492164945854264e-4,0.006914928925983112,0,10000
7,250,0,250,250,500,500,750,750,2,0,1,0.25,0.25,0.25,0.25,0.25,0.25,0.25,-0.375,-0.375,-0.375,-0.375,-0.375,-0.375,-0.375,-0.375,linear,0.025,TRUE,50,FALSE,2,NA,NA,6,fixmodel,0.8461,-2.849395704516738e-4,0.006984589633280036,0,10000
7,250,0,250,250,500,500,750,750,2,0,1,0.25,0.25,0.25,0.25,0.25,0.25,0.25,-0.375,-0.375,-0.375,-0.375,-0.375,-0.375,-0.375,-0.375,linear,0.025,TRUE,50,FALSE,2,NA,NA,6,sepmodel,0.7906,-3.2525729841564405e-4,0.00795529385413335,0,10000
7,250,0,250,250,500,500,750,750,2,0,1,0.25,0.25,0.25,0.25,0.25,0.25,0.25,-0.375,-0.375,-0.375,-0.375,-0.375,-0.375,-0.375,-0.375,linear,0.025,TRUE,50,FALSE,2,NA,NA,6,splines,0.8483,-2.584180122867e-4,0.00696098496344483,0,10000
7,250,0,250,250,500,500,750,750,2,0,1,0.25,0.25,0.25,0.25,0.25,0.25,0.25,-0.375,-0.375,-0.375,-0.375,-0.375,-0.375,-0.375,-0.375,linear,0.025,TRUE,50,FALSE,2,NA,NA,6,splines_cal,0.8465,-2.625253565331761e-4,0.006978148505683874,0,10000
7,250,0,250,250,500,500,750,750,2,0,1,0.25,0.25,0.25,0.25,0.25,0.25,0.25,-0.375,-0.375,-0.375,-0.375,-0.375,-0.375,-0.375,-0.375,linear,0.025,TRUE,50,FALSE,2,NA,NA,7,fixmodel,0.8542,0.0012982267653702875,0.006952716261319696,0,10000
7,250,0,250,250,500,500,750,750,2,0,1,0.25,0.25,0.25,0.25,0.25,0.25,0.25,-0.375,-0.375,-0.375,-0.375,-0.375,-0.375,-0.375,-0.375,linear,0.025,TRUE,50,FALSE,2,NA,NA,7,sepmodel,0.8,0.0012579090374061983,0.007947565824222104,0,10000
7,250,0,250,250,500,500,750,750,2,0,1,0.25,0.25,0.25,0.25,0.25,0.25,0.25,-0.375,-0.375,-0.375,-0.375,-0.375,-0.375,-0.375,-0.375,linear,0.025,TRUE,50,FALSE,2,NA,NA,7,splines,0.855,0.0013211274337769701,0.006923198410644242,0,10000
7,250,0,250,250,500,500,750,750,2,0,1,0.25,0.25,0.25,0.25,0.25,0.25,0.25,-0.375,-0.375,-0.375,-0.375,-0.375,-0.375,-0.375,-0.375,linear,0.025,TRUE,50,FALSE,2,NA,NA,7,splines_cal,0.8544,0.0013010090336059077,0.0069450995974935726,0,10000
7,250,0,250,250,500,500,750,750,2,0,1,0.25,0.25,0.25,0.25,0.25,0.25,0.25,-0.375,-0.375,-0.375,-0.375,-0.375,-0.375,-0.375,-0.375,linear,0.025,TRUE,50,FALSE,3,NA,NA,2,fixmodel,0.83,-5.63970273714344e-4,0.007344450420924757,0,10000
7,250,0,250,250,500,500,750,750,2,0,1,0.25,0.25,0.25,0.25,0.25,0.25,0.25,-0.375,-0.375,-0.375,-0.375,-0.375,-0.375,-0.375,-0.375,linear,0.025,TRUE,50,FALSE,3,NA,NA,2,sepmodel,0.8015,-2.884923182068375e-4,0.007857293133651322,0,10000
7,250,0,250,250,500,500,750,750,2,0,1,0.25,0.25,0.25,0.25,0.25,0.25,0.25,-0.375,-0.375,-0.375,-0.375,-0.375,-0.375,-0.375,-0.375,linear,0.025,TRUE,50,FALSE,3,NA,NA,2,splines,0.8358,-4.460318085837982e-4,0.007234807897985183,0,10000
7,250,0,250,250,500,500,750,750,2,0,1,0.25,0.25,0.25,0.25,0.25,0.25,0.25,-0.375,-0.375,-0.375,-0.375,-0.375,-0.375,-0.375,-0.375,linear,0.025,TRUE,50,FALSE,3,NA,NA,2,splines_cal,0.8347,-6.009178212885833e-4,0.0073217521307262215,0,10000
7,250,0,250,250,500,500,750,750,2,0,1,0.25,0.25,0.25,0.25,0.25,0.25,0.25,-0.375,-0.375,-0.375,-0.375,-0.375,-0.375,-0.375,-0.375,linear,0.025,TRUE,50,FALSE,3,NA,NA,3,fixmodel,0.8268,2.6145797355454074e-4,0.0074334383443151264,0,10000
7,250,0,250,250,500,500,750,750,2,0,1,0.25,0.25,0.25,0.25,0.25,0.25,0.25,-0.375,-0.375,-0.375,-0.375,-0.375,-0.375,-0.375,-0.375,linear,0.025,TRUE,50,FALSE,3,NA,NA,3,sepmodel,0.7988,5.369359290605464e-4,0.007979474324973836,0,10000
7,250,0,250,250,500,500,750,750,2,0,1,0.25,0.25,0.25,0.25,0.25,0.25,0.25,-0.375,-0.375,-0.375,-0.375,-0.375,-0.375,-0.375,-0.375,linear,0.025,TRUE,50,FALSE,3,NA,NA,3,splines,0.8327,3.815106699147411e-4,0.00733497538802837,0,10000
7,250,0,250,250,500,500,750,750,2,0,1,0.25,0.25,0.25,0.25,0.25,0.25,0.25,-0.375,-0.375,-0.375,-0.375,-0.375,-0.375,-0.375,-0.375,linear,0.025,TRUE,50,FALSE,3,NA,NA,3,splines_cal,0.8289,2.3731531739939964e-4,0.00740251592194334,0,10000
7,250,0,250,250,500,500,750,750,2,0,1,0.25,0.25,0.25,0.25,0.25,0.25,0.25,-0.375,-0.375,-0.375,-0.375,-0.375,-0.375,-0.375,-0.375,linear,0.025,TRUE,50,FALSE,3,NA,NA,4,fixmodel,0.8378,-0.0015192634485960016,0.0069318033025911495,0,10000
7,250,0,250,250,500,500,750,750,2,0,1,0.25,0.25,0.25,0.25,0.25,0.25,0.25,-0.375,-0.375,-0.375,-0.375,-0.375,-0.375,-0.375,-0.375,linear,0.025,TRUE,50,FALSE,3,NA,NA,4,sepmodel,0.7981,-0.0011861327765393735,0.007714800686791373,0,10000
7,250,0,250,250,500,500,750,750,2,0,1,0.25,0.25,0.25,0.25,0.25,0.25,0.25,-0.375,-0.375,-0.375,-0.375,-0.375,-0.375,-0.375,-0.375,linear,0.025,TRUE,50,FALSE,3,NA,NA,4,splines,0.8426,-0.0015387908735171678,0.006885004204365322,0,10000
7,250,0,250,250,500,500,750,750,2,0,1,0.25,0.25,0.25,0.25,0.25,0.25,0.25,-0.375,-0.375,-0.375,-0.375,-0.375,-0.375,-0.375,-0.375,linear,0.025,TRUE,50,FALSE,3,NA,NA,4,splines_cal,0.8454,-0.0014476581120680518,0.006852006503352941,0,10000
7,250,0,250,250,500,500,750,750,2,0,1,0.25,0.25,0.25,0.25,0.25,0.25,0.25,-0.375,-0.375,-0.375,-0.375,-0.375,-0.375,-0.375,-0.375,linear,0.025,TRUE,50,FALSE,3,NA,NA,5,fixmodel,0.8361,-9.923616120865065e-4,0.00728174408879641,0,10000
7,250,0,250,250,500,500,750,750,2,0,1,0.25,0.25,0.25,0.25,0.25,0.25,0.25,-0.375,-0.375,-0.375,-0.375,-0.375,-0.375,-0.375,-0.375,linear,0.025,TRUE,50,FALSE,3,NA,NA,5,sepmodel,0.7961,-6.592309400301694e-4,0.008090452446390799,0,10000
7,250,0,250,250,500,500,750,750,2,0,1,0.25,0.25,0.25,0.25,0.25,0.25,0.25,-0.375,-0.375,-0.375,-0.375,-0.375,-0.375,-0.375,-0.375,linear,0.025,TRUE,50,FALSE,3,NA,NA,5,splines,0.8397,-0.0010121454557470942,0.007220454983774669,0,10000
7,250,0,250,250,500,500,750,750,2,0,1,0.25,0.25,0.25,0.25,0.25,0.25,0.25,-0.375,-0.375,-0.375,-0.375,-0.375,-0.375,-0.375,-0.375,linear,0.025,TRUE,50,FALSE,3,NA,NA,5,splines_cal,0.8444,-8.889553800979287e-4,0.0071517017007065005,0,10000
7,250,0,250,250,500,500,750,750,2,0,1,0.25,0.25,0.25,0.25,0.25,0.25,0.25,-0.375,-0.375,-0.375,-0.375,-0.375,-0.375,-0.375,-0.375,linear,0.025,TRUE,50,FALSE,3,NA,NA,6,fixmodel,0.8554,1.1268208026315001e-4,0.006698142224095747,0,10000
7,250,0,250,250,500,500,750,750,2,0,1,0.25,0.25,0.25,0.25,0.25,0.25,0.25,-0.375,-0.375,-0.375,-0.375,-0.375,-0.375,-0.375,-0.375,linear,0.025,TRUE,50,FALSE,3,NA,NA,6,sepmodel,0.8032,4.722611324764558e-4,0.007577967222551909,0,10000
7,250,0,250,250,500,500,750,750,2,0,1,0.25,0.25,0.25,0.25,0.25,0.25,0.25,-0.375,-0.375,-0.375,-0.375,-0.375,-0.375,-0.375,-0.375,linear,0.025,TRUE,50,FALSE,3,NA,NA,6,splines,0.8576,5.484925055105976e-5,0.006659365645791084,0,10000
7,250,0,250,250,500,500,750,750,2,0,1,0.25,0.25,0.25,0.25,0.25,0.25,0.25,-0.375,-0.375,-0.375,-0.375,-0.375,-0.375,-0.375,-0.375,linear,0.025,TRUE,50,FALSE,3,NA,NA,6,splines_cal,0.8558,1.0221571008996004e-4,0.00668969559419317,0,10000
7,250,0,250,250,500,500,750,750,2,0,1,0.25,0.25,0.25,0.25,0.25,0.25,0.25,-0.375,-0.375,-0.375,-0.375,-0.375,-0.375,-0.375,-0.375,linear,0.025,TRUE,50,FALSE,3,NA,NA,7,fixmodel,0.8499,3.8934217190777907e-4,0.00692538015631937,0,10000
7,250,0,250,250,500,500,750,750,2,0,1,0.25,0.25,0.25,0.25,0.25,0.25,0.25,-0.375,-0.375,-0.375,-0.375,-0.375,-0.375,-0.375,-0.375,linear,0.025,TRUE,50,FALSE,3,NA,NA,7,sepmodel,0.8029,7.489212241210322e-4,0.007867290205965419,0,10000
7,250,0,250,250,500,500,750,750,2,0,1,0.25,0.25,0.25,0.25,0.25,0.25,0.25,-0.375,-0.375,-0.375,-0.375,-0.375,-0.375,-0.375,-0.375,linear,0.025,TRUE,50,FALSE,3,NA,NA,7,splines,0.8524,3.3350483185854573e-4,0.006882804789261929,0,10000
7,250,0,250,250,500,500,750,750,2,0,1,0.25,0.25,0.25,0.25,0.25,0.25,0.25,-0.375,-0.375,-0.375,-0.375,-0.375,-0.375,-0.375,-0.375,linear,0.025,TRUE,50,FALSE,3,NA,NA,7,splines_cal,0.8498,3.8299556129722817e-4,0.0069141061595026435,0,10000
7,250,0,250,250,500,500,750,750,2,0,1,0.25,0.25,0.25,0.25,0.25,0.25,0.25,-0.375,-0.375,-0.375,-0.375,-0.375,-0.375,-0.375,-0.375,linear,0.025,TRUE,100,FALSE,1,NA,NA,2,fixmodel,0.8164,-0.0013969679570920415,0.007540295292738023,0,10000
7,250,0,250,250,500,500,750,750,2,0,1,0.25,0.25,0.25,0.25,0.25,0.25,0.25,-0.375,-0.375,-0.375,-0.375,-0.375,-0.375,-0.375,-0.375,linear,0.025,TRUE,100,FALSE,1,NA,NA,2,sepmodel,0.7895,-0.0011563506989678166,0.008023059676838041,0,10000
7,250,0,250,250,500,500,750,750,2,0,1,0.25,0.25,0.25,0.25,0.25,0.25,0.25,-0.375,-0.375,-0.375,-0.375,-0.375,-0.375,-0.375,-0.375,linear,0.025,TRUE,100,FALSE,1,NA,NA,2,splines,0.8222,-0.001260035617956727,0.007387261024368578,0,10000
7,250,0,250,250,500,500,750,750,2,0,1,0.25,0.25,0.25,0.25,0.25,0.25,0.25,-0.375,-0.375,-0.375,-0.375,-0.375,-0.375,-0.375,-0.375,linear,0.025,TRUE,100,FALSE,1,NA,NA,2,splines_cal,0.8207,-0.0012697892721627334,0.007469754693550699,0,10000
7,250,0,250,250,500,500,750,750,2,0,1,0.25,0.25,0.25,0.25,0.25,0.25,0.25,-0.375,-0.375,-0.375,-0.375,-0.375,-0.375,-0.375,-0.375,linear,0.025,TRUE,100,FALSE,1,NA,NA,3,fixmodel,0.8212,-7.573839569460068e-4,0.0074667835571499315,0,10000
7,250,0,250,250,500,500,750,750,2,0,1,0.25,0.25,0.25,0.25,0.25,0.25,0.25,-0.375,-0.375,-0.375,-0.375,-0.375,-0.375,-0.375,-0.375,linear,0.025,TRUE,100,FALSE,1,NA,NA,3,sepmodel,0.791,-5.167666988234071e-4,0.007985929007621679,0,10000
7,250,0,250,250,500,500,750,750,2,0,1,0.25,0.25,0.25,0.25,0.25,0.25,0.25,-0.375,-0.375,-0.375,-0.375,-0.375,-0.375,-0.375,-0.375,linear,0.025,TRUE,100,FALSE,1,NA,NA,3,splines,0.8316,-6.196203358701478e-4,0.007280267208398913,0,10000
7,250,0,250,250,500,500,750,750,2,0,1,0.25,0.25,0.25,0.25,0.25,0.25,0.25,-0.375,-0.375,-0.375,-0.375,-0.375,-0.375,-0.375,-0.375,linear,0.025,TRUE,100,FALSE,1,NA,NA,3,splines_cal,0.8252,-6.41410081076399e-4,0.007384665275858548,0,10000
7,250,0,250,250,500,500,750,750,2,0,1,0.25,0.25,0.25,0.25,0.25,0.25,0.25,-0.375,-0.375,-0.375,-0.375,-0.375,-0.375,-0.375,-0.375,linear,0.025,TRUE,100,FALSE,1,NA,NA,4,fixmodel,0.8376,3.989863819507356e-4,0.007274982867928717,0,10000
7,250,0,250,250,500,500,750,750,2,0,1,0.25,0.25,0.25,0.25,0.25,0.25,0.25,-0.375,-0.375,-0.375,-0.375,-0.375,-0.375,-0.375,-0.375,linear,0.025,TRUE,100,FALSE,1,NA,NA,4,sepmodel,0.7973,6.360772329014054e-4,0.00805545979658623,0,10000
7,250,0,250,250,500,500,750,750,2,0,1,0.25,0.25,0.25,0.25,0.25,0.25,0.25,-0.375,-0.375,-0.375,-0.375,-0.375,-0.375,-0.375,-0.375,linear,0.025,TRUE,100,FALSE,1,NA,NA,4,splines,0.8412,3.4951069826631687e-4,0.007193505525489955,0,10000
7,250,0,250,250,500,500,750,750,2,0,1,0.25,0.25,0.25,0.25,0.25,0.25,0.25,-0.375,-0.375,-0.375,-0.375,-0.375,-0.375,-0.375,-0.375,linear,0.025,TRUE,100,FALSE,1,NA,NA,4,splines_cal,0.8486,3.7247885886336176e-4,0.007059197578624718,0,10000
7,250,0,250,250,500,500,750,750,2,0,1,0.25,0.25,0.25,0.25,0.25,0.25,0.25,-0.375,-0.375,-0.375,-0.375,-0.375,-0.375,-0.375,-0.375,linear,0.025,TRUE,100,FALSE,1,NA,NA,5,fixmodel,0.8401,8.996591797499179e-4,0.0072210476385852354,0,10000
7,250,0,250,250,500,500,750,750,2,0,1,0.25,0.25,0.25,0.25,0.25,0.25,0.25,-0.375,-0.375,-0.375,-0.375,-0.375,-0.375,-0.375,-0.375,linear,0.025,TRUE,100,FALSE,1,NA,NA,5,sepmodel,0.7961,0.0011367500307002361,0.008043502497828646,0,10000
7,250,0,250,250,500,500,750,750,2,0,1,0.25,0.25,0.25,0.25,0.25,0.25,0.25,-0.375,-0.375,-0.375,-0.375,-0.375,-0.375,-0.375,-0.375,linear,0.025,TRUE,100,FALSE,1,NA,NA,5,splines,0.8439,8.50220494189248e-4,0.007145368316186445,0,10000
7,250,0,250,250,500,500,750,750,2,0,1,0.25,0.25,0.25,0.25,0.25,0.25,0.25,-0.375,-0.375,-0.375,-0.375,-0.375,-0.375,-0.375,-0.375,linear,0.025,TRUE,100,FALSE,1,NA,NA,5,splines_cal,0.8511,9.041075009151768e-4,0.006999049399834756,0,10000
7,250,0,250,250,500,500,750,750,2,0,1,0.25,0.25,0.25,0.25,0.25,0.25,0.25,-0.375,-0.375,-0.375,-0.375,-0.375,-0.375,-0.375,-0.375,linear,0.025,TRUE,100,FALSE,1,NA,NA,6,fixmodel,0.8543,0.0010289830569414822,0.006995085440591471,0,10000
7,250,0,250,250,500,500,750,750,2,0,1,0.25,0.25,0.25,0.25,0.25,0.25,0.25,-0.375,-0.375,-0.375,-0.375,-0.375,-0.375,-0.375,-0.375,linear,0.025,TRUE,100,FALSE,1,NA,NA,6,sepmodel,0.7983,6.926352690708966e-4,0.00793077559496441,0,10000
7,250,0,250,250,500,500,750,750,2,0,1,0.25,0.25,0.25,0.25,0.25,0.25,0.25,-0.375,-0.375,-0.375,-0.375,-0.375,-0.375,-0.375,-0.375,linear,0.025,TRUE,100,FALSE,1,NA,NA,6,splines,0.8563,0.0010175156838005493,0.006950092603215475,0,10000
7,250,0,250,250,500,500,750,750,2,0,1,0.25,0.25,0.25,0.25,0.25,0.25,0.25,-0.375,-0.375,-0.375,-0.375,-0.375,-0.375,-0.375,-0.375,linear,0.025,TRUE,100,FALSE,1,NA,NA,6,splines_cal,0.855,0.0010360511958901544,0.0069772814081123695,0,10000
7,250,0,250,250,500,500,750,750,2,0,1,0.25,0.25,0.25,0.25,0.25,0.25,0.25,-0.375,-0.375,-0.375,-0.375,-0.375,-0.375,-0.375,-0.375,linear,0.025,TRUE,100,FALSE,1,NA,NA,7,fixmodel,0.8496,9.40410555719296e-4,0.0070448863866331745,0,10000
7,250,0,250,250,500,500,750,750,2,0,1,0.25,0.25,0.25,0.25,0.25,0.25,0.25,-0.375,-0.375,-0.375,-0.375,-0.375,-0.375,-0.375,-0.375,linear,0.025,TRUE,100,FALSE,1,NA,NA,7,sepmodel,0.7964,6.040627678486356e-4,0.008058591757737765,0,10000
7,250,0,250,250,500,500,750,750,2,0,1,0.25,0.25,0.25,0.25,0.25,0.25,0.25,-0.375,-0.375,-0.375,-0.375,-0.375,-0.375,-0.375,-0.375,linear,0.025,TRUE,100,FALSE,1,NA,NA,7,splines,0.8529,9.271368424929853e-4,0.007003169701257699,0,10000
7,250,0,250,250,500,500,750,750,2,0,1,0.25,0.25,0.25,0.25,0.25,0.25,0.25,-0.375,-0.375,-0.375,-0.375,-0.375,-0.375,-0.375,-0.375,linear,0.025,TRUE,100,FALSE,1,NA,NA,7,splines_cal,0.8516,9.427805595069331e-4,0.007022579671683681,0,10000
7,250,0,250,250,500,500,750,750,2,0,1,0.25,0.25,0.25,0.25,0.25,0.25,0.25,-0.375,-0.375,-0.375,-0.375,-0.375,-0.375,-0.375,-0.375,linear,0.025,TRUE,100,FALSE,2,NA,NA,2,fixmodel,0.8257,4.576224652913125e-4,0.007682807800534179,0,10000
7,250,0,250,250,500,500,750,750,2,0,1,0.25,0.25,0.25,0.25,0.25,0.25,0.25,-0.375,-0.375,-0.375,-0.375,-0.375,-0.375,-0.375,-0.375,linear,0.025,TRUE,100,FALSE,2,NA,NA,2,sepmodel,0.7987,5.231300419326079e-4,0.008206673774821321,0,10000
7,250,0,250,250,500,500,750,750,2,0,1,0.25,0.25,0.25,0.25,0.25,0.25,0.25,-0.375,-0.375,-0.375,-0.375,-0.375,-0.375,-0.375,-0.375,linear,0.025,TRUE,100,FALSE,2,NA,NA,2,splines,0.8277,6.177566163658886e-4,0.007593748420507558,0,10000
7,250,0,250,250,500,500,750,750,2,0,1,0.25,0.25,0.25,0.25,0.25,0.25,0.25,-0.375,-0.375,-0.375,-0.375,-0.375,-0.375,-0.375,-0.375,linear,0.025,TRUE,100,FALSE,2,NA,NA,2,splines_cal,0.8296,4.741677692090645e-4,0.007580233387237355,0,10000
7,250,0,250,250,500,500,750,750,2,0,1,0.25,0.25,0.25,0.25,0.25,0.25,0.25,-0.375,-0.375,-0.375,-0.375,-0.375,-0.375,-0.375,-0.375,linear,0.025,TRUE,100,FALSE,2,NA,NA,3,fixmodel,0.8258,6.642624781681016e-4,0.007542408866568821,0,10000
7,250,0,250,250,500,500,750,750,2,0,1,0.25,0.25,0.25,0.25,0.25,0.25,0.25,-0.375,-0.375,-0.375,-0.375,-0.375,-0.375,-0.375,-0.375,linear,0.025,TRUE,100,FALSE,2,NA,NA,3,sepmodel,0.7937,7.297700548078174e-4,0.008107083996876669,0,10000
7,250,0,250,250,500,500,750,750,2,0,1,0.25,0.25,0.25,0.25,0.25,0.25,0.25,-0.375,-0.375,-0.375,-0.375,-0.375,-0.375,-0.375,-0.375,linear,0.025,TRUE,100,FALSE,2,NA,NA,3,splines,0.8307,8.265361511926708e-4,0.007455185509775262,0,10000
7,250,0,250,250,500,500,750,750,2,0,1,0.25,0.25,0.25,0.25,0.25,0.25,0.25,-0.375,-0.375,-0.375,-0.375,-0.375,-0.375,-0.375,-0.375,linear,0.025,TRUE,100,FALSE,2,NA,NA,3,splines_cal,0.83,6.932917359157544e-4,0.0074498946857914404,0,10000
7,250,0,250,250,500,500,750,750,2,0,1,0.25,0.25,0.25,0.25,0.25,0.25,0.25,-0.375,-0.375,-0.375,-0.375,-0.375,-0.375,-0.375,-0.375,linear,0.025,TRUE,100,FALSE,2,NA,NA,4,fixmodel,0.8457,0.0010225148686935864,0.007283747703229725,0,10000
7,250,0,250,250,500,500,750,750,2,0,1,0.25,0.25,0.25,0.25,0.25,0.25,0.25,-0.375,-0.375,-0.375,-0.375,-0.375,-0.375,-0.375,-0.375,linear,0.025,TRUE,100,FALSE,2,NA,NA,4,sepmodel,0.7962,7.41886438885773e-4,0.008054087628676756,0,10000
7,250,0,250,250,500,500,750,750,2,0,1,0.25,0.25,0.25,0.25,0.25,0.25,0.25,-0.375,-0.375,-0.375,-0.375,-0.375,-0.375,-0.375,-0.375,linear,0.025,TRUE,100,FALSE,2,NA,NA,4,splines,0.8462,0.001115268339678655,0.007227922361566635,0,10000
7,250,0,250,250,500,500,750,750,2,0,1,0.25,0.25,0.25,0.25,0.25,0.25,0.25,-0.375,-0.375,-0.375,-0.375,-0.375,-0.375,-0.375,-0.375,linear,0.025,TRUE,100,FALSE,2,NA,NA,4,splines_cal,0.8503,9.907833694652063e-4,0.007055514195615533,0,10000
7,250,0,250,250,500,500,750,750,2,0,1,0.25,0.25,0.25,0.25,0.25,0.25,0.25,-0.375,-0.375,-0.375,-0.375,-0.375,-0.375,-0.375,-0.375,linear,0.025,TRUE,100,FALSE,2,NA,NA,5,fixmodel,0.8399,3.8526582709251116e-4,0.0071921802982884645,0,10000
7,250,0,250,250,500,500,750,750,2,0,1,0.25,0.25,0.25,0.25,0.25,0.25,0.25,-0.375,-0.375,-0.375,-0.375,-0.375,-0.375,-0.375,-0.375,linear,0.025,TRUE,100,FALSE,2,NA,NA,5,sepmodel,0.7922,1.0463739728436191e-4,0.007983465370249417,0,10000
7,250,0,250,250,500,500,750,750,2,0,1,0.25,0.25,0.25,0.25,0.25,0.25,0.25,-0.375,-0.375,-0.375,-0.375,-0.375,-0.375,-0.375,-0.375,linear,0.025,TRUE,100,FALSE,2,NA,NA,5,splines,0.8428,4.7853144686495577e-4,0.007141683162909194,0,10000
7,250,0,250,250,500,500,750,750,2,0,1,0.25,0.25,0.25,0.25,0.25,0.25,0.25,-0.375,-0.375,-0.375,-0.375,-0.375,-0.375,-0.375,-0.375,linear,0.025,TRUE,100,FALSE,2,NA,NA,5,splines_cal,0.8524,4.2748225904064047e-4,0.006976824296138365,0,10000
7,250,0,250,250,500,500,750,750,2,0,1,0.25,0.25,0.25,0.25,0.25,0.25,0.25,-0.375,-0.375,-0.375,-0.375,-0.375,-0.375,-0.375,-0.375,linear,0.025,TRUE,100,FALSE,2,NA,NA,6,fixmodel,0.845,-1.4979353787719968e-4,0.007249795461439858,0,10000
7,250,0,250,250,500,500,750,750,2,0,1,0.25,0.25,0.25,0.25,0.25,0.25,0.25,-0.375,-0.375,-0.375,-0.375,-0.375,-0.375,-0.375,-0.375,linear,0.025,TRUE,100,FALSE,2,NA,NA,6,sepmodel,0.7903,-3.0694260814333706e-4,0.00825108899020832,0,10000
7,250,0,250,250,500,500,750,750,2,0,1,0.25,0.25,0.25,0.25,0.25,0.25,0.25,-0.375,-0.375,-0.375,-0.375,-0.375,-0.375,-0.375,-0.375,linear,0.025,TRUE,100,FALSE,2,NA,NA,6,splines,0.8459,-9.343647287338954e-5,0.007215876494259537,0,10000
7,250,0,250,250,500,500,750,750,2,0,1,0.25,0.25,0.25,0.25,0.25,0.25,0.25,-0.375,-0.375,-0.375,-0.375,-0.375,-0.375,-0.375,-0.375,linear,0.025,TRUE,100,FALSE,2,NA,NA,6,splines_cal,0.8446,-1.2965498615018423e-4,0.0072234456260477815,0,10000
7,250,0,250,250,500,500,750,750,2,0,1,0.25,0.25,0.25,0.25,0.25,0.25,0.25,-0.375,-0.375,-0.375,-0.375,-0.375,-0.375,-0.375,-0.375,linear,0.025,TRUE,100,FALSE,2,NA,NA,7,fixmodel,0.8492,9.368166030439362e-4,0.007015714166260781,0,10000
7,250,0,250,250,500,500,750,750,2,0,1,0.25,0.25,0.25,0.25,0.25,0.25,0.25,-0.375,-0.375,-0.375,-0.375,-0.375,-0.375,-0.375,-0.375,linear,0.025,TRUE,100,FALSE,2,NA,NA,7,sepmodel,0.7961,7.796675327776773e-4,0.007991091209282108,0,10000
7,250,0,250,250,500,500,750,750,2,0,1,0.25,0.25,0.25,0.25,0.25,0.25,0.25,-0.375,-0.375,-0.375,-0.375,-0.375,-0.375,-0.375,-0.375,linear,0.025,TRUE,100,FALSE,2,NA,NA,7,splines,0.8511,9.942984269238836e-4,0.006982109171744132,0,10000
7,250,0,250,250,500,500,750,750,2,0,1,0.25,0.25,0.25,0.25,0.25,0.25,0.25,-0.375,-0.375,-0.375,-0.375,-0.375,-0.375,-0.375,-0.375,linear,0.025,TRUE,100,FALSE,2,NA,NA,7,splines_cal,0.8496,9.594816560372998e-4,0.00699364966985207,0,10000
7,250,0,250,250,500,500,750,750,2,0,1,0.25,0.25,0.25,0.25,0.25,0.25,0.25,-0.375,-0.375,-0.375,-0.375,-0.375,-0.375,-0.375,-0.375,linear,0.025,TRUE,100,FALSE,3,NA,NA,2,fixmodel,0.8251,3.5445447237823335e-4,0.007557592552144532,0,10000
7,250,0,250,250,500,500,750,750,2,0,1,0.25,0.25,0.25,0.25,0.25,0.25,0.25,-0.375,-0.375,-0.375,-0.375,-0.375,-0.375,-0.375,-0.375,linear,0.025,TRUE,100,FALSE,3,NA,NA,2,sepmodel,0.7943,4.8710060742290025e-4,0.008124260825089396,0,10000
7,250,0,250,250,500,500,750,750,2,0,1,0.25,0.25,0.25,0.25,0.25,0.25,0.25,-0.375,-0.375,-0.375,-0.375,-0.375,-0.375,-0.375,-0.375,linear,0.025,TRUE,100,FALSE,3,NA,NA,2,splines,0.8318,3.5900038267931673e-4,0.007481363787781785,0,10000
7,250,0,250,250,500,500,750,750,2,0,1,0.25,0.25,0.25,0.25,0.25,0.25,0.25,-0.375,-0.375,-0.375,-0.375,-0.375,-0.375,-0.375,-0.375,linear,0.025,TRUE,100,FALSE,3,NA,NA,2,splines_cal,0.8275,3.609319368199343e-4,0.007492510485731369,0,10000
7,250,0,250,250,500,500,750,750,2,0,1,0.25,0.25,0.25,0.25,0.25,0.25,0.25,-0.375,-0.375,-0.375,-0.375,-0.375,-0.375,-0.375,-0.375,linear,0.025,TRUE,100,FALSE,3,NA,NA,3,fixmodel,0.8237,4.747569504200457e-4,0.007503139651521638,0,10000
7,250,0,250,250,500,500,750,750,2,0,1,0.25,0.25,0.25,0.25,0.25,0.25,0.25,-0.375,-0.375,-0.375,-0.375,-0.375,-0.375,-0.375,-0.375,linear,0.025,TRUE,100,FALSE,3,NA,NA,3,sepmodel,0.7964,6.074030854631156e-4,0.008047051929224839,0,10000
7,250,0,250,250,500,500,750,750,2,0,1,0.25,0.25,0.25,0.25,0.25,0.25,0.25,-0.375,-0.375,-0.375,-0.375,-0.375,-0.375,-0.375,-0.375,linear,0.025,TRUE,100,FALSE,3,NA,NA,3,splines,0.8311,4.7847904695033264e-4,0.0074104920970876394,0,10000
7,250,0,250,250,500,500,750,750,2,0,1,0.25,0.25,0.25,0.25,0.25,0.25,0.25,-0.375,-0.375,-0.375,-0.375,-0.375,-0.375,-0.375,-0.375,linear,0.025,TRUE,100,FALSE,3,NA,NA,3,splines_cal,0.8294,4.7772057780297577e-4,0.007428432006025069,0,10000
7,250,0,250,250,500,500,750,750,2,0,1,0.25,0.25,0.25,0.25,0.25,0.25,0.25,-0.375,-0.375,-0.375,-0.375,-0.375,-0.375,-0.375,-0.375,linear,0.025,TRUE,100,FALSE,3,NA,NA,4,fixmodel,0.8401,7.249560308937616e-4,0.00718343218480889,0,10000
7,250,0,250,250,500,500,750,750,2,0,1,0.25,0.25,0.25,0.25,0.25,0.25,0.25,-0.375,-0.375,-0.375,-0.375,-0.375,-0.375,-0.375,-0.375,linear,0.025,TRUE,100,FALSE,3,NA,NA,4,sepmodel,0.8005,6.879870785605184e-4,0.007957730580262166,0,10000
7,250,0,250,250,500,500,750,750,2,0,1,0.25,0.25,0.25,0.25,0.25,0.25,0.25,-0.375,-0.375,-0.375,-0.375,-0.375,-0.375,-0.375,-0.375,linear,0.025,TRUE,100,FALSE,3,NA,NA,4,splines,0.8415,7.766315866361942e-4,0.007172956499574397,0,10000
7,250,0,250,250,500,500,750,750,2,0,1,0.25,0.25,0.25,0.25,0.25,0.25,0.25,-0.375,-0.375,-0.375,-0.375,-0.375,-0.375,-0.375,-0.375,linear,0.025,TRUE,100,FALSE,3,NA,NA,4,splines_cal,0.8482,4.8621568003680933e-4,0.007010358162537179,0,10000
7,250,0,250,250,500,500,750,750,2,0,1,0.25,0.25,0.25,0.25,0.25,0.25,0.25,-0.375,-0.375,-0.375,-0.375,-0.375,-0.375,-0.375,-0.375,linear,0.025,TRUE,100,FALSE,3,NA,NA,5,fixmodel,0.8398,-2.148888227333806e-4,0.007165609905898604,0,10000
7,250,0,250,250,500,500,750,750,2,0,1,0.25,0.25,0.25,0.25,0.25,0.25,0.25,-0.375,-0.375,-0.375,-0.375,-0.375,-0.375,-0.375,-0.375,linear,0.025,TRUE,100,FALSE,3,NA,NA,5,sepmodel,0.7926,-2.5185777506699433e-4,0.007971127578021693,0,10000
7,250,0,250,250,500,500,750,750,2,0,1,0.25,0.25,0.25,0.25,0.25,0.25,0.25,-0.375,-0.375,-0.375,-0.375,-0.375,-0.375,-0.375,-0.375,linear,0.025,TRUE,100,FALSE,3,NA,NA,5,splines,0.8408,-1.6329327633739796e-4,0.007132891563011437,0,10000
7,250,0,250,250,500,500,750,750,2,0,1,0.25,0.25,0.25,0.25,0.25,0.25,0.25,-0.375,-0.375,-0.375,-0.375,-0.375,-0.375,-0.375,-0.375,linear,0.025,TRUE,100,FALSE,3,NA,NA,5,splines_cal,0.8474,-3.6013909053511417e-4,0.0069917065672474,0,10000
7,250,0,250,250,500,500,750,750,2,0,1,0.25,0.25,0.25,0.25,0.25,0.25,0.25,-0.375,-0.375,-0.375,-0.375,-0.375,-0.375,-0.375,-0.375,linear,0.025,TRUE,100,FALSE,3,NA,NA,6,fixmodel,0.8471,0.0014296220216896884,0.007196494803555532,0,10000
7,250,0,250,250,500,500,750,750,2,0,1,0.25,0.25,0.25,0.25,0.25,0.25,0.25,-0.375,-0.375,-0.375,-0.375,-0.375,-0.375,-0.375,-0.375,linear,0.025,TRUE,100,FALSE,3,NA,NA,6,sepmodel,0.7969,0.0013551419791552248,0.00812902914026601,0,10000
7,250,0,250,250,500,500,750,750,2,0,1,0.25,0.25,0.25,0.25,0.25,0.25,0.25,-0.375,-0.375,-0.375,-0.375,-0.375,-0.375,-0.375,-0.375,linear,0.025,TRUE,100,FALSE,3,NA,NA,6,splines,0.8488,0.0014580747750152874,0.00715881043564502,0,10000
7,250,0,250,250,500,500,750,750,2,0,1,0.25,0.25,0.25,0.25,0.25,0.25,0.25,-0.375,-0.375,-0.375,-0.375,-0.375,-0.375,-0.375,-0.375,linear,0.025,TRUE,100,FALSE,3,NA,NA,6,splines_cal,0.8483,0.0014731875729235711,0.007183464541127842,0,10000
7,250,0,250,250,500,500,750,750,2,0,1,0.25,0.25,0.25,0.25,0.25,0.25,0.25,-0.375,-0.375,-0.375,-0.375,-0.375,-0.375,-0.375,-0.375,linear,0.025,TRUE,100,FALSE,3,NA,NA,7,fixmodel,0.8493,-1.0402969783340803e-4,0.007035551560109298,0,10000
7,250,0,250,250,500,500,750,750,2,0,1,0.25,0.25,0.25,0.25,0.25,0.25,0.25,-0.375,-0.375,-0.375,-0.375,-0.375,-0.375,-0.375,-0.375,linear,0.025,TRUE,100,FALSE,3,NA,NA,7,sepmodel,0.7967,-1.785097403679958e-4,0.008053476231695686,0,10000
7,250,0,250,250,500,500,750,750,2,0,1,0.25,0.25,0.25,0.25,0.25,0.25,0.25,-0.375,-0.375,-0.375,-0.375,-0.375,-0.375,-0.375,-0.375,linear,0.025,TRUE,100,FALSE,3,NA,NA,7,splines,0.8518,-7.683770932242135e-5,0.006993012252547828,0,10000
7,250,0,250,250,500,500,750,750,2,0,1,0.25,0.25,0.25,0.25,0.25,0.25,0.25,-0.375,-0.375,-0.375,-0.375,-0.375,-0.375,-0.375,-0.375,linear,0.025,TRUE,100,FALSE,3,NA,NA,7,splines_cal,0.8502,-6.488947433838063e-5,0.007020429042021341,0,10000
7,250,0,250,250,500,500,750,750,2,0,1,0.25,0.25,0.25,0.25,0.25,0.25,0.25,-0.25,-0.25,-0.25,-0.25,-0.25,-0.25,-0.25,-0.25,linear,0.025,TRUE,25,FALSE,1,NA,NA,2,fixmodel,0.8252,2.2651082178168133e-4,0.007312859583629299,0,10000
7,250,0,250,250,500,500,750,750,2,0,1,0.25,0.25,0.25,0.25,0.25,0.25,0.25,-0.25,-0.25,-0.25,-0.25,-0.25,-0.25,-0.25,-0.25,linear,0.025,TRUE,25,FALSE,1,NA,NA,2,sepmodel,0.7956,-1.406540761223042e-4,0.007828609683355256,0,10000
7,250,0,250,250,500,500,750,750,2,0,1,0.25,0.25,0.25,0.25,0.25,0.25,0.25,-0.25,-0.25,-0.25,-0.25,-0.25,-0.25,-0.25,-0.25,linear,0.025,TRUE,25,FALSE,1,NA,NA,2,splines,0.8354,2.326669092071336e-4,0.0071406228034921575,0,10000
7,250,0,250,250,500,500,750,750,2,0,1,0.25,0.25,0.25,0.25,0.25,0.25,0.25,-0.25,-0.25,-0.25,-0.25,-0.25,-0.25,-0.25,-0.25,linear,0.025,TRUE,25,FALSE,1,NA,NA,2,splines_cal,0.8278,3.237641617943614e-4,0.007289188416760377,0,10000
7,250,0,250,250,500,500,750,750,2,0,1,0.25,0.25,0.25,0.25,0.25,0.25,0.25,-0.25,-0.25,-0.25,-0.25,-0.25,-0.25,-0.25,-0.25,linear,0.025,TRUE,25,FALSE,1,NA,NA,3,fixmodel,0.8274,-2.6100824221059193e-4,0.007330508676044987,0,10000
7,250,0,250,250,500,500,750,750,2,0,1,0.25,0.25,0.25,0.25,0.25,0.25,0.25,-0.25,-0.25,-0.25,-0.25,-0.25,-0.25,-0.25,-0.25,linear,0.025,TRUE,25,FALSE,1,NA,NA,3,sepmodel,0.7981,-6.281731401160097e-4,0.007913049756439135,0,10000
7,250,0,250,250,500,500,750,750,2,0,1,0.25,0.25,0.25,0.25,0.25,0.25,0.25,-0.25,-0.25,-0.25,-0.25,-0.25,-0.25,-0.25,-0.25,linear,0.025,TRUE,25,FALSE,1,NA,NA,3,splines,0.8346,-2.532131931184845e-4,0.007186801977171109,0,10000
7,250,0,250,250,500,500,750,750,2,0,1,0.25,0.25,0.25,0.25,0.25,0.25,0.25,-0.25,-0.25,-0.25,-0.25,-0.25,-0.25,-0.25,-0.25,linear,0.025,TRUE,25,FALSE,1,NA,NA,3,splines_cal,0.8308,-1.9029597835100068e-4,0.007307458399108064,0,10000
7,250,0,250,250,500,500,750,750,2,0,1,0.25,0.25,0.25,0.25,0.25,0.25,0.25,-0.25,-0.25,-0.25,-0.25,-0.25,-0.25,-0.25,-0.25,linear,0.025,TRUE,25,FALSE,1,NA,NA,4,fixmodel,0.8405,-8.25277636623921e-5,0.007285090848557797,0,10000
7,250,0,250,250,500,500,750,750,2,0,1,0.25,0.25,0.25,0.25,0.25,0.25,0.25,-0.25,-0.25,-0.25,-0.25,-0.25,-0.25,-0.25,-0.25,linear,0.025,TRUE,25,FALSE,1,NA,NA,4,sepmodel,0.798,-1.8025700968762952e-4,0.00808474684035739,0,10000
