pavlakrotka/MASTERARBEIT/simulations_final/results/results_setting_4_pow_25.csv
num_arms,n_arm,d1,d2,d3,d4,d5,d6,d7,period_blocks,mu0,sigma,theta1,theta2,theta3,theta4,theta5,theta6,theta7,lambda0,lambda1,lambda2,lambda3,lambda4,lambda5,lambda6,lambda7,trend,alpha,ncc,unit_size,ci,bs_degree,n_wave,N_peak,study_arm,model,reject_h0,bias,MSE,failed,nsim
7,250,0,250,250,500,500,750,750,2,0,1,0.25,0.25,0.25,0.25,0.25,0.25,0.25,-0.5,-0.5,-0.5,-0.5,-0.5,-0.5,-0.5,-0.5,linear,0.025,TRUE,25,FALSE,1,NA,NA,2,fixmodel,0.8281,6.497977345136555e-4,0.007426869406107471,0,10000
7,250,0,250,250,500,500,750,750,2,0,1,0.25,0.25,0.25,0.25,0.25,0.25,0.25,-0.5,-0.5,-0.5,-0.5,-0.5,-0.5,-0.5,-0.5,linear,0.025,TRUE,25,FALSE,1,NA,NA,2,sepmodel,0.7966,8.007504253355957e-4,0.008016994941015949,0,10000
7,250,0,250,250,500,500,750,750,2,0,1,0.25,0.25,0.25,0.25,0.25,0.25,0.25,-0.5,-0.5,-0.5,-0.5,-0.5,-0.5,-0.5,-0.5,linear,0.025,TRUE,25,FALSE,1,NA,NA,2,splines,0.8351,4.830227847579017e-4,0.007288702723106795,0,10000
7,250,0,250,250,500,500,750,750,2,0,1,0.25,0.25,0.25,0.25,0.25,0.25,0.25,-0.5,-0.5,-0.5,-0.5,-0.5,-0.5,-0.5,-0.5,linear,0.025,TRUE,25,FALSE,1,NA,NA,2,splines_cal,0.8299,5.442892058061384e-4,0.007426972027400716,0,10000
7,250,0,250,250,500,500,750,750,2,0,1,0.25,0.25,0.25,0.25,0.25,0.25,0.25,-0.5,-0.5,-0.5,-0.5,-0.5,-0.5,-0.5,-0.5,linear,0.025,TRUE,25,FALSE,1,NA,NA,3,fixmodel,0.8306,7.166141647621644e-4,0.00729438062568658,0,10000
7,250,0,250,250,500,500,750,750,2,0,1,0.25,0.25,0.25,0.25,0.25,0.25,0.25,-0.5,-0.5,-0.5,-0.5,-0.5,-0.5,-0.5,-0.5,linear,0.025,TRUE,25,FALSE,1,NA,NA,3,sepmodel,0.7976,8.675668555823858e-4,0.007896326745536825,0,10000
7,250,0,250,250,500,500,750,750,2,0,1,0.25,0.25,0.25,0.25,0.25,0.25,0.25,-0.5,-0.5,-0.5,-0.5,-0.5,-0.5,-0.5,-0.5,linear,0.025,TRUE,25,FALSE,1,NA,NA,3,splines,0.8363,5.486472164787941e-4,0.007175429317337788,0,10000
7,250,0,250,250,500,500,750,750,2,0,1,0.25,0.25,0.25,0.25,0.25,0.25,0.25,-0.5,-0.5,-0.5,-0.5,-0.5,-0.5,-0.5,-0.5,linear,0.025,TRUE,25,FALSE,1,NA,NA,3,splines_cal,0.8291,6.100794473421579e-4,0.007291739676012702,0,10000
7,250,0,250,250,500,500,750,750,2,0,1,0.25,0.25,0.25,0.25,0.25,0.25,0.25,-0.5,-0.5,-0.5,-0.5,-0.5,-0.5,-0.5,-0.5,linear,0.025,TRUE,25,FALSE,1,NA,NA,4,fixmodel,0.8429,-1.4535513764738368e-4,0.007092097988201676,0,10000
7,250,0,250,250,500,500,750,750,2,0,1,0.25,0.25,0.25,0.25,0.25,0.25,0.25,-0.5,-0.5,-0.5,-0.5,-0.5,-0.5,-0.5,-0.5,linear,0.025,TRUE,25,FALSE,1,NA,NA,4,sepmodel,0.7943,2.282751826302697e-4,0.007995850981655473,0,10000
7,250,0,250,250,500,500,750,750,2,0,1,0.25,0.25,0.25,0.25,0.25,0.25,0.25,-0.5,-0.5,-0.5,-0.5,-0.5,-0.5,-0.5,-0.5,linear,0.025,TRUE,25,FALSE,1,NA,NA,4,splines,0.8463,-1.5714558363720188e-4,0.007022929449416432,0,10000
7,250,0,250,250,500,500,750,750,2,0,1,0.25,0.25,0.25,0.25,0.25,0.25,0.25,-0.5,-0.5,-0.5,-0.5,-0.5,-0.5,-0.5,-0.5,linear,0.025,TRUE,25,FALSE,1,NA,NA,4,splines_cal,0.844,-3.4919187397875335e-4,0.007071655966052817,0,10000
7,250,0,250,250,500,500,750,750,2,0,1,0.25,0.25,0.25,0.25,0.25,0.25,0.25,-0.5,-0.5,-0.5,-0.5,-0.5,-0.5,-0.5,-0.5,linear,0.025,TRUE,25,FALSE,1,NA,NA,5,fixmodel,0.845,0.0019376672257630813,0.00712008862925762,0,10000
7,250,0,250,250,500,500,750,750,2,0,1,0.25,0.25,0.25,0.25,0.25,0.25,0.25,-0.5,-0.5,-0.5,-0.5,-0.5,-0.5,-0.5,-0.5,linear,0.025,TRUE,25,FALSE,1,NA,NA,5,sepmodel,0.8013,0.0023112975460403357,0.007968572861619068,0,10000
7,250,0,250,250,500,500,750,750,2,0,1,0.25,0.25,0.25,0.25,0.25,0.25,0.25,-0.5,-0.5,-0.5,-0.5,-0.5,-0.5,-0.5,-0.5,linear,0.025,TRUE,25,FALSE,1,NA,NA,5,splines,0.8485,0.001925410576017647,0.007067291417369003,0,10000
7,250,0,250,250,500,500,750,750,2,0,1,0.25,0.25,0.25,0.25,0.25,0.25,0.25,-0.5,-0.5,-0.5,-0.5,-0.5,-0.5,-0.5,-0.5,linear,0.025,TRUE,25,FALSE,1,NA,NA,5,splines_cal,0.8452,0.0017171309845353626,0.007101208999098284,0,10000
7,250,0,250,250,500,500,750,750,2,0,1,0.25,0.25,0.25,0.25,0.25,0.25,0.25,-0.5,-0.5,-0.5,-0.5,-0.5,-0.5,-0.5,-0.5,linear,0.025,TRUE,25,FALSE,1,NA,NA,6,fixmodel,0.8399,-1.9975136329798785e-4,0.007146000212377591,0,10000
7,250,0,250,250,500,500,750,750,2,0,1,0.25,0.25,0.25,0.25,0.25,0.25,0.25,-0.5,-0.5,-0.5,-0.5,-0.5,-0.5,-0.5,-0.5,linear,0.025,TRUE,25,FALSE,1,NA,NA,6,sepmodel,0.7867,-1.656836485962323e-4,0.008251523632810702,0,10000
7,250,0,250,250,500,500,750,750,2,0,1,0.25,0.25,0.25,0.25,0.25,0.25,0.25,-0.5,-0.5,-0.5,-0.5,-0.5,-0.5,-0.5,-0.5,linear,0.025,TRUE,25,FALSE,1,NA,NA,6,splines,0.8412,-2.758293622542977e-4,0.007113709150329357,0,10000
7,250,0,250,250,500,500,750,750,2,0,1,0.25,0.25,0.25,0.25,0.25,0.25,0.25,-0.5,-0.5,-0.5,-0.5,-0.5,-0.5,-0.5,-0.5,linear,0.025,TRUE,25,FALSE,1,NA,NA,6,splines_cal,0.8394,-2.720905003033867e-4,0.007181228503160994,0,10000
7,250,0,250,250,500,500,750,750,2,0,1,0.25,0.25,0.25,0.25,0.25,0.25,0.25,-0.5,-0.5,-0.5,-0.5,-0.5,-0.5,-0.5,-0.5,linear,0.025,TRUE,25,FALSE,1,NA,NA,7,fixmodel,0.8471,0.0011910099890714405,0.0071402607947458115,0,10000
7,250,0,250,250,500,500,750,750,2,0,1,0.25,0.25,0.25,0.25,0.25,0.25,0.25,-0.5,-0.5,-0.5,-0.5,-0.5,-0.5,-0.5,-0.5,linear,0.025,TRUE,25,FALSE,1,NA,NA,7,sepmodel,0.795,0.0012250777037730697,0.008267405654286951,0,10000
7,250,0,250,250,500,500,750,750,2,0,1,0.25,0.25,0.25,0.25,0.25,0.25,0.25,-0.5,-0.5,-0.5,-0.5,-0.5,-0.5,-0.5,-0.5,linear,0.025,TRUE,25,FALSE,1,NA,NA,7,splines,0.8496,0.0011146338740793407,0.007108792467064223,0,10000
7,250,0,250,250,500,500,750,750,2,0,1,0.25,0.25,0.25,0.25,0.25,0.25,0.25,-0.5,-0.5,-0.5,-0.5,-0.5,-0.5,-0.5,-0.5,linear,0.025,TRUE,25,FALSE,1,NA,NA,7,splines_cal,0.8462,0.001150939706084729,0.007175906523502416,0,10000
7,250,0,250,250,500,500,750,750,2,0,1,0.25,0.25,0.25,0.25,0.25,0.25,0.25,-0.5,-0.5,-0.5,-0.5,-0.5,-0.5,-0.5,-0.5,linear,0.025,TRUE,25,FALSE,2,NA,NA,2,fixmodel,0.8267,-1.1827354928250778e-4,0.0073110399979085285,0,10000
7,250,0,250,250,500,500,750,750,2,0,1,0.25,0.25,0.25,0.25,0.25,0.25,0.25,-0.5,-0.5,-0.5,-0.5,-0.5,-0.5,-0.5,-0.5,linear,0.025,TRUE,25,FALSE,2,NA,NA,2,sepmodel,0.7907,-3.6550668995976004e-4,0.007890860359988067,0,10000
7,250,0,250,250,500,500,750,750,2,0,1,0.25,0.25,0.25,0.25,0.25,0.25,0.25,-0.5,-0.5,-0.5,-0.5,-0.5,-0.5,-0.5,-0.5,linear,0.025,TRUE,25,FALSE,2,NA,NA,2,splines,0.8303,-4.7474548834126644e-5,0.007224133256775045,0,10000
7,250,0,250,250,500,500,750,750,2,0,1,0.25,0.25,0.25,0.25,0.25,0.25,0.25,-0.5,-0.5,-0.5,-0.5,-0.5,-0.5,-0.5,-0.5,linear,0.025,TRUE,25,FALSE,2,NA,NA,2,splines_cal,0.826,-7.233991593211853e-5,0.00731800816563121,0,10000
7,250,0,250,250,500,500,750,750,2,0,1,0.25,0.25,0.25,0.25,0.25,0.25,0.25,-0.5,-0.5,-0.5,-0.5,-0.5,-0.5,-0.5,-0.5,linear,0.025,TRUE,25,FALSE,2,NA,NA,3,fixmodel,0.8285,7.905664882051313e-4,0.007429736743003916,0,10000
7,250,0,250,250,500,500,750,750,2,0,1,0.25,0.25,0.25,0.25,0.25,0.25,0.25,-0.5,-0.5,-0.5,-0.5,-0.5,-0.5,-0.5,-0.5,linear,0.025,TRUE,25,FALSE,2,NA,NA,3,sepmodel,0.7982,5.433333475261812e-4,0.00798430694399506,0,10000
7,250,0,250,250,500,500,750,750,2,0,1,0.25,0.25,0.25,0.25,0.25,0.25,0.25,-0.5,-0.5,-0.5,-0.5,-0.5,-0.5,-0.5,-0.5,linear,0.025,TRUE,25,FALSE,2,NA,NA,3,splines,0.8335,8.62203310048587e-4,0.007355626883423664,0,10000
7,250,0,250,250,500,500,750,750,2,0,1,0.25,0.25,0.25,0.25,0.25,0.25,0.25,-0.5,-0.5,-0.5,-0.5,-0.5,-0.5,-0.5,-0.5,linear,0.025,TRUE,25,FALSE,2,NA,NA,3,splines_cal,0.8323,9.01565015270252e-4,0.007423740469003248,0,10000
7,250,0,250,250,500,500,750,750,2,0,1,0.25,0.25,0.25,0.25,0.25,0.25,0.25,-0.5,-0.5,-0.5,-0.5,-0.5,-0.5,-0.5,-0.5,linear,0.025,TRUE,25,FALSE,2,NA,NA,4,fixmodel,0.8424,-4.4046855476922433e-4,0.007121694144013451,0,10000
7,250,0,250,250,500,500,750,750,2,0,1,0.25,0.25,0.25,0.25,0.25,0.25,0.25,-0.5,-0.5,-0.5,-0.5,-0.5,-0.5,-0.5,-0.5,linear,0.025,TRUE,25,FALSE,2,NA,NA,4,sepmodel,0.796,-2.051558989295886e-4,0.008071527712064522,0,10000
7,250,0,250,250,500,500,750,750,2,0,1,0.25,0.25,0.25,0.25,0.25,0.25,0.25,-0.5,-0.5,-0.5,-0.5,-0.5,-0.5,-0.5,-0.5,linear,0.025,TRUE,25,FALSE,2,NA,NA,4,splines,0.8443,-3.734442529810731e-4,0.00708130802251052,0,10000
7,250,0,250,250,500,500,750,750,2,0,1,0.25,0.25,0.25,0.25,0.25,0.25,0.25,-0.5,-0.5,-0.5,-0.5,-0.5,-0.5,-0.5,-0.5,linear,0.025,TRUE,25,FALSE,2,NA,NA,4,splines_cal,0.8417,-5.518538211271698e-4,0.007097318558778667,0,10000
7,250,0,250,250,500,500,750,750,2,0,1,0.25,0.25,0.25,0.25,0.25,0.25,0.25,-0.5,-0.5,-0.5,-0.5,-0.5,-0.5,-0.5,-0.5,linear,0.025,TRUE,25,FALSE,2,NA,NA,5,fixmodel,0.8461,-2.824664828021895e-5,0.007157323293451993,0,10000
7,250,0,250,250,500,500,750,750,2,0,1,0.25,0.25,0.25,0.25,0.25,0.25,0.25,-0.5,-0.5,-0.5,-0.5,-0.5,-0.5,-0.5,-0.5,linear,0.025,TRUE,25,FALSE,2,NA,NA,5,sepmodel,0.7926,2.0706600755907392e-4,0.00801901711261931,0,10000
7,250,0,250,250,500,500,750,750,2,0,1,0.25,0.25,0.25,0.25,0.25,0.25,0.25,-0.5,-0.5,-0.5,-0.5,-0.5,-0.5,-0.5,-0.5,linear,0.025,TRUE,25,FALSE,2,NA,NA,5,splines,0.8512,3.912913022674378e-5,0.0071130231999149,0,10000
7,250,0,250,250,500,500,750,750,2,0,1,0.25,0.25,0.25,0.25,0.25,0.25,0.25,-0.5,-0.5,-0.5,-0.5,-0.5,-0.5,-0.5,-0.5,linear,0.025,TRUE,25,FALSE,2,NA,NA,5,splines_cal,0.8461,6.404121918085651e-6,0.0071300689916807885,0,10000
7,250,0,250,250,500,500,750,750,2,0,1,0.25,0.25,0.25,0.25,0.25,0.25,0.25,-0.5,-0.5,-0.5,-0.5,-0.5,-0.5,-0.5,-0.5,linear,0.025,TRUE,25,FALSE,2,NA,NA,6,fixmodel,0.8524,5.251034829869514e-4,0.006832766134388067,0,10000
7,250,0,250,250,500,500,750,750,2,0,1,0.25,0.25,0.25,0.25,0.25,0.25,0.25,-0.5,-0.5,-0.5,-0.5,-0.5,-0.5,-0.5,-0.5,linear,0.025,TRUE,25,FALSE,2,NA,NA,6,sepmodel,0.8028,3.758280592515562e-4,0.007748237586433413,0,10000
7,250,0,250,250,500,500,750,750,2,0,1,0.25,0.25,0.25,0.25,0.25,0.25,0.25,-0.5,-0.5,-0.5,-0.5,-0.5,-0.5,-0.5,-0.5,linear,0.025,TRUE,25,FALSE,2,NA,NA,6,splines,0.8545,5.74881366273456e-4,0.00680515936537731,0,10000
7,250,0,250,250,500,500,750,750,2,0,1,0.25,0.25,0.25,0.25,0.25,0.25,0.25,-0.5,-0.5,-0.5,-0.5,-0.5,-0.5,-0.5,-0.5,linear,0.025,TRUE,25,FALSE,2,NA,NA,6,splines_cal,0.8524,4.839628252585616e-4,0.006844523496686669,0,10000
7,250,0,250,250,500,500,750,750,2,0,1,0.25,0.25,0.25,0.25,0.25,0.25,0.25,-0.5,-0.5,-0.5,-0.5,-0.5,-0.5,-0.5,-0.5,linear,0.025,TRUE,25,FALSE,2,NA,NA,7,fixmodel,0.8505,0.0010464820845996628,0.006896890154217753,0,10000
7,250,0,250,250,500,500,750,750,2,0,1,0.25,0.25,0.25,0.25,0.25,0.25,0.25,-0.5,-0.5,-0.5,-0.5,-0.5,-0.5,-0.5,-0.5,linear,0.025,TRUE,25,FALSE,2,NA,NA,7,sepmodel,0.7975,8.972066608641799e-4,0.007841360636467268,0,10000
7,250,0,250,250,500,500,750,750,2,0,1,0.25,0.25,0.25,0.25,0.25,0.25,0.25,-0.5,-0.5,-0.5,-0.5,-0.5,-0.5,-0.5,-0.5,linear,0.025,TRUE,25,FALSE,2,NA,NA,7,splines,0.8521,0.0010970077743209794,0.00688026343943512,0,10000
7,250,0,250,250,500,500,750,750,2,0,1,0.25,0.25,0.25,0.25,0.25,0.25,0.25,-0.5,-0.5,-0.5,-0.5,-0.5,-0.5,-0.5,-0.5,linear,0.025,TRUE,25,FALSE,2,NA,NA,7,splines_cal,0.8494,0.0010192737853307995,0.006916260062834476,0,10000
7,250,0,250,250,500,500,750,750,2,0,1,0.25,0.25,0.25,0.25,0.25,0.25,0.25,-0.5,-0.5,-0.5,-0.5,-0.5,-0.5,-0.5,-0.5,linear,0.025,TRUE,25,FALSE,3,NA,NA,2,fixmodel,0.8302,0.0016006702602746334,0.007440291661868974,0,10000
7,250,0,250,250,500,500,750,750,2,0,1,0.25,0.25,0.25,0.25,0.25,0.25,0.25,-0.5,-0.5,-0.5,-0.5,-0.5,-0.5,-0.5,-0.5,linear,0.025,TRUE,25,FALSE,3,NA,NA,2,sepmodel,0.7982,0.0015628979351901204,0.007975166114512435,0,10000
7,250,0,250,250,500,500,750,750,2,0,1,0.25,0.25,0.25,0.25,0.25,0.25,0.25,-0.5,-0.5,-0.5,-0.5,-0.5,-0.5,-0.5,-0.5,linear,0.025,TRUE,25,FALSE,3,NA,NA,2,splines,0.8352,0.001490031533816242,0.007344441523913427,0,10000
7,250,0,250,250,500,500,750,750,2,0,1,0.25,0.25,0.25,0.25,0.25,0.25,0.25,-0.5,-0.5,-0.5,-0.5,-0.5,-0.5,-0.5,-0.5,linear,0.025,TRUE,25,FALSE,3,NA,NA,2,splines_cal,0.8296,0.00145819430176805,0.007421754432798885,0,10000
7,250,0,250,250,500,500,750,750,2,0,1,0.25,0.25,0.25,0.25,0.25,0.25,0.25,-0.5,-0.5,-0.5,-0.5,-0.5,-0.5,-0.5,-0.5,linear,0.025,TRUE,25,FALSE,3,NA,NA,3,fixmodel,0.8307,0.002131176001943447,0.007419247878714844,0,10000
7,250,0,250,250,500,500,750,750,2,0,1,0.25,0.25,0.25,0.25,0.25,0.25,0.25,-0.5,-0.5,-0.5,-0.5,-0.5,-0.5,-0.5,-0.5,linear,0.025,TRUE,25,FALSE,3,NA,NA,3,sepmodel,0.801,0.0020934036768572124,0.007956499471285607,0,10000
7,250,0,250,250,500,500,750,750,2,0,1,0.25,0.25,0.25,0.25,0.25,0.25,0.25,-0.5,-0.5,-0.5,-0.5,-0.5,-0.5,-0.5,-0.5,linear,0.025,TRUE,25,FALSE,3,NA,NA,3,splines,0.8331,0.002018586371797327,0.007336720049882648,0,10000
7,250,0,250,250,500,500,750,750,2,0,1,0.25,0.25,0.25,0.25,0.25,0.25,0.25,-0.5,-0.5,-0.5,-0.5,-0.5,-0.5,-0.5,-0.5,linear,0.025,TRUE,25,FALSE,3,NA,NA,3,splines_cal,0.8292,0.0020395349682557676,0.007400271467620503,0,10000
7,250,0,250,250,500,500,750,750,2,0,1,0.25,0.25,0.25,0.25,0.25,0.25,0.25,-0.5,-0.5,-0.5,-0.5,-0.5,-0.5,-0.5,-0.5,linear,0.025,TRUE,25,FALSE,3,NA,NA,4,fixmodel,0.8381,-2.905159723057849e-5,0.007231611531787846,0,10000
7,250,0,250,250,500,500,750,750,2,0,1,0.25,0.25,0.25,0.25,0.25,0.25,0.25,-0.5,-0.5,-0.5,-0.5,-0.5,-0.5,-0.5,-0.5,linear,0.025,TRUE,25,FALSE,3,NA,NA,4,sepmodel,0.7946,-5.173028606356647e-5,0.008097486834970658,0,10000
7,250,0,250,250,500,500,750,750,2,0,1,0.25,0.25,0.25,0.25,0.25,0.25,0.25,-0.5,-0.5,-0.5,-0.5,-0.5,-0.5,-0.5,-0.5,linear,0.025,TRUE,25,FALSE,3,NA,NA,4,splines,0.8412,-8.334716589948851e-5,0.007176979630087742,0,10000
7,250,0,250,250,500,500,750,750,2,0,1,0.25,0.25,0.25,0.25,0.25,0.25,0.25,-0.5,-0.5,-0.5,-0.5,-0.5,-0.5,-0.5,-0.5,linear,0.025,TRUE,25,FALSE,3,NA,NA,4,splines_cal,0.8411,-6.387250081557255e-5,0.007211089493840962,0,10000
7,250,0,250,250,500,500,750,750,2,0,1,0.25,0.25,0.25,0.25,0.25,0.25,0.25,-0.5,-0.5,-0.5,-0.5,-0.5,-0.5,-0.5,-0.5,linear,0.025,TRUE,25,FALSE,3,NA,NA,5,fixmodel,0.8354,8.103972589418456e-5,0.007379739386051403,0,10000
7,250,0,250,250,500,500,750,750,2,0,1,0.25,0.25,0.25,0.25,0.25,0.25,0.25,-0.5,-0.5,-0.5,-0.5,-0.5,-0.5,-0.5,-0.5,linear,0.025,TRUE,25,FALSE,3,NA,NA,5,sepmodel,0.7914,5.836103706080592e-5,0.008199046860131738,0,10000
7,250,0,250,250,500,500,750,750,2,0,1,0.25,0.25,0.25,0.25,0.25,0.25,0.25,-0.5,-0.5,-0.5,-0.5,-0.5,-0.5,-0.5,-0.5,linear,0.025,TRUE,25,FALSE,3,NA,NA,5,splines,0.8385,2.66326128263251e-5,0.0073280207982153005,0,10000
7,250,0,250,250,500,500,750,750,2,0,1,0.25,0.25,0.25,0.25,0.25,0.25,0.25,-0.5,-0.5,-0.5,-0.5,-0.5,-0.5,-0.5,-0.5,linear,0.025,TRUE,25,FALSE,3,NA,NA,5,splines_cal,0.8374,1.7018598641817536e-4,0.007359202729508366,0,10000
7,250,0,250,250,500,500,750,750,2,0,1,0.25,0.25,0.25,0.25,0.25,0.25,0.25,-0.5,-0.5,-0.5,-0.5,-0.5,-0.5,-0.5,-0.5,linear,0.025,TRUE,25,FALSE,3,NA,NA,6,fixmodel,0.849,3.069672422801528e-4,0.00712815851521289,0,10000
7,250,0,250,250,500,500,750,750,2,0,1,0.25,0.25,0.25,0.25,0.25,0.25,0.25,-0.5,-0.5,-0.5,-0.5,-0.5,-0.5,-0.5,-0.5,linear,0.025,TRUE,25,FALSE,3,NA,NA,6,sepmodel,0.7931,3.543851345687519e-4,0.008071124961899994,0,10000
7,250,0,250,250,500,500,750,750,2,0,1,0.25,0.25,0.25,0.25,0.25,0.25,0.25,-0.5,-0.5,-0.5,-0.5,-0.5,-0.5,-0.5,-0.5,linear,0.025,TRUE,25,FALSE,3,NA,NA,6,splines,0.8512,2.4481375012584477e-4,0.007079304373684972,0,10000
7,250,0,250,250,500,500,750,750,2,0,1,0.25,0.25,0.25,0.25,0.25,0.25,0.25,-0.5,-0.5,-0.5,-0.5,-0.5,-0.5,-0.5,-0.5,linear,0.025,TRUE,25,FALSE,3,NA,NA,6,splines_cal,0.8488,3.2422642178079496e-4,0.007146622850053655,0,10000
7,250,0,250,250,500,500,750,750,2,0,1,0.25,0.25,0.25,0.25,0.25,0.25,0.25,-0.5,-0.5,-0.5,-0.5,-0.5,-0.5,-0.5,-0.5,linear,0.025,TRUE,25,FALSE,3,NA,NA,7,fixmodel,0.8436,9.199336870073765e-5,0.00715932811047717,0,10000
7,250,0,250,250,500,500,750,750,2,0,1,0.25,0.25,0.25,0.25,0.25,0.25,0.25,-0.5,-0.5,-0.5,-0.5,-0.5,-0.5,-0.5,-0.5,linear,0.025,TRUE,25,FALSE,3,NA,NA,7,sepmodel,0.7933,1.3941126098923612e-4,0.008119002670051815,0,10000
7,250,0,250,250,500,500,750,750,2,0,1,0.25,0.25,0.25,0.25,0.25,0.25,0.25,-0.5,-0.5,-0.5,-0.5,-0.5,-0.5,-0.5,-0.5,linear,0.025,TRUE,25,FALSE,3,NA,NA,7,splines,0.845,3.103782897798864e-5,0.007113339924494851,0,10000
7,250,0,250,250,500,500,750,750,2,0,1,0.25,0.25,0.25,0.25,0.25,0.25,0.25,-0.5,-0.5,-0.5,-0.5,-0.5,-0.5,-0.5,-0.5,linear,0.025,TRUE,25,FALSE,3,NA,NA,7,splines_cal,0.8424,1.0199037656947737e-4,0.007175786412654182,0,10000
7,250,0,250,250,500,500,750,750,2,0,1,0.25,0.25,0.25,0.25,0.25,0.25,0.25,-0.375,-0.375,-0.375,-0.375,-0.375,-0.375,-0.375,-0.375,linear,0.025,TRUE,25,FALSE,1,NA,NA,2,fixmodel,0.8329,0.0021741801506160955,0.0074163526679247175,0,10000
7,250,0,250,250,500,500,750,750,2,0,1,0.25,0.25,0.25,0.25,0.25,0.25,0.25,-0.375,-0.375,-0.375,-0.375,-0.375,-0.375,-0.375,-0.375,linear,0.025,TRUE,25,FALSE,1,NA,NA,2,sepmodel,0.7989,0.001934171359706364,0.007927120000830613,0,10000
7,250,0,250,250,500,500,750,750,2,0,1,0.25,0.25,0.25,0.25,0.25,0.25,0.25,-0.375,-0.375,-0.375,-0.375,-0.375,-0.375,-0.375,-0.375,linear,0.025,TRUE,25,FALSE,1,NA,NA,2,splines,0.8399,0.0023596461272086962,0.0072614237045363775,0,10000
7,250,0,250,250,500,500,750,750,2,0,1,0.25,0.25,0.25,0.25,0.25,0.25,0.25,-0.375,-0.375,-0.375,-0.375,-0.375,-0.375,-0.375,-0.375,linear,0.025,TRUE,25,FALSE,1,NA,NA,2,splines_cal,0.8335,0.002084023592418363,0.007408586991436757,0,10000
7,250,0,250,250,500,500,750,750,2,0,1,0.25,0.25,0.25,0.25,0.25,0.25,0.25,-0.375,-0.375,-0.375,-0.375,-0.375,-0.375,-0.375,-0.375,linear,0.025,TRUE,25,FALSE,1,NA,NA,3,fixmodel,0.8313,0.001491104478021688,0.0074510075596856025,0,10000
7,250,0,250,250,500,500,750,750,2,0,1,0.25,0.25,0.25,0.25,0.25,0.25,0.25,-0.375,-0.375,-0.375,-0.375,-0.375,-0.375,-0.375,-0.375,linear,0.025,TRUE,25,FALSE,1,NA,NA,3,sepmodel,0.79990000000000006,0.0012510956871104103,0.007997710797577407,0,10000
7,250,0,250,250,500,500,750,750,2,0,1,0.25,0.25,0.25,0.25,0.25,0.25,0.25,-0.375,-0.375,-0.375,-0.375,-0.375,-0.375,-0.375,-0.375,linear,0.025,TRUE,25,FALSE,1,NA,NA,3,splines,0.8401,0.0016750621819831087,0.007272407648980111,0,10000
7,250,0,250,250,500,500,750,750,2,0,1,0.25,0.25,0.25,0.25,0.25,0.25,0.25,-0.375,-0.375,-0.375,-0.375,-0.375,-0.375,-0.375,-0.375,linear,0.025,TRUE,25,FALSE,1,NA,NA,3,splines_cal,0.8337,0.0014183886552718047,0.0074172491469007154,0,10000
7,250,0,250,250,500,500,750,750,2,0,1,0.25,0.25,0.25,0.25,0.25,0.25,0.25,-0.375,-0.375,-0.375,-0.375,-0.375,-0.375,-0.375,-0.375,linear,0.025,TRUE,25,FALSE,1,NA,NA,4,fixmodel,0.8426,0.001015594866052523,0.007127437413716072,0,10000
7,250,0,250,250,500,500,750,750,2,0,1,0.25,0.25,0.25,0.25,0.25,0.25,0.25,-0.375,-0.375,-0.375,-0.375,-0.375,-0.375,-0.375,-0.375,linear,0.025,TRUE,25,FALSE,1,NA,NA,4,sepmodel,0.7973,5.810746225937479e-4,0.00786147705272742,0,10000
7,250,0,250,250,500,500,750,750,2,0,1,0.25,0.25,0.25,0.25,0.25,0.25,0.25,-0.375,-0.375,-0.375,-0.375,-0.375,-0.375,-0.375,-0.375,linear,0.025,TRUE,25,FALSE,1,NA,NA,4,splines,0.8461,0.0010490647509616199,0.007080007017222678,0,10000
7,250,0,250,250,500,500,750,750,2,0,1,0.25,0.25,0.25,0.25,0.25,0.25,0.25,-0.375,-0.375,-0.375,-0.375,-0.375,-0.375,-0.375,-0.375,linear,0.025,TRUE,25,FALSE,1,NA,NA,4,splines_cal,0.8449,9.702222501217692e-4,0.0070945334456468286,0,10000
7,250,0,250,250,500,500,750,750,2,0,1,0.25,0.25,0.25,0.25,0.25,0.25,0.25,-0.375,-0.375,-0.375,-0.375,-0.375,-0.375,-0.375,-0.375,linear,0.025,TRUE,25,FALSE,1,NA,NA,5,fixmodel,0.841,5.952299776864101e-4,0.007057566445244489,0,10000
7,250,0,250,250,500,500,750,750,2,0,1,0.25,0.25,0.25,0.25,0.25,0.25,0.25,-0.375,-0.375,-0.375,-0.375,-0.375,-0.375,-0.375,-0.375,linear,0.025,TRUE,25,FALSE,1,NA,NA,5,sepmodel,0.7967,1.607097342273805e-4,0.007831033096981624,0,10000
7,250,0,250,250,500,500,750,750,2,0,1,0.25,0.25,0.25,0.25,0.25,0.25,0.25,-0.375,-0.375,-0.375,-0.375,-0.375,-0.375,-0.375,-0.375,linear,0.025,TRUE,25,FALSE,1,NA,NA,5,splines,0.8448,6.270939320887471e-4,0.0070120671403508875,0,10000
7,250,0,250,250,500,500,750,750,2,0,1,0.25,0.25,0.25,0.25,0.25,0.25,0.25,-0.375,-0.375,-0.375,-0.375,-0.375,-0.375,-0.375,-0.375,linear,0.025,TRUE,25,FALSE,1,NA,NA,5,splines_cal,0.8421,4.325276164735305e-4,0.007022039537476453,0,10000
7,250,0,250,250,500,500,750,750,2,0,1,0.25,0.25,0.25,0.25,0.25,0.25,0.25,-0.375,-0.375,-0.375,-0.375,-0.375,-0.375,-0.375,-0.375,linear,0.025,TRUE,25,FALSE,1,NA,NA,6,fixmodel,0.8556,0.001223777242881954,0.006842280678499675,0,10000
7,250,0,250,250,500,500,750,750,2,0,1,0.25,0.25,0.25,0.25,0.25,0.25,0.25,-0.375,-0.375,-0.375,-0.375,-0.375,-0.375,-0.375,-0.375,linear,0.025,TRUE,25,FALSE,1,NA,NA,6,sepmodel,0.8038,9.967417152884838e-4,0.007806001618732089,0,10000
7,250,0,250,250,500,500,750,750,2,0,1,0.25,0.25,0.25,0.25,0.25,0.25,0.25,-0.375,-0.375,-0.375,-0.375,-0.375,-0.375,-0.375,-0.375,linear,0.025,TRUE,25,FALSE,1,NA,NA,6,splines,0.8597,0.0012718856837011846,0.006808326405097243,0,10000
7,250,0,250,250,500,500,750,750,2,0,1,0.25,0.25,0.25,0.25,0.25,0.25,0.25,-0.375,-0.375,-0.375,-0.375,-0.375,-0.375,-0.375,-0.375,linear,0.025,TRUE,25,FALSE,1,NA,NA,6,splines_cal,0.8552,0.0011774381347536905,0.00686686650822346,0,10000
7,250,0,250,250,500,500,750,750,2,0,1,0.25,0.25,0.25,0.25,0.25,0.25,0.25,-0.375,-0.375,-0.375,-0.375,-0.375,-0.375,-0.375,-0.375,linear,0.025,TRUE,25,FALSE,1,NA,NA,7,fixmodel,0.8516,4.3099322509177715e-4,0.006920305141074086,0,10000
7,250,0,250,250,500,500,750,750,2,0,1,0.25,0.25,0.25,0.25,0.25,0.25,0.25,-0.375,-0.375,-0.375,-0.375,-0.375,-0.375,-0.375,-0.375,linear,0.025,TRUE,25,FALSE,1,NA,NA,7,sepmodel,0.7995,2.0395769749821928e-4,0.007888005320007782,0,10000
7,250,0,250,250,500,500,750,750,2,0,1,0.25,0.25,0.25,0.25,0.25,0.25,0.25,-0.375,-0.375,-0.375,-0.375,-0.375,-0.375,-0.375,-0.375,linear,0.025,TRUE,25,FALSE,1,NA,NA,7,splines,0.8533,4.7609484033362434e-4,0.006892675205347055,0,10000
7,250,0,250,250,500,500,750,750,2,0,1,0.25,0.25,0.25,0.25,0.25,0.25,0.25,-0.375,-0.375,-0.375,-0.375,-0.375,-0.375,-0.375,-0.375,linear,0.025,TRUE,25,FALSE,1,NA,NA,7,splines_cal,0.8509,4.642432810686772e-4,0.0069436218824780694,0,10000
7,250,0,250,250,500,500,750,750,2,0,1,0.25,0.25,0.25,0.25,0.25,0.25,0.25,-0.375,-0.375,-0.375,-0.375,-0.375,-0.375,-0.375,-0.375,linear,0.025,TRUE,25,FALSE,2,NA,NA,2,fixmodel,0.8262,-4.5036153792646903e-4,0.007405869872441163,0,10000
7,250,0,250,250,500,500,750,750,2,0,1,0.25,0.25,0.25,0.25,0.25,0.25,0.25,-0.375,-0.375,-0.375,-0.375,-0.375,-0.375,-0.375,-0.375,linear,0.025,TRUE,25,FALSE,2,NA,NA,2,sepmodel,0.795,-4.7596909721185084e-4,0.007887486401079082,0,10000
7,250,0,250,250,500,500,750,750,2,0,1,0.25,0.25,0.25,0.25,0.25,0.25,0.25,-0.375,-0.375,-0.375,-0.375,-0.375,-0.375,-0.375,-0.375,linear,0.025,TRUE,25,FALSE,2,NA,NA,2,splines,0.8307,-4.95569507238918e-4,0.007323185225413569,0,10000
7,250,0,250,250,500,500,750,750,2,0,1,0.25,0.25,0.25,0.25,0.25,0.25,0.25,-0.375,-0.375,-0.375,-0.375,-0.375,-0.375,-0.375,-0.375,linear,0.025,TRUE,25,FALSE,2,NA,NA,2,splines_cal,0.8278,-4.4192752213286483e-4,0.007386053858427057,0,10000
7,250,0,250,250,500,500,750,750,2,0,1,0.25,0.25,0.25,0.25,0.25,0.25,0.25,-0.375,-0.375,-0.375,-0.375,-0.375,-0.375,-0.375,-0.375,linear,0.025,TRUE,25,FALSE,2,NA,NA,3,fixmodel,0.8247,2.682962540906369e-4,0.007434596153191169,0,10000
7,250,0,250,250,500,500,750,750,2,0,1,0.25,0.25,0.25,0.25,0.25,0.25,0.25,-0.375,-0.375,-0.375,-0.375,-0.375,-0.375,-0.375,-0.375,linear,0.025,TRUE,25,FALSE,2,NA,NA,3,sepmodel,0.7961,2.4268869480376565e-4,0.00791273701795947,0,10000
7,250,0,250,250,500,500,750,750,2,0,1,0.25,0.25,0.25,0.25,0.25,0.25,0.25,-0.375,-0.375,-0.375,-0.375,-0.375,-0.375,-0.375,-0.375,linear,0.025,TRUE,25,FALSE,2,NA,NA,3,splines,0.8297,2.2435691317927657e-4,0.007363722593967518,0,10000
7,250,0,250,250,500,500,750,750,2,0,1,0.25,0.25,0.25,0.25,0.25,0.25,0.25,-0.375,-0.375,-0.375,-0.375,-0.375,-0.375,-0.375,-0.375,linear,0.025,TRUE,25,FALSE,2,NA,NA,3,splines_cal,0.8275,2.967687478436802e-4,0.007437235405725183,0,10000
7,250,0,250,250,500,500,750,750,2,0,1,0.25,0.25,0.25,0.25,0.25,0.25,0.25,-0.375,-0.375,-0.375,-0.375,-0.375,-0.375,-0.375,-0.375,linear,0.025,TRUE,25,FALSE,2,NA,NA,4,fixmodel,0.8385,1.2366264559940228e-4,0.007203160625041605,0,10000
7,250,0,250,250,500,500,750,750,2,0,1,0.25,0.25,0.25,0.25,0.25,0.25,0.25,-0.375,-0.375,-0.375,-0.375,-0.375,-0.375,-0.375,-0.375,linear,0.025,TRUE,25,FALSE,2,NA,NA,4,sepmodel,0.7933,-3.8300227906166697e-4,0.008118362209961585,0,10000
7,250,0,250,250,500,500,750,750,2,0,1,0.25,0.25,0.25,0.25,0.25,0.25,0.25,-0.375,-0.375,-0.375,-0.375,-0.375,-0.375,-0.375,-0.375,linear,0.025,TRUE,25,FALSE,2,NA,NA,4,splines,0.841,1.4555584560046369e-4,0.007182484605856055,0,10000
7,250,0,250,250,500,500,750,750,2,0,1,0.25,0.25,0.25,0.25,0.25,0.25,0.25,-0.375,-0.375,-0.375,-0.375,-0.375,-0.375,-0.375,-0.375,linear,0.025,TRUE,25,FALSE,2,NA,NA,4,splines_cal,0.8427,2.224571977823566e-4,0.0071741715305636755,0,10000
7,250,0,250,250,500,500,750,750,2,0,1,0.25,0.25,0.25,0.25,0.25,0.25,0.25,-0.375,-0.375,-0.375,-0.375,-0.375,-0.375,-0.375,-0.375,linear,0.025,TRUE,25,FALSE,2,NA,NA,5,fixmodel,0.8401,-1.7072434203809845e-4,0.007069737429903218,0,10000
7,250,0,250,250,500,500,750,750,2,0,1,0.25,0.25,0.25,0.25,0.25,0.25,0.25,-0.375,-0.375,-0.375,-0.375,-0.375,-0.375,-0.375,-0.375,linear,0.025,TRUE,25,FALSE,2,NA,NA,5,sepmodel,0.7938,-6.773892666995439e-4,0.007903627567007453,0,10000
7,250,0,250,250,500,500,750,750,2,0,1,0.25,0.25,0.25,0.25,0.25,0.25,0.25,-0.375,-0.375,-0.375,-0.375,-0.375,-0.375,-0.375,-0.375,linear,0.025,TRUE,25,FALSE,2,NA,NA,5,splines,0.8426,-1.4756777217748515e-4,0.007046874387620324,0,10000
7,250,0,250,250,500,500,750,750,2,0,1,0.25,0.25,0.25,0.25,0.25,0.25,0.25,-0.375,-0.375,-0.375,-0.375,-0.375,-0.375,-0.375,-0.375,linear,0.025,TRUE,25,FALSE,2,NA,NA,5,splines_cal,0.8387,-1.704716233415188e-4,0.0070551414811861005,0,10000
7,250,0,250,250,500,500,750,750,2,0,1,0.25,0.25,0.25,0.25,0.25,0.25,0.25,-0.375,-0.375,-0.375,-0.375,-0.375,-0.375,-0.375,-0.375,linear,0.025,TRUE,25,FALSE,2,NA,NA,6,fixmodel,0.8467,-2.686329437049666e-4,0.0070857134745685784,0,10000
7,250,0,250,250,500,500,750,750,2,0,1,0.25,0.25,0.25,0.25,0.25,0.25,0.25,-0.375,-0.375,-0.375,-0.375,-0.375,-0.375,-0.375,-0.375,linear,0.025,TRUE,25,FALSE,2,NA,NA,6,sepmodel,0.7907,-7.794166921332411e-4,0.0081203963843427,0,10000
7,250,0,250,250,500,500,750,750,2,0,1,0.25,0.25,0.25,0.25,0.25,0.25,0.25,-0.375,-0.375,-0.375,-0.375,-0.375,-0.375,-0.375,-0.375,linear,0.025,TRUE,25,FALSE,2,NA,NA,6,splines,0.8479,-2.6662484771811356e-4,0.007059700479865932,0,10000
7,250,0,250,250,500,500,750,750,2,0,1,0.25,0.25,0.25,0.25,0.25,0.25,0.25,-0.375,-0.375,-0.375,-0.375,-0.375,-0.375,-0.375,-0.375,linear,0.025,TRUE,25,FALSE,2,NA,NA,6,splines_cal,0.8462,-3.0521263536372606e-4,0.007105162152830746,0,10000
7,250,0,250,250,500,500,750,750,2,0,1,0.25,0.25,0.25,0.25,0.25,0.25,0.25,-0.375,-0.375,-0.375,-0.375,-0.375,-0.375,-0.375,-0.375,linear,0.025,TRUE,25,FALSE,2,NA,NA,7,fixmodel,0.8485,6.902369143700014e-4,0.0069656308189531115,0,10000
7,250,0,250,250,500,500,750,750,2,0,1,0.25,0.25,0.25,0.25,0.25,0.25,0.25,-0.375,-0.375,-0.375,-0.375,-0.375,-0.375,-0.375,-0.375,linear,0.025,TRUE,25,FALSE,2,NA,NA,7,sepmodel,0.7911,1.7945316594155392e-4,0.008023842979204483,0,10000
7,250,0,250,250,500,500,750,750,2,0,1,0.25,0.25,0.25,0.25,0.25,0.25,0.25,-0.375,-0.375,-0.375,-0.375,-0.375,-0.375,-0.375,-0.375,linear,0.025,TRUE,25,FALSE,2,NA,NA,7,splines,0.8488,6.910274068287485e-4,0.006939359784286376,0,10000
7,250,0,250,250,500,500,750,750,2,0,1,0.25,0.25,0.25,0.25,0.25,0.25,0.25,-0.375,-0.375,-0.375,-0.375,-0.375,-0.375,-0.375,-0.375,linear,0.025,TRUE,25,FALSE,2,NA,NA,7,splines_cal,0.8497,6.7144037478003e-4,0.006971751004858289,0,10000
7,250,0,250,250,500,500,750,750,2,0,1,0.25,0.25,0.25,0.25,0.25,0.25,0.25,-0.375,-0.375,-0.375,-0.375,-0.375,-0.375,-0.375,-0.375,linear,0.025,TRUE,25,FALSE,3,NA,NA,2,fixmodel,0.823,-1.4223215573012834e-4,0.007611207928882041,0,10000
7,250,0,250,250,500,500,750,750,2,0,1,0.25,0.25,0.25,0.25,0.25,0.25,0.25,-0.375,-0.375,-0.375,-0.375,-0.375,-0.375,-0.375,-0.375,linear,0.025,TRUE,25,FALSE,3,NA,NA,2,sepmodel,0.791,1.7813793226354352e-5,0.008185778292611526,0,10000
7,250,0,250,250,500,500,750,750,2,0,1,0.25,0.25,0.25,0.25,0.25,0.25,0.25,-0.375,-0.375,-0.375,-0.375,-0.375,-0.375,-0.375,-0.375,linear,0.025,TRUE,25,FALSE,3,NA,NA,2,splines,0.8264,6.228326476046555e-5,0.0075276399204702955,0,10000
7,250,0,250,250,500,500,750,750,2,0,1,0.25,0.25,0.25,0.25,0.25,0.25,0.25,-0.375,-0.375,-0.375,-0.375,-0.375,-0.375,-0.375,-0.375,linear,0.025,TRUE,25,FALSE,3,NA,NA,2,splines_cal,0.8226,-3.824423971445717e-6,0.007603155726351497,0,10000
7,250,0,250,250,500,500,750,750,2,0,1,0.25,0.25,0.25,0.25,0.25,0.25,0.25,-0.375,-0.375,-0.375,-0.375,-0.375,-0.375,-0.375,-0.375,linear,0.025,TRUE,25,FALSE,3,NA,NA,3,fixmodel,0.8237,5.476746769928125e-5,0.0074820358934527655,0,10000
7,250,0,250,250,500,500,750,750,2,0,1,0.25,0.25,0.25,0.25,0.25,0.25,0.25,-0.375,-0.375,-0.375,-0.375,-0.375,-0.375,-0.375,-0.375,linear,0.025,TRUE,25,FALSE,3,NA,NA,3,sepmodel,0.7943,2.1481341665422258e-4,0.008001816933744571,0,10000
7,250,0,250,250,500,500,750,750,2,0,1,0.25,0.25,0.25,0.25,0.25,0.25,0.25,-0.375,-0.375,-0.375,-0.375,-0.375,-0.375,-0.375,-0.375,linear,0.025,TRUE,25,FALSE,3,NA,NA,3,splines,0.8306,2.6166070714058067e-4,0.007406125873118591,0,10000
7,250,0,250,250,500,500,750,750,2,0,1,0.25,0.25,0.25,0.25,0.25,0.25,0.25,-0.375,-0.375,-0.375,-0.375,-0.375,-0.375,-0.375,-0.375,linear,0.025,TRUE,25,FALSE,3,NA,NA,3,splines_cal,0.8268,1.4199485959911283e-4,0.007451542943549731,0,10000
7,250,0,250,250,500,500,750,750,2,0,1,0.25,0.25,0.25,0.25,0.25,0.25,0.25,-0.375,-0.375,-0.375,-0.375,-0.375,-0.375,-0.375,-0.375,linear,0.025,TRUE,25,FALSE,3,NA,NA,4,fixmodel,0.8394,3.753689729268638e-4,0.007250664556517247,0,10000
7,250,0,250,250,500,500,750,750,2,0,1,0.25,0.25,0.25,0.25,0.25,0.25,0.25,-0.375,-0.375,-0.375,-0.375,-0.375,-0.375,-0.375,-0.375,linear,0.025,TRUE,25,FALSE,3,NA,NA,4,sepmodel,0.7969,5.17003765322795e-4,0.008084472860342806,0,10000
7,250,0,250,250,500,500,750,750,2,0,1,0.25,0.25,0.25,0.25,0.25,0.25,0.25,-0.375,-0.375,-0.375,-0.375,-0.375,-0.375,-0.375,-0.375,linear,0.025,TRUE,25,FALSE,3,NA,NA,4,splines,0.8418,4.217622707954723e-4,0.007200312814029991,0,10000
7,250,0,250,250,500,500,750,750,2,0,1,0.25,0.25,0.25,0.25,0.25,0.25,0.25,-0.375,-0.375,-0.375,-0.375,-0.375,-0.375,-0.375,-0.375,linear,0.025,TRUE,25,FALSE,3,NA,NA,4,splines_cal,0.8406,5.214221674536256e-4,0.007238155317128601,0,10000
7,250,0,250,250,500,500,750,750,2,0,1,0.25,0.25,0.25,0.25,0.25,0.25,0.25,-0.375,-0.375,-0.375,-0.375,-0.375,-0.375,-0.375,-0.375,linear,0.025,TRUE,25,FALSE,3,NA,NA,5,fixmodel,0.8299,-4.946082983575711e-4,0.007363906486892577,0,10000
7,250,0,250,250,500,500,750,750,2,0,1,0.25,0.25,0.25,0.25,0.25,0.25,0.25,-0.375,-0.375,-0.375,-0.375,-0.375,-0.375,-0.375,-0.375,linear,0.025,TRUE,25,FALSE,3,NA,NA,5,sepmodel,0.7896,-3.5297350596198707e-4,0.008201498233177945,0,10000
7,250,0,250,250,500,500,750,750,2,0,1,0.25,0.25,0.25,0.25,0.25,0.25,0.25,-0.375,-0.375,-0.375,-0.375,-0.375,-0.375,-0.375,-0.375,linear,0.025,TRUE,25,FALSE,3,NA,NA,5,splines,0.8335,-4.45995029450791e-4,0.007308866257130678,0,10000
7,250,0,250,250,500,500,750,750,2,0,1,0.25,0.25,0.25,0.25,0.25,0.25,0.25,-0.375,-0.375,-0.375,-0.375,-0.375,-0.375,-0.375,-0.375,linear,0.025,TRUE,25,FALSE,3,NA,NA,5,splines_cal,0.834,-3.8602640745951907e-4,0.007354821368693538,0,10000
7,250,0,250,250,500,500,750,750,2,0,1,0.25,0.25,0.25,0.25,0.25,0.25,0.25,-0.375,-0.375,-0.375,-0.375,-0.375,-0.375,-0.375,-0.375,linear,0.025,TRUE,25,FALSE,3,NA,NA,6,fixmodel,0.8432,-4.8695453726753884e-4,0.007078309862708681,0,10000
7,250,0,250,250,500,500,750,750,2,0,1,0.25,0.25,0.25,0.25,0.25,0.25,0.25,-0.375,-0.375,-0.375,-0.375,-0.375,-0.375,-0.375,-0.375,linear,0.025,TRUE,25,FALSE,3,NA,NA,6,sepmodel,0.7953,-5.105416565380649e-4,0.00803291453672576,0,10000
7,250,0,250,250,500,500,750,750,2,0,1,0.25,0.25,0.25,0.25,0.25,0.25,0.25,-0.375,-0.375,-0.375,-0.375,-0.375,-0.375,-0.375,-0.375,linear,0.025,TRUE,25,FALSE,3,NA,NA,6,splines,0.845,-4.085035861570347e-4,0.007029049604544905,0,10000
7,250,0,250,250,500,500,750,750,2,0,1,0.25,0.25,0.25,0.25,0.25,0.25,0.25,-0.375,-0.375,-0.375,-0.375,-0.375,-0.375,-0.375,-0.375,linear,0.025,TRUE,25,FALSE,3,NA,NA,6,splines_cal,0.8427,-3.879124399890943e-4,0.007072723174311517,0,10000
7,250,0,250,250,500,500,750,750,2,0,1,0.25,0.25,0.25,0.25,0.25,0.25,0.25,-0.375,-0.375,-0.375,-0.375,-0.375,-0.375,-0.375,-0.375,linear,0.025,TRUE,25,FALSE,3,NA,NA,7,fixmodel,0.8433,-0.0017752812576389224,0.007041384390474321,0,10000
7,250,0,250,250,500,500,750,750,2,0,1,0.25,0.25,0.25,0.25,0.25,0.25,0.25,-0.375,-0.375,-0.375,-0.375,-0.375,-0.375,-0.375,-0.375,linear,0.025,TRUE,25,FALSE,3,NA,NA,7,sepmodel,0.7927,-0.001798868376909539,0.007999011032305887,0,10000
7,250,0,250,250,500,500,750,750,2,0,1,0.25,0.25,0.25,0.25,0.25,0.25,0.25,-0.375,-0.375,-0.375,-0.375,-0.375,-0.375,-0.375,-0.375,linear,0.025,TRUE,25,FALSE,3,NA,NA,7,splines,0.846,-0.0017034107343649578,0.006988028536925288,0,10000
7,250,0,250,250,500,500,750,750,2,0,1,0.25,0.25,0.25,0.25,0.25,0.25,0.25,-0.375,-0.375,-0.375,-0.375,-0.375,-0.375,-0.375,-0.375,linear,0.025,TRUE,25,FALSE,3,NA,NA,7,splines_cal,0.8431,-0.0017874512163194062,0.007040871302551549,0,10000
7,250,0,250,250,500,500,750,750,2,0,1,0.25,0.25,0.25,0.25,0.25,0.25,0.25,-0.25,-0.25,-0.25,-0.25,-0.25,-0.25,-0.25,-0.25,linear,0.025,TRUE,25,FALSE,1,NA,NA,2,fixmodel,0.8299,1.943562086145248e-4,0.007358424291000408,0,10000
7,250,0,250,250,500,500,750,750,2,0,1,0.25,0.25,0.25,0.25,0.25,0.25,0.25,-0.25,-0.25,-0.25,-0.25,-0.25,-0.25,-0.25,-0.25,linear,0.025,TRUE,25,FALSE,1,NA,NA,2,sepmodel,0.8007,3.4966783897336903e-4,0.007850038346979003,0,10000
7,250,0,250,250,500,500,750,750,2,0,1,0.25,0.25,0.25,0.25,0.25,0.25,0.25,-0.25,-0.25,-0.25,-0.25,-0.25,-0.25,-0.25,-0.25,linear,0.025,TRUE,25,FALSE,1,NA,NA,2,splines,0.8374,1.0829749451189828e-4,0.007181393210834561,0,10000
7,250,0,250,250,500,500,750,750,2,0,1,0.25,0.25,0.25,0.25,0.25,0.25,0.25,-0.25,-0.25,-0.25,-0.25,-0.25,-0.25,-0.25,-0.25,linear,0.025,TRUE,25,FALSE,1,NA,NA,2,splines_cal,0.8333,1.8382754602622365e-4,0.007346267249743892,0,10000
7,250,0,250,250,500,500,750,750,2,0,1,0.25,0.25,0.25,0.25,0.25,0.25,0.25,-0.25,-0.25,-0.25,-0.25,-0.25,-0.25,-0.25,-0.25,linear,0.025,TRUE,25,FALSE,1,NA,NA,3,fixmodel,0.8221,2.0478361953047187e-4,0.007510869700064524,0,10000
7,250,0,250,250,500,500,750,750,2,0,1,0.25,0.25,0.25,0.25,0.25,0.25,0.25,-0.25,-0.25,-0.25,-0.25,-0.25,-0.25,-0.25,-0.25,linear,0.025,TRUE,25,FALSE,1,NA,NA,3,sepmodel,0.7968,3.6009524988782143e-4,0.008068481062543773,0,10000
7,250,0,250,250,500,500,750,750,2,0,1,0.25,0.25,0.25,0.25,0.25,0.25,0.25,-0.25,-0.25,-0.25,-0.25,-0.25,-0.25,-0.25,-0.25,linear,0.025,TRUE,25,FALSE,1,NA,NA,3,splines,0.8306,1.2112012637492038e-4,0.007327974097870319,0,10000
7,250,0,250,250,500,500,750,750,2,0,1,0.25,0.25,0.25,0.25,0.25,0.25,0.25,-0.25,-0.25,-0.25,-0.25,-0.25,-0.25,-0.25,-0.25,linear,0.025,TRUE,25,FALSE,1,NA,NA,3,splines_cal,0.8267,1.6002964936692865e-4,0.007484084626860023,0,10000
7,250,0,250,250,500,500,750,750,2,0,1,0.25,0.25,0.25,0.25,0.25,0.25,0.25,-0.25,-0.25,-0.25,-0.25,-0.25,-0.25,-0.25,-0.25,linear,0.025,TRUE,25,FALSE,1,NA,NA,4,fixmodel,0.8445,0.0016195047067904585,0.007163667460256622,0,10000
7,250,0,250,250,500,500,750,750,2,0,1,0.25,0.25,0.25,0.25,0.25,0.25,0.25,-0.25,-0.25,-0.25,-0.25,-0.25,-0.25,-0.25,-0.25,linear,0.025,TRUE,25,FALSE,1,NA,NA,4,sepmodel,0.801,0.0018950871648203576,0.007975516553446837,0,10000
7,250,0,250,250,500,500,750,750,2,0,1,0.25,0.25,0.25,0.25,0.25,0.25,0.25,-0.25,-0.25,-0.25,-0.25,-0.25,-0.25,-0.25,-0.25,linear,0.025,TRUE,25,FALSE,1,NA,NA,4,splines,0.8479,0.0015665495230187483,0.007100557783778434,0,10000
7,250,0,250,250,500,500,750,750,2,0,1,0.25,0.25,0.25,0.25,0.25,0.25,0.25,-0.25,-0.25,-0.25,-0.25,-0.25,-0.25,-0.25,-0.25,linear,0.025,TRUE,25,FALSE,1,NA,NA,4,splines_cal,0.8454,0.001616991838608183,0.00714703337342049,0,10000
7,250,0,250,250,500,500,750,750,2,0,1,0.25,0.25,0.25,0.25,0.25,0.25,0.25,-0.25,-0.25,-0.25,-0.25,-0.25,-0.25,-0.25,-0.25,linear,0.025,TRUE,25,FALSE,1,NA,NA,5,fixmodel,0.8414,5.664560313600964e-4,0.007122775303337673,0,10000
7,250,0,250,250,500,500,750,750,2,0,1,0.25,0.25,0.25,0.25,0.25,0.25,0.25,-0.25,-0.25,-0.25,-0.25,-0.25,-0.25,-0.25,-0.25,linear,0.025,TRUE,25,FALSE,1,NA,NA,5,sepmodel,0.796,8.420384893896147e-4,0.007974314949983742,0,10000
7,250,0,250,250,500,500,750,750,2,0,1,0.25,0.25,0.25,0.25,0.25,0.25,0.25,-0.25,-0.25,-0.25,-0.25,-0.25,-0.25,-0.25,-0.25,linear,0.025,TRUE,25,FALSE,1,NA,NA,5,splines,0.8458,5.155872969631895e-4,0.0070649927340930814,0,10000
7,250,0,250,250,500,500,750,750,2,0,1,0.25,0.25,0.25,0.25,0.25,0.25,0.25,-0.25,-0.25,-0.25,-0.25,-0.25,-0.25,-0.25,-0.25,linear,0.025,TRUE,25,FALSE,1,NA,NA,5,splines_cal,0.8414,6.203249894362008e-4,0.007117037483071926,0,10000
7,250,0,250,250,500,500,750,750,2,0,1,0.25,0.25,0.25,0.25,0.25,0.25,0.25,-0.25,-0.25,-0.25,-0.25,-0.25,-0.25,-0.25,-0.25,linear,0.025,TRUE,25,FALSE,1,NA,NA,6,fixmodel,0.8508,6.064538387943244e-4,0.0069509225848088,0,10000
7,250,0,250,250,500,500,750,750,2,0,1,0.25,0.25,0.25,0.25,0.25,0.25,0.25,-0.25,-0.25,-0.25,-0.25,-0.25,-0.25,-0.25,-0.25,linear,0.025,TRUE,25,FALSE,1,NA,NA,6,sepmodel,0.7948,8.313976910290572e-4,0.007949097271386126,0,10000
7,250,0,250,250,500,500,750,750,2,0,1,0.25,0.25,0.25,0.25,0.25,0.25,0.25,-0.25,-0.25,-0.25,-0.25,-0.25,-0.25,-0.25,-0.25,linear,0.025,TRUE,25,FALSE,1,NA,NA,6,splines,0.8514,5.518887488818957e-4,0.00689382303414381,0,10000
7,250,0,250,250,500,500,750,750,2,0,1,0.25,0.25,0.25,0.25,0.25,0.25,0.25,-0.25,-0.25,-0.25,-0.25,-0.25,-0.25,-0.25,-0.25,linear,0.025,TRUE,25,FALSE,1,NA,NA,6,splines_cal,0.8475,5.304567917496837e-4,0.006976827811101568,0,10000
7,250,0,250,250,500,500,750,750,2,0,1,0.25,0.25,0.25,0.25,0.25,0.25,0.25,-0.25,-0.25,-0.25,-0.25,-0.25,-0.25,-0.25,-0.25,linear,0.025,TRUE,25,FALSE,1,NA,NA,7,fixmodel,0.8456,7.063119252750654e-4,0.006992738502361517,0,10000
7,250,0,250,250,500,500,750,750,2,0,1,0.25,0.25,0.25,0.25,0.25,0.25,0.25,-0.25,-0.25,-0.25,-0.25,-0.25,-0.25,-0.25,-0.25,linear,0.025,TRUE,25,FALSE,1,NA,NA,7,sepmodel,0.7985,9.312557775097171e-4,0.00802577834436835,0,10000
7,250,0,250,250,500,500,750,750,2,0,1,0.25,0.25,0.25,0.25,0.25,0.25,0.25,-0.25,-0.25,-0.25,-0.25,-0.25,-0.25,-0.25,-0.25,linear,0.025,TRUE,25,FALSE,1,NA,NA,7,splines,0.848,6.523096423059565e-4,0.006940356725070406,0,10000
7,250,0,250,250,500,500,750,750,2,0,1,0.25,0.25,0.25,0.25,0.25,0.25,0.25,-0.25,-0.25,-0.25,-0.25,-0.25,-0.25,-0.25,-0.25,linear,0.025,TRUE,25,FALSE,1,NA,NA,7,splines_cal,0.8444,6.991410437958197e-4,0.007009584612711538,0,10000
7,250,0,250,250,500,500,750,750,2,0,1,0.25,0.25,0.25,0.25,0.25,0.25,0.25,-0.25,-0.25,-0.25,-0.25,-0.25,-0.25,-0.25,-0.25,linear,0.025,TRUE,25,FALSE,2,NA,NA,2,fixmodel,0.8285,-3.0436769293302636e-5,0.007287644094297014,0,10000
7,250,0,250,250,500,500,750,750,2,0,1,0.25,0.25,0.25,0.25,0.25,0.25,0.25,-0.25,-0.25,-0.25,-0.25,-0.25,-0.25,-0.25,-0.25,linear,0.025,TRUE,25,FALSE,2,NA,NA,2,sepmodel,0.7972,3.93120195208019e-6,0.007833901569044413,0,10000
7,250,0,250,250,500,500,750,750,2,0,1,0.25,0.25,0.25,0.25,0.25,0.25,0.25,-0.25,-0.25,-0.25,-0.25,-0.25,-0.25,-0.25,-0.25,linear,0.025,TRUE,25,FALSE,2,NA,NA,2,splines,0.8323,-2.0925749644445663e-4,0.007210470748963908,0,10000
7,250,0,250,250,500,500,750,750,2,0,1,0.25,0.25,0.25,0.25,0.25,0.25,0.25,-0.25,-0.25,-0.25,-0.25,-0.25,-0.25,-0.25,-0.25,linear,0.025,TRUE,25,FALSE,2,NA,NA,2,splines_cal,0.8289,1.8230077972801016e-5,0.00727006705727895,0,10000
7,250,0,250,250,500,500,750,750,2,0,1,0.25,0.25,0.25,0.25,0.25,0.25,0.25,-0.25,-0.25,-0.25,-0.25,-0.25,-0.25,-0.25,-0.25,linear,0.025,TRUE,25,FALSE,2,NA,NA,3,fixmodel,0.8239,-3.414483331506098e-4,0.007415905285854686,0,10000
7,250,0,250,250,500,500,750,750,2,0,1,0.25,0.25,0.25,0.25,0.25,0.25,0.25,-0.25,-0.25,-0.25,-0.25,-0.25,-0.25,-0.25,-0.25,linear,0.025,TRUE,25,FALSE,2,NA,NA,3,sepmodel,0.7936,-3.070803619065902e-4,0.008024824287233234,0,10000
7,250,0,250,250,500,500,750,750,2,0,1,0.25,0.25,0.25,0.25,0.25,0.25,0.25,-0.25,-0.25,-0.25,-0.25,-0.25,-0.25,-0.25,-0.25,linear,0.025,TRUE,25,FALSE,2,NA,NA,3,splines,0.828,-5.205714038024876e-4,0.007342062971479494,0,10000
7,250,0,250,250,500,500,750,750,2,0,1,0.25,0.25,0.25,0.25,0.25,0.25,0.25,-0.25,-0.25,-0.25,-0.25,-0.25,-0.25,-0.25,-0.25,linear,0.025,TRUE,25,FALSE,2,NA,NA,3,splines_cal,0.8251,-3.4871809412127873e-4,0.007394017831617885,0,10000
7,250,0,250,250,500,500,750,750,2,0,1,0.25,0.25,0.25,0.25,0.25,0.25,0.25,-0.25,-0.25,-0.25,-0.25,-0.25,-0.25,-0.25,-0.25,linear,0.025,TRUE,25,FALSE,2,NA,NA,4,fixmodel,0.8307,-0.0010172958100909803,0.007172623426912449,0,10000
7,250,0,250,250,500,500,750,750,2,0,1,0.25,0.25,0.25,0.25,0.25,0.25,0.25,-0.25,-0.25,-0.25,-0.25,-0.25,-0.25,-0.25,-0.25,linear,0.025,TRUE,25,FALSE,2,NA,NA,4,sepmodel,0.7886,-0.0010639762645653764,0.008008223042386938,0,10000
7,250,0,250,250,500,500,750,750,2,0,1,0.25,0.25,0.25,0.25,0.25,0.25,0.25,-0.25,-0.25,-0.25,-0.25,-0.25,-0.25,-0.25,-0.25,linear,0.025,TRUE,25,FALSE,2,NA,NA,4,splines,0.8347,-0.0011356291003325916,0.007120310438064635,0,10000
7,250,0,250,250,500,500,750,750,2,0,1,0.25,0.25,0.25,0.25,0.25,0.25,0.25,-0.25,-0.25,-0.25,-0.25,-0.25,-0.25,-0.25,-0.25,linear,0.025,TRUE,25,FALSE,2,NA,NA,4,splines_cal,0.8327,-0.0011777737371264755,0.0071347262583206965,0,10000
7,250,0,250,250,500,500,750,750,2,0,1,0.25,0.25,0.25,0.25,0.25,0.25,0.25,-0.25,-0.25,-0.25,-0.25,-0.25,-0.25,-0.25,-0.25,linear,0.025,TRUE,25,FALSE,2,NA,NA,5,fixmodel,0.8426,-6.336796036522388e-4,0.007088743653215685,0,10000
7,250,0,250,250,500,500,750,750,2,0,1,0.25,0.25,0.25,0.25,0.25,0.25,0.25,-0.25,-0.25,-0.25,-0.25,-0.25,-0.25,-0.25,-0.25,linear,0.025,TRUE,25,FALSE,2,NA,NA,5,sepmodel,0.7984,-6.803600581270307e-4,0.007931034626667744,0,10000
7,250,0,250,250,500,500,750,750,2,0,1,0.25,0.25,0.25,0.25,0.25,0.25,0.25,-0.25,-0.25,-0.25,-0.25,-0.25,-0.25,-0.25,-0.25,linear,0.025,TRUE,25,FALSE,2,NA,NA,5,splines,0.8434,-7.514726770719098e-4,0.007040642837417067,0,10000
7,250,0,250,250,500,500,750,750,2,0,1,0.25,0.25,0.25,0.25,0.25,0.25,0.25,-0.25,-0.25,-0.25,-0.25,-0.25,-0.25,-0.25,-0.25,linear,0.025,TRUE,25,FALSE,2,NA,NA,5,splines_cal,0.8415,-7.849372393383302e-4,0.007064560341424737,0,10000
7,250,0,250,250,500,500,750,750,2,0,1,0.25,0.25,0.25,0.25,0.25,0.25,0.25,-0.25,-0.25,-0.25,-0.25,-0.25,-0.25,-0.25,-0.25,linear,0.025,TRUE,25,FALSE,2,NA,NA,6,fixmodel,0.8463,-0.001014321387357287,0.006956397727698989,0,10000
7,250,0,250,250,500,500,750,750,2,0,1,0.25,0.25,0.25,0.25,0.25,0.25,0.25,-0.25,-0.25,-0.25,-0.25,-0.25,-0.25,-0.25,-0.25,linear,0.025,TRUE,25,FALSE,2,NA,NA,6,sepmodel,0.7923,-7.78645287745338e-4,0.00788946479052295,0,10000
7,250,0,250,250,500,500,750,750,2,0,1,0.25,0.25,0.25,0.25,0.25,0.25,0.25,-0.25,-0.25,-0.25,-0.25,-0.25,-0.25,-0.25,-0.25,linear,0.025,TRUE,25,FALSE,2,NA,NA,6,splines,0.8472,-0.0010784604151520432,0.006913020283257503,0,10000
7,250,0,250,250,500,500,750,750,2,0,1,0.25,0.25,0.25,0.25,0.25,0.25,0.25,-0.25,-0.25,-0.25,-0.25,-0.25,-0.25,-0.25,-0.25,linear,0.025,TRUE,25,FALSE,2,NA,NA,6,splines_cal,0.8436,-9.742995939270696e-4,0.006977414626412166,0,10000
7,250,0,250,250,500,500,750,750,2,0,1,0.25,0.25,0.25,0.25,0.25,0.25,0.25,-0.25,-0.25,-0.25,-0.25,-0.25,-0.25,-0.25,-0.25,linear,0.025,TRUE,25,FALSE,2,NA,NA,7,fixmodel,0.8453,-9.875240830729069e-4,0.006882033689617769,0,10000
7,250,0,250,250,500,500,750,750,2,0,1,0.25,0.25,0.25,0.25,0.25,0.25,0.25,-0.25,-0.25,-0.25,-0.25,-0.25,-0.25,-0.25,-0.25,linear,0.025,TRUE,25,FALSE,2,NA,NA,7,sepmodel,0.7939,-7.518479834610542e-4,0.007891012287983777,0,10000
7,250,0,250,250,500,500,750,750,2,0,1,0.25,0.25,0.25,0.25,0.25,0.25,0.25,-0.25,-0.25,-0.25,-0.25,-0.25,-0.25,-0.25,-0.25,linear,0.025,TRUE,25,FALSE,2,NA,NA,7,splines,0.8494,-0.001051144163078009,0.00685609591003165,0,10000
7,250,0,250,250,500,500,750,750,2,0,1,0.25,0.25,0.25,0.25,0.25,0.25,0.25,-0.25,-0.25,-0.25,-0.25,-0.25,-0.25,-0.25,-0.25,linear,0.025,TRUE,25,FALSE,2,NA,NA,7,splines_cal,0.8449,-9.744313938036237e-4,0.006899652570388814,0,10000
7,250,0,250,250,500,500,750,750,2,0,1,0.25,0.25,0.25,0.25,0.25,0.25,0.25,-0.25,-0.25,-0.25,-0.25,-0.25,-0.25,-0.25,-0.25,linear,0.025,TRUE,25,FALSE,3,NA,NA,2,fixmodel,0.8249,-6.894446215478644e-4,0.0074394629587451015,0,10000
7,250,0,250,250,500,500,750,750,2,0,1,0.25,0.25,0.25,0.25,0.25,0.25,0.25,-0.25,-0.25,-0.25,-0.25,-0.25,-0.25,-0.25,-0.25,linear,0.025,TRUE,25,FALSE,3,NA,NA,2,sepmodel,0.796,-8.229353064482663e-4,0.007978578907663278,0,10000
7,250,0,250,250,500,500,750,750,2,0,1,0.25,0.25,0.25,0.25,0.25,0.25,0.25,-0.25,-0.25,-0.25,-0.25,-0.25,-0.25,-0.25,-0.25,linear,0.025,TRUE,25,FALSE,3,NA,NA,2,splines,0.8284,-5.683323911245432e-4,0.007336445112613241,0,10000
7,250,0,250,250,500,500,750,750,2,0,1,0.25,0.25,0.25,0.25,0.25,0.25,0.25,-0.25,-0.25,-0.25,-0.25,-0.25,-0.25,-0.25,-0.25,linear,0.025,TRUE,25,FALSE,3,NA,NA,2,splines_cal,0.8238,-7.631846487402246e-4,0.007437495685511155,0,10000
7,250,0,250,250,500,500,750,750,2,0,1,0.25,0.25,0.25,0.25,0.25,0.25,0.25,-0.25,-0.25,-0.25,-0.25,-0.25,-0.25,-0.25,-0.25,linear,0.025,TRUE,25,FALSE,3,NA,NA,3,fixmodel,0.8252,1.4831040300136318e-4,0.007426695361331846,0,10000
7,250,0,250,250,500,500,750,750,2,0,1,0.25,0.25,0.25,0.25,0.25,0.25,0.25,-0.25,-0.25,-0.25,-0.25,-0.25,-0.25,-0.25,-0.25,linear,0.025,TRUE,25,FALSE,3,NA,NA,3,sepmodel,0.795,1.4819718099548823e-5,0.007899012956851416,0,10000
7,250,0,250,250,500,500,750,750,2,0,1,0.25,0.25,0.25,0.25,0.25,0.25,0.25,-0.25,-0.25,-0.25,-0.25,-0.25,-0.25,-0.25,-0.25,linear,0.025,TRUE,25,FALSE,3,NA,NA,3,splines,0.8315,2.687620089639127e-4,0.007326963325645097,0,10000
7,250,0,250,250,500,500,750,750,2,0,1,0.25,0.25,0.25,0.25,0.25,0.25,0.25,-0.25,-0.25,-0.25,-0.25,-0.25,-0.25,-0.25,-0.25,linear,0.025,TRUE,25,FALSE,3,NA,NA,3,splines_cal,0.8256,1.0483453755316392e-4,0.00741649866726591,0,10000
7,250,0,250,250,500,500,750,750,2,0,1,0.25,0.25,0.25,0.25,0.25,0.25,0.25,-0.25,-0.25,-0.25,-0.25,-0.25,-0.25,-0.25,-0.25,linear,0.025,TRUE,25,FALSE,3,NA,NA,4,fixmodel,0.8432,-1.5470201256782753e-4,0.007156310207526075,0,10000
7,250,0,250,250,500,500,750,750,2,0,1,0.25,0.25,0.25,0.25,0.25,0.25,0.25,-0.25,-0.25,-0.25,-0.25,-0.25,-0.25,-0.25,-0.25,linear,0.025,TRUE,25,FALSE,3,NA,NA,4,sepmodel,0.7955,-4.446136537744197e-4,0.008026857037917445,0,10000
7,250,0,250,250,500,500,750,750,2,0,1,0.25,0.25,0.25,0.25,0.25,0.25,0.25,-0.25,-0.25,-0.25,-0.25,-0.25,-0.25,-0.25,-0.25,linear,0.025,TRUE,25,FALSE,3,NA,NA,4,splines,0.8467,-3.9669145713963054e-5,0.0071073957887423786,0,10000
7,250,0,250,250,500,500,750,750,2,0,1,0.25,0.25,0.25,0.25,0.25,0.25,0.25,-0.25,-0.25,-0.25,-0.25,-0.25,-0.25,-0.25,-0.25,linear,0.025,TRUE,25,FALSE,3,NA,NA,4,splines_cal,0.8435,-2.9898675746361034e-4,0.007140201148262873,0,10000
7,250,0,250,250,500,500,750,750,2,0,1,0.25,0.25,0.25,0.25,0.25,0.25,0.25,-0.25,-0.25,-0.25,-0.25,-0.25,-0.25,-0.25,-0.25,linear,0.025,TRUE,25,FALSE,3,NA,NA,5,fixmodel,0.8412,2.5371600507929763e-4,0.007067101481483858,0,10000
7,250,0,250,250,500,500,750,750,2,0,1,0.25,0.25,0.25,0.25,0.25,0.25,0.25,-0.25,-0.25,-0.25,-0.25,-0.25,-0.25,-0.25,-0.25,linear,0.025,TRUE,25,FALSE,3,NA,NA,5,sepmodel,0.7969,-3.619563612766381e-5,0.00785817794758521,0,10000
7,250,0,250,250,500,500,750,750,2,0,1,0.25,0.25,0.25,0.25,0.25,0.25,0.25,-0.25,-0.25,-0.25,-0.25,-0.25,-0.25,-0.25,-0.25,linear,0.025,TRUE,25,FALSE,3,NA,NA,5,splines,0.8451,3.658465225247761e-4,0.006998140811661609,0,10000
7,250,0,250,250,500,500,750,750,2,0,1,0.25,0.25,0.25,0.25,0.25,0.25,0.25,-0.25,-0.25,-0.25,-0.25,-0.25,-0.25,-0.25,-0.25,linear,0.025,TRUE,25,FALSE,3,NA,NA,5,splines_cal,0.8429,1.876180101162637e-4,0.007042485452713806,0,10000
7,250,0,250,250,500,500,750,750,2,0,1,0.25,0.25,0.25,0.25,0.25,0.25,0.25,-0.25,-0.25,-0.25,-0.25,-0.25,-0.25,-0.25,-0.25,linear,0.025,TRUE,25,FALSE,3,NA,NA,6,fixmodel,0.8464,-4.6232716626138173e-4,0.007030188765360222,0,10000
7,250,0,250,250,500,500,750,750,2,0,1,0.25,0.25,0.25,0.25,0.25,0.25,0.25,-0.25,-0.25,-0.25,-0.25,-0.25,-0.25,-0.25,-0.25,linear,0.025,TRUE,25,FALSE,3,NA,NA,6,sepmodel,0.793,-9.384325872761741e-4,0.008130691481592029,0,10000
7,250,0,250,250,500,500,750,750,2,0,1,0.25,0.25,0.25,0.25,0.25,0.25,0.25,-0.25,-0.25,-0.25,-0.25,-0.25,-0.25,-0.25,-0.25,linear,0.025,TRUE,25,FALSE,3,NA,NA,6,splines,0.85,-4.194652351866869e-4,0.006986599187090558,0,10000
7,250,0,250,250,500,500,750,750,2,0,1,0.25,0.25,0.25,0.25,0.25,0.25,0.25,-0.25,-0.25,-0.25,-0.25,-0.25,-0.25,-0.25,-0.25,linear,0.025,TRUE,25,FALSE,3,NA,NA,6,splines_cal,0.8459,-4.694241706916106e-4,0.007042662576379924,0,10000
7,250,0,250,250,500,500,750,750,2,0,1,0.25,0.25,0.25,0.25,0.25,0.25,0.25,-0.25,-0.25,-0.25,-0.25,-0.25,-0.25,-0.25,-0.25,linear,0.025,TRUE,25,FALSE,3,NA,NA,7,fixmodel,0.8527,6.885631536776366e-4,0.006911412869342922,0,10000
7,250,0,250,250,500,500,750,750,2,0,1,0.25,0.25,0.25,0.25,0.25,0.25,0.25,-0.25,-0.25,-0.25,-0.25,-0.25,-0.25,-0.25,-0.25,linear,0.025,TRUE,25,FALSE,3,NA,NA,7,sepmodel,0.7917,2.1245773266271163e-4,0.007975687377640506,0,10000
7,250,0,250,250,500,500,750,750,2,0,1,0.25,0.25,0.25,0.25,0.25,0.25,0.25,-0.25,-0.25,-0.25,-0.25,-0.25,-0.25,-0.25,-0.25,linear,0.025,TRUE,25,FALSE,3,NA,NA,7,splines,0.8538,7.318245946424746e-4,0.0068916021002082785,0,10000
7,250,0,250,250,500,500,750,750,2,0,1,0.25,0.25,0.25,0.25,0.25,0.25,0.25,-0.25,-0.25,-0.25,-0.25,-0.25,-0.25,-0.25,-0.25,linear,0.025,TRUE,25,FALSE,3,NA,NA,7,splines_cal,0.852,6.237321761580635e-4,0.006941870969367485,0,10000
7,250,0,250,250,500,500,750,750,2,0,1,0.25,0.25,0.25,0.25,0.25,0.25,0.25,-0.125,-0.125,-0.125,-0.125,-0.125,-0.125,-0.125,-0.125,linear,0.025,TRUE,25,FALSE,1,NA,NA,2,fixmodel,0.8229,-0.0010289805370705704,0.007455134283004821,0,10000
7,250,0,250,250,500,500,750,750,2,0,1,0.25,0.25,0.25,0.25,0.25,0.25,0.25,-0.125,-0.125,-0.125,-0.125,-0.125,-0.125,-0.125,-0.125,linear,0.025,TRUE,25,FALSE,1,NA,NA,2,sepmodel,0.791,-0.0015335695514381855,0.007973477261424085,0,10000
7,250,0,250,250,500,500,750,750,2,0,1,0.25,0.25,0.25,0.25,0.25,0.25,0.25,-0.125,-0.125,-0.125,-0.125,-0.125,-0.125,-0.125,-0.125,linear,0.025,TRUE,25,FALSE,1,NA,NA,2,splines,0.8301,-8.708701343665774e-4,0.007313090435548315,0,10000
7,250,0,250,250,500,500,750,750,2,0,1,0.25,0.25,0.25,0.25,0.25,0.25,0.25,-0.125,-0.125,-0.125,-0.125,-0.125,-0.125,-0.125,-0.125,linear,0.025,TRUE,25,FALSE,1,NA,NA,2,splines_cal,0.825,-0.0010540755386889019,0.007429810640983535,0,10000
7,250,0,250,250,500,500,750,750,2,0,1,0.25,0.25,0.25,0.25,0.25,0.25,0.25,-0.125,-0.125,-0.125,-0.125,-0.125,-0.125,-0.125,-0.125,linear,0.025,TRUE,25,FALSE,1,NA,NA,3,fixmodel,0.826,-8.47376191852213e-4,0.007446435094435266,0,10000
7,250,0,250,250,500,500,750,750,2,0,1,0.25,0.25,0.25,0.25,0.25,0.25,0.25,-0.125,-0.125,-0.125,-0.125,-0.125,-0.125,-0.125,-0.125,linear,0.025,TRUE,25,FALSE,1,NA,NA,3,sepmodel,0.794,-0.0013519652062211995,0.008055815735528677,0,10000
7,250,0,250,250,500,500,750,750,2,0,1,0.25,0.25,0.25,0.25,0.25,0.25,0.25,-0.125,-0.125,-0.125,-0.125,-0.125,-0.125,-0.125,-0.125,linear,0.025,TRUE,25,FALSE,1,NA,NA,3,splines,0.8342,-6.889233645426851e-4,0.00732764707362564,0,10000
7,250,0,250,250,500,500,750,750,2,0,1,0.25,0.25,0.25,0.25,0.25,0.25,0.25,-0.125,-0.125,-0.125,-0.125,-0.125,-0.125,-0.125,-0.125,linear,0.025,TRUE,25,FALSE,1,NA,NA,3,splines_cal,0.8268,-8.825843275085461e-4,0.007441360493346061,0,10000
7,250,0,250,250,500,500,750,750,2,0,1,0.25,0.25,0.25,0.25,0.25,0.25,0.25,-0.125,-0.125,-0.125,-0.125,-0.125,-0.125,-0.125,-0.125,linear,0.025,TRUE,25,FALSE,1,NA,NA,4,fixmodel,0.8371,-0.0013413025878244113,0.007051190616893721,0,10000
7,250,0,250,250,500,500,750,750,2,0,1,0.25,0.25,0.25,0.25,0.25,0.25,0.25,-0.125,-0.125,-0.125,-0.125,-0.125,-0.125,-0.125,-0.125,linear,0.025,TRUE,25,FALSE,1,NA,NA,4,sepmodel,0.7899,-0.0016120900000422375,0.007941676347743556,0,10000
7,250,0,250,250,500,500,750,750,2,0,1,0.25,0.25,0.25,0.25,0.25,0.25,0.25,-0.125,-0.125,-0.125,-0.125,-0.125,-0.125,-0.125,-0.125,linear,0.025,TRUE,25,FALSE,1,NA,NA,4,splines,0.8402,-0.001225342974135004,0.007001753507542358,0,10000
7,250,0,250,250,500,500,750,750,2,0,1,0.25,0.25,0.25,0.25,0.25,0.25,0.25,-0.125,-0.125,-0.125,-0.125,-0.125,-0.125,-0.125,-0.125,linear,0.025,TRUE,25,FALSE,1,NA,NA,4,splines_cal,0.8374,-0.0012343332392009548,0.007032517636424685,0,10000
7,250,0,250,250,500,500,750,750,2,0,1,0.25,0.25,0.25,0.25,0.25,0.25,0.25,-0.125,-0.125,-0.125,-0.125,-0.125,-0.125,-0.125,-0.125,linear,0.025,TRUE,25,FALSE,1,NA,NA,5,fixmodel,0.8363,-0.001000791492344518,0.007155205130865342,0,10000
7,250,0,250,250,500,500,750,750,2,0,1,0.25,0.25,0.25,0.25,0.25,0.25,0.25,-0.125,-0.125,-0.125,-0.125,-0.125,-0.125,-0.125,-0.125,linear,0.025,TRUE,25,FALSE,1,NA,NA,5,sepmodel,0.7909,-0.0012715789045626368,0.008063142689160984,0,10000
7,250,0,250,250,500,500,750,750,2,0,1,0.25,0.25,0.25,0.25,0.25,0.25,0.25,-0.125,-0.125,-0.125,-0.125,-0.125,-0.125,-0.125,-0.125,linear,0.025,TRUE,25,FALSE,1,NA,NA,5,splines,0.8406,-8.832547005477625e-4,0.007088844254499923,0,10000
7,250,0,250,250,500,500,750,750,2,0,1,0.25,0.25,0.25,0.25,0.25,0.25,0.25,-0.125,-0.125,-0.125,-0.125,-0.125,-0.125,-0.125,-0.125,linear,0.025,TRUE,25,FALSE,1,NA,NA,5,splines_cal,0.8398,-8.490892487257434e-4,0.0071309113072842815,0,10000
7,250,0,250,250,500,500,750,750,2,0,1,0.25,0.25,0.25,0.25,0.25,0.25,0.25,-0.125,-0.125,-0.125,-0.125,-0.125,-0.125,-0.125,-0.125,linear,0.025,TRUE,25,FALSE,1,NA,NA,6,fixmodel,0.8449,-0.0024886258867323737,0.006921935433306505,0,10000
7,250,0,250,250,500,500,750,750,2,0,1,0.25,0.25,0.25,0.25,0.25,0.25,0.25,-0.125,-0.125,-0.125,-0.125,-0.125,-0.125,-0.125,-0.125,linear,0.025,TRUE,25,FALSE,1,NA,NA,6,sepmodel,0.7903,-0.002520033023756798,0.007882668533407383,0,10000
7,250,0,250,250,500,500,750,750,2,0,1,0.25,0.25,0.25,0.25,0.25,0.25,0.25,-0.125,-0.125,-0.125,-0.125,-0.125,-0.125,-0.125,-0.125,linear,0.025,TRUE,25,FALSE,1,NA,NA,6,splines,0.8457,-0.0024344211696578954,0.006884551527494157,0,10000
7,250,0,250,250,500,500,750,750,2,0,1,0.25,0.25,0.25,0.25,0.25,0.25,0.25,-0.125,-0.125,-0.125,-0.125,-0.125,-0.125,-0.125,-0.125,linear,0.025,TRUE,25,FALSE,1,NA,NA,6,splines_cal,0.845,-0.002485818020746634,0.006936916711530332,0,10000
7,250,0,250,250,500,500,750,750,2,0,1,0.25,0.25,0.25,0.25,0.25,0.25,0.25,-0.125,-0.125,-0.125,-0.125,-0.125,-0.125,-0.125,-0.125,linear,0.025,TRUE,25,FALSE,1,NA,NA,7,fixmodel,0.8397,-0.002091320403703227,0.006935539961668419,0,10000
7,250,0,250,250,500,500,750,750,2,0,1,0.25,0.25,0.25,0.25,0.25,0.25,0.25,-0.125,-0.125,-0.125,-0.125,-0.125,-0.125,-0.125,-0.125,linear,0.025,TRUE,25,FALSE,1,NA,NA,7,sepmodel,0.7907,-0.002122727540727754,0.007883641893755625,0,10000
7,250,0,250,250,500,500,750,750,2,0,1,0.25,0.25,0.25,0.25,0.25,0.25,0.25,-0.125,-0.125,-0.125,-0.125,-0.125,-0.125,-0.125,-0.125,linear,0.025,TRUE,25,FALSE,1,NA,NA,7,splines,0.8427,-0.0020376692359908677,0.006884579117758863,0,10000
7,250,0,250,250,500,500,750,750,2,0,1,0.25,0.25,0.25,0.25,0.25,0.25,0.25,-0.125,-0.125,-0.125,-0.125,-0.125,-0.125,-0.125,-0.125,linear,0.025,TRUE,25,FALSE,1,NA,NA,7,splines_cal,0.8394,-0.0020135753305056668,0.006970933016092258,0,10000
7,250,0,250,250,500,500,750,750,2,0,1,0.25,0.25,0.25,0.25,0.25,0.25,0.25,-0.125,-0.125,-0.125,-0.125,-0.125,-0.125,-0.125,-0.125,linear,0.025,TRUE,25,FALSE,2,NA,NA,2,fixmodel,0.8225,0.0010207603321736932,0.007748444870499085,0,10000
7,250,0,250,250,500,500,750,750,2,0,1,0.25,0.25,0.25,0.25,0.25,0.25,0.25,-0.125,-0.125,-0.125,-0.125,-0.125,-0.125,-0.125,-0.125,linear,0.025,TRUE,25,FALSE,2,NA,NA,2,sepmodel,0.7923,0.0010263083860470922,0.008315973795924386,0,10000
7,250,0,250,250,500,500,750,750,2,0,1,0.25,0.25,0.25,0.25,0.25,0.25,0.25,-0.125,-0.125,-0.125,-0.125,-0.125,-0.125,-0.125,-0.125,linear,0.025,TRUE,25,FALSE,2,NA,NA,2,splines,0.8292,0.0011175999863052221,0.007644497698443685,0,10000
7,250,0,250,250,500,500,750,750,2,0,1,0.25,0.25,0.25,0.25,0.25,0.25,0.25,-0.125,-0.125,-0.125,-0.125,-0.125,-0.125,-0.125,-0.125,linear,0.025,TRUE,25,FALSE,2,NA,NA,2,splines_cal,0.8235,0.0010068705784011356,0.007716407612019773,0,10000
7,250,0,250,250,500,500,750,750,2,0,1,0.25,0.25,0.25,0.25,0.25,0.25,0.25,-0.125,-0.125,-0.125,-0.125,-0.125,-0.125,-0.125,-0.125,linear,0.025,TRUE,25,FALSE,2,NA,NA,3,fixmodel,0.828,5.902859715501328e-4,0.007330931306164364,0,10000
7,250,0,250,250,500,500,750,750,2,0,1,0.25,0.25,0.25,0.25,0.25,0.25,0.25,-0.125,-0.125,-0.125,-0.125,-0.125,-0.125,-0.125,-0.125,linear,0.025,TRUE,25,FALSE,2,NA,NA,3,sepmodel,0.8021,5.958340254222102e-4,0.007850283745284766,0,10000
7,250,0,250,250,500,500,750,750,2,0,1,0.25,0.25,0.25,0.25,0.25,0.25,0.25,-0.125,-0.125,-0.125,-0.125,-0.125,-0.125,-0.125,-0.125,linear,0.025,TRUE,25,FALSE,2,NA,NA,3,splines,0.8338,6.858210870126332e-4,0.007236838466229736,0,10000
7,250,0,250,250,500,500,750,750,2,0,1,0.25,0.25,0.25,0.25,0.25,0.25,0.25,-0.125,-0.125,-0.125,-0.125,-0.125,-0.125,-0.125,-0.125,linear,0.025,TRUE,25,FALSE,2,NA,NA,3,splines_cal,0.8284,6.112324760913594e-4,0.007307893528265302,0,10000
7,250,0,250,250,500,500,750,750,2,0,1,0.25,0.25,0.25,0.25,0.25,0.25,0.25,-0.125,-0.125,-0.125,-0.125,-0.125,-0.125,-0.125,-0.125,linear,0.025,TRUE,25,FALSE,2,NA,NA,4,fixmodel,0.8354,7.723635158568776e-4,0.007288749521279681,0,10000
7,250,0,250,250,500,500,750,750,2,0,1,0.25,0.25,0.25,0.25,0.25,0.25,0.25,-0.125,-0.125,-0.125,-0.125,-0.125,-0.125,-0.125,-0.125,linear,0.025,TRUE,25,FALSE,2,NA,NA,4,sepmodel,0.7946,7.17647257180657e-4,0.008128601038377894,0,10000
7,250,0,250,250,500,500,750,750,2,0,1,0.25,0.25,0.25,0.25,0.25,0.25,0.25,-0.125,-0.125,-0.125,-0.125,-0.125,-0.125,-0.125,-0.125,linear,0.025,TRUE,25,FALSE,2,NA,NA,4,splines,0.8401,7.86344250005582e-4,0.007224411451228463,0,10000
7,250,0,250,250,500,500,750,750,2,0,1,0.25,0.25,0.25,0.25,0.25,0.25,0.25,-0.125,-0.125,-0.125,-0.125,-0.125,-0.125,-0.125,-0.125,linear,0.025,TRUE,25,FALSE,2,NA,NA,4,splines_cal,0.8386,7.324202992083614e-4,0.007276819749589269,0,10000
7,250,0,250,250,500,500,750,750,2,0,1,0.25,0.25,0.25,0.25,0.25,0.25,0.25,-0.125,-0.125,-0.125,-0.125,-0.125,-0.125,-0.125,-0.125,linear,0.025,TRUE,25,FALSE,2,NA,NA,5,fixmodel,0.842,1.5598414136723673e-4,0.007104665751779649,0,10000
7,250,0,250,250,500,500,750,750,2,0,1,0.25,0.25,0.25,0.25,0.25,0.25,0.25,-0.125,-0.125,-0.125,-0.125,-0.125,-0.125,-0.125,-0.125,linear,0.025,TRUE,25,FALSE,2,NA,NA,5,sepmodel,0.804,1.0126788269065809e-4,0.007942437999961006,0,10000
7,250,0,250,250,500,500,750,750,2,0,1,0.25,0.25,0.25,0.25,0.25,0.25,0.25,-0.125,-0.125,-0.125,-0.125,-0.125,-0.125,-0.125,-0.125,linear,0.025,TRUE,25,FALSE,2,NA,NA,5,splines,0.8475,1.7126734065097857e-4,0.007053689388615941,0,10000
7,250,0,250,250,500,500,750,750,2,0,1,0.25,0.25,0.25,0.25,0.25,0.25,0.25,-0.125,-0.125,-0.125,-0.125,-0.125,-0.125,-0.125,-0.125,linear,0.025,TRUE,25,FALSE,2,NA,NA,5,splines_cal,0.8444,9.057730510075323e-5,0.007072416464331054,0,10000
7,250,0,250,250,500,500,750,750,2,0,1,0.25,0.25,0.25,0.25,0.25,0.25,0.25,-0.125,-0.125,-0.125,-0.125,-0.125,-0.125,-0.125,-0.125,linear,0.025,TRUE,25,FALSE,2,NA,NA,6,fixmodel,0.8508,0.0011833517911617436,0.006997458244360963,0,10000
7,250,0,250,250,500,500,750,750,2,0,1,0.25,0.25,0.25,0.25,0.25,0.25,0.25,-0.125,-0.125,-0.125,-0.125,-0.125,-0.125,-0.125,-0.125,linear,0.025,TRUE,25,FALSE,2,NA,NA,6,sepmodel,0.7953,0.0010019593295466371,0.008000865582239993,0,10000
7,250,0,250,250,500,500,750,750,2,0,1,0.25,0.25,0.25,0.25,0.25,0.25,0.25,-0.125,-0.125,-0.125,-0.125,-0.125,-0.125,-0.125,-0.125,linear,0.025,TRUE,25,FALSE,2,NA,NA,6,splines,0.8504,0.0011629229995658052,0.006958931512244069,0,10000
7,250,0,250,250,500,500,750,750,2,0,1,0.25,0.25,0.25,0.25,0.25,0.25,0.25,-0.125,-0.125,-0.125,-0.125,-0.125,-0.125,-0.125,-0.125,linear,0.025,TRUE,25,FALSE,2,NA,NA,6,splines_cal,0.8487,0.0011345031153071228,0.007015084737662888,0,10000
7,250,0,250,250,500,500,750,750,2,0,1,0.25,0.25,0.25,0.25,0.25,0.25,0.25,-0.125,-0.125,-0.125,-0.125,-0.125,-0.125,-0.125,-0.125,linear,0.025,TRUE,25,FALSE,2,NA,NA,7,fixmodel,0.8478,0.0013104386652689976,0.006956873824656039,0,10000
7,250,0,250,250,500,500,750,750,2,0,1,0.25,0.25,0.25,0.25,0.25,0.25,0.25,-0.125,-0.125,-0.125,-0.125,-0.125,-0.125,-0.125,-0.125,linear,0.025,TRUE,25,FALSE,2,NA,NA,7,sepmodel,0.7973,0.001129046203653823,0.007962194690357308,0,10000
7,250,0,250,250,500,500,750,750,2,0,1,0.25,0.25,0.25,0.25,0.25,0.25,0.25,-0.125,-0.125,-0.125,-0.125,-0.125,-0.125,-0.125,-0.125,linear,0.025,TRUE,25,FALSE,2,NA,NA,7,splines,0.8504,0.0012902854410031573,0.006916183994085449,0,10000
7,250,0,250,250,500,500,750,750,2,0,1,0.25,0.25,0.25,0.25,0.25,0.25,0.25,-0.125,-0.125,-0.125,-0.125,-0.125,-0.125,-0.125,-0.125,linear,0.025,TRUE,25,FALSE,2,NA,NA,7,splines_cal,0.8482,0.0012685399218661851,0.006978589945581364,0,10000
7,250,0,250,250,500,500,750,750,2,0,1,0.25,0.25,0.25,0.25,0.25,0.25,0.25,-0.125,-0.125,-0.125,-0.125,-0.125,-0.125,-0.125,-0.125,linear,0.025,TRUE,25,FALSE,3,NA,NA,2,fixmodel,0.83,4.232643150627374e-6,0.007300987096552555,0,10000
7,250,0,250,250,500,500,750,750,2,0,1,0.25,0.25,0.25,0.25,0.25,0.25,0.25,-0.125,-0.125,-0.125,-0.125,-0.125,-0.125,-0.125,-0.125,linear,0.025,TRUE,25,FALSE,3,NA,NA,2,sepmodel,0.7984,7.437790679257428e-6,0.007850497916938391,0,10000
7,250,0,250,250,500,500,750,750,2,0,1,0.25,0.25,0.25,0.25,0.25,0.25,0.25,-0.125,-0.125,-0.125,-0.125,-0.125,-0.125,-0.125,-0.125,linear,0.025,TRUE,25,FALSE,3,NA,NA,2,splines,0.8333,2.405612650418764e-5,0.007211110392694191,0,10000
7,250,0,250,250,500,500,750,750,2,0,1,0.25,0.25,0.25,0.25,0.25,0.25,0.25,-0.125,-0.125,-0.125,-0.125,-0.125,-0.125,-0.125,-0.125,linear,0.025,TRUE,25,FALSE,3,NA,NA,2,splines_cal,0.8303,1.075113488600309e-4,0.007274210904955335,0,10000
7,250,0,250,250,500,500,750,750,2,0,1,0.25,0.25,0.25,0.25,0.25,0.25,0.25,-0.125,-0.125,-0.125,-0.125,-0.125,-0.125,-0.125,-0.125,linear,0.025,TRUE,25,FALSE,3,NA,NA,3,fixmodel,0.8239,-2.830304982573804e-4,0.007258992774091076,0,10000
7,250,0,250,250,500,500,750,750,2,0,1,0.25,0.25,0.25,0.25,0.25,0.25,0.25,-0.125,-0.125,-0.125,-0.125,-0.125,-0.125,-0.125,-0.125,linear,0.025,TRUE,25,FALSE,3,NA,NA,3,sepmodel,0.796,-2.7982535073003436e-4,0.0077725643874321446,0,10000
7,250,0,250,250,500,500,750,750,2,0,1,0.25,0.25,0.25,0.25,0.25,0.25,0.25,-0.125,-0.125,-0.125,-0.125,-0.125,-0.125,-0.125,-0.125,linear,0.025,TRUE,25,FALSE,3,NA,NA,3,splines,0.8289,-2.6383130114555426e-4,0.0071553032719733865,0,10000
7,250,0,250,250,500,500,750,750,2,0,1,0.25,0.25,0.25,0.25,0.25,0.25,0.25,-0.125,-0.125,-0.125,-0.125,-0.125,-0.125,-0.125,-0.125,linear,0.025,TRUE,25,FALSE,3,NA,NA,3,splines_cal,0.8251,-1.9861895219763196e-4,0.0072475756773684044,0,10000
7,250,0,250,250,500,500,750,750,2,0,1,0.25,0.25,0.25,0.25,0.25,0.25,0.25,-0.125,-0.125,-0.125,-0.125,-0.125,-0.125,-0.125,-0.125,linear,0.025,TRUE,25,FALSE,3,NA,NA,4,fixmodel,0.8454,-7.435230437101359e-6,0.007064291526558515,0,10000
7,250,0,250,250,500,500,750,750,2,0,1,0.25,0.25,0.25,0.25,0.25,0.25,0.25,-0.125,-0.125,-0.125,-0.125,-0.125,-0.125,-0.125,-0.125,linear,0.025,TRUE,25,FALSE,3,NA,NA,4,sepmodel,0.802,3.522658023366961e-5,0.007949031539524696,0,10000
7,250,0,250,250,500,500,750,750,2,0,1,0.25,0.25,0.25,0.25,0.25,0.25,0.25,-0.125,-0.125,-0.125,-0.125,-0.125,-0.125,-0.125,-0.125,linear,0.025,TRUE,25,FALSE,3,NA,NA,4,splines,0.8466,1.743155981024874e-5,0.007007676007558913,0,10000
7,250,0,250,250,500,500,750,750,2,0,1,0.25,0.25,0.25,0.25,0.25,0.25,0.25,-0.125,-0.125,-0.125,-0.125,-0.125,-0.125,-0.125,-0.125,linear,0.025,TRUE,25,FALSE,3,NA,NA,4,splines_cal,0.8449,-7.550113624049735e-5,0.007048386402593446,0,10000
7,250,0,250,250,500,500,750,750,2,0,1,0.25,0.25,0.25,0.25,0.25,0.25,0.25,-0.125,-0.125,-0.125,-0.125,-0.125,-0.125,-0.125,-0.125,linear,0.025,TRUE,25,FALSE,3,NA,NA,5,fixmodel,0.8405,1.0521013047447235e-4,0.00707574915487542,0,10000
7,250,0,250,250,500,500,750,750,2,0,1,0.25,0.25,0.25,0.25,0.25,0.25,0.25,-0.125,-0.125,-0.125,-0.125,-0.125,-0.125,-0.125,-0.125,linear,0.025,TRUE,25,FALSE,3,NA,NA,5,sepmodel,0.7992,1.4787194114482786e-4,0.00791002044664427,0,10000
7,250,0,250,250,500,500,750,750,2,0,1,0.25,0.25,0.25,0.25,0.25,0.25,0.25,-0.125,-0.125,-0.125,-0.125,-0.125,-0.125,-0.125,-0.125,linear,0.025,TRUE,25,FALSE,3,NA,NA,5,splines,0.8446,1.3191813795627183e-4,0.007013331035717159,0,10000
7,250,0,250,250,500,500,750,750,2,0,1,0.25,0.25,0.25,0.25,0.25,0.25,0.25,-0.125,-0.125,-0.125,-0.125,-0.125,-0.125,-0.125,-0.125,linear,0.025,TRUE,25,FALSE,3,NA,NA,5,splines_cal,0.84,4.652572015460845e-5,0.007050803150025675,0,10000
7,250,0,250,250,500,500,750,750,2,0,1,0.25,0.25,0.25,0.25,0.25,0.25,0.25,-0.125,-0.125,-0.125,-0.125,-0.125,-0.125,-0.125,-0.125,linear,0.025,TRUE,25,FALSE,3,NA,NA,6,fixmodel,0.8449,2.2675317348721627e-4,0.0069693179297092905,0,10000
7,250,0,250,250,500,500,750,750,2,0,1,0.25,0.25,0.25,0.25,0.25,0.25,0.25,-0.125,-0.125,-0.125,-0.125,-0.125,-0.125,-0.125,-0.125,linear,0.025,TRUE,25,FALSE,3,NA,NA,6,sepmodel,0.7944,2.565465886403057e-4,0.00791741954123146,0,10000
7,250,0,250,250,500,500,750,750,2,0,1,0.25,0.25,0.25,0.25,0.25,0.25,0.25,-0.125,-0.125,-0.125,-0.125,-0.125,-0.125,-0.125,-0.125,linear,0.025,TRUE,25,FALSE,3,NA,NA,6,splines,0.8453,2.7840155584077034e-4,0.006917799617553343,0,10000
7,250,0,250,250,500,500,750,750,2,0,1,0.25,0.25,0.25,0.25,0.25,0.25,0.25,-0.125,-0.125,-0.125,-0.125,-0.125,-0.125,-0.125,-0.125,linear,0.025,TRUE,25,FALSE,3,NA,NA,6,splines_cal,0.8427,2.426564321888762e-4,0.006994681351431994,0,10000
7,250,0,250,250,500,500,750,750,2,0,1,0.25,0.25,0.25,0.25,0.25,0.25,0.25,-0.125,-0.125,-0.125,-0.125,-0.125,-0.125,-0.125,-0.125,linear,0.025,TRUE,25,FALSE,3,NA,NA,7,fixmodel,0.8475,-3.7771715853963044e-4,0.006916769059766177,0,10000
7,250,0,250,250,500,500,750,750,2,0,1,0.25,0.25,0.25,0.25,0.25,0.25,0.25,-0.125,-0.125,-0.125,-0.125,-0.125,-0.125,-0.125,-0.125,linear,0.025,TRUE,25,FALSE,3,NA,NA,7,sepmodel,0.7975,-3.479237433865986e-4,0.007942875196642718,0,10000
7,250,0,250,250,500,500,750,750,2,0,1,0.25,0.25,0.25,0.25,0.25,0.25,0.25,-0.125,-0.125,-0.125,-0.125,-0.125,-0.125,-0.125,-0.125,linear,0.025,TRUE,25,FALSE,3,NA,NA,7,splines,0.8493,-3.2700231093569517e-4,0.0068767517696863316,0,10000
7,250,0,250,250,500,500,750,750,2,0,1,0.25,0.25,0.25,0.25,0.25,0.25,0.25,-0.125,-0.125,-0.125,-0.125,-0.125,-0.125,-0.125,-0.125,linear,0.025,TRUE,25,FALSE,3,NA,NA,7,splines_cal,0.8465,-3.2655150293461795e-4,0.0069272897564548385,0,10000
7,250,0,250,250,500,500,750,750,2,0,1,0.25,0.25,0.25,0.25,0.25,0.25,0.25,0,0,0,0,0,0,0,0,linear,0.025,TRUE,25,FALSE,1,NA,NA,2,fixmodel,0.8193,-5.976544346180019e-4,0.007620397132663914,0,10000
7,250,0,250,250,500,500,750,750,2,0,1,0.25,0.25,0.25,0.25,0.25,0.25,0.25,0,0,0,0,0,0,0,0,linear,0.025,TRUE,25,FALSE,1,NA,NA,2,sepmodel,0.7915,-6.139231687893547e-4,0.008142726961420306,0,10000
7,250,0,250,250,500,500,750,750,2,0,1,0.25,0.25,0.25,0.25,0.25,0.25,0.25,0,0,0,0,0,0,0,0,linear,0.025,TRUE,25,FALSE,1,NA,NA,2,splines,0.8264,-5.46352381513719e-4,0.007470901872467961,0,10000
7,250,0,250,250,500,500,750,750,2,0,1,0.25,0.25,0.25,0.25,0.25,0.25,0.25,0,0,0,0,0,0,0,0,linear,0.025,TRUE,25,FALSE,1,NA,NA,2,splines_cal,0.8197,-5.461367463753602e-4,0.0076059608394407245,0,10000
7,250,0,250,250,500,500,750,750,2,0,1,0.25,0.25,0.25,0.25,0.25,0.25,0.25,0,0,0,0,0,0,0,0,linear,0.025,TRUE,25,FALSE,1,NA,NA,3,fixmodel,0.8204,-0.0012224131581839977,0.0075026621341364175,0,10000
7,250,0,250,250,500,500,750,750,2,0,1,0.25,0.25,0.25,0.25,0.25,0.25,0.25,0,0,0,0,0,0,0,0,linear,0.025,TRUE,25,FALSE,1,NA,NA,3,sepmodel,0.7911,-0.001238681892356584,0.008012641471100729,0,10000
7,250,0,250,250,500,500,750,750,2,0,1,0.25,0.25,0.25,0.25,0.25,0.25,0.25,0,0,0,0,0,0,0,0,linear,0.025,TRUE,25,FALSE,1,NA,NA,3,splines,0.8287,-0.0011701983056850614,0.0073574311940278105,0,10000
7,250,0,250,250,500,500,750,750,2,0,1,0.25,0.25,0.25,0.25,0.25,0.25,0.25,0,0,0,0,0,0,0,0,linear,0.025,TRUE,25,FALSE,1,NA,NA,3,splines_cal,0.8214,-0.0011577362222620325,0.00749737444614448,0,10000
7,250,0,250,250,500,500,750,750,2,0,1,0.25,0.25,0.25,0.25,0.25,0.25,0.25,0,0,0,0,0,0,0,0,linear,0.025,TRUE,25,FALSE,1,NA,NA,4,fixmodel,0.8345,2.7143153362062537e-4,0.007300664418709535,0,10000
7,250,0,250,250,500,500,750,750,2,0,1,0.25,0.25,0.25,0.25,0.25,0.25,0.25,0,0,0,0,0,0,0,0,linear,0.025,TRUE,25,FALSE,1,NA,NA,4,sepmodel,0.7952,3.347887907313879e-5,0.008095732874896268,0,10000
7,250,0,250,250,500,500,750,750,2,0,1,0.25,0.25,0.25,0.25,0.25,0.25,0.25,0,0,0,0,0,0,0,0,linear,0.025,TRUE,25,FALSE,1,NA,NA,4,splines,0.8383,3.2541396892801685e-4,0.00725837784131091,0,10000
7,250,0,250,250,500,500,750,750,2,0,1,0.25,0.25,0.25,0.25,0.25,0.25,0.25,0,0,0,0,0,0,0,0,linear,0.025,TRUE,25,FALSE,1,NA,NA,4,splines_cal,0.8382,3.949298395288096e-4,0.0072490725892844395,0,10000
7,250,0,250,250,500,500,750,750,2,0,1,0.25,0.25,0.25,0.25,0.25,0.25,0.25,0,0,0,0,0,0,0,0,linear,0.025,TRUE,25,FALSE,1,NA,NA,5,fixmodel,0.8429,8.545815944019421e-4,0.007152279347895421,0,10000
7,250,0,250,250,500,500,750,750,2,0,1,0.25,0.25,0.25,0.25,0.25,0.25,0.25,0,0,0,0,0,0,0,0,linear,0.025,TRUE,25,FALSE,1,NA,NA,5,sepmodel,0.8022,6.16628939854054e-4,0.00794919745383139,0,10000
7,250,0,250,250,500,500,750,750,2,0,1,0.25,0.25,0.25,0.25,0.25,0.25,0.25,0,0,0,0,0,0,0,0,linear,0.025,TRUE,25,FALSE,1,NA,NA,5,splines,0.8467,9.065182834541893e-4,0.007084578833909767,0,10000
7,250,0,250,250,500,500,750,750,2,0,1,0.25,0.25,0.25,0.25,0.25,0.25,0.25,0,0,0,0,0,0,0,0,linear,0.025,TRUE,25,FALSE,1,NA,NA,5,splines_cal,0.8453,9.810943344921328e-4,0.007108759313100369,0,10000
7,250,0,250,250,500,500,750,750,2,0,1,0.25,0.25,0.25,0.25,0.25,0.25,0.25,0,0,0,0,0,0,0,0,linear,0.025,TRUE,25,FALSE,1,NA,NA,6,fixmodel,0.8434,-4.628920296993058e-4,0.006998215867060753,0,10000
7,250,0,250,250,500,500,750,750,2,0,1,0.25,0.25,0.25,0.25,0.25,0.25,0.25,0,0,0,0,0,0,0,0,linear,0.025,TRUE,25,FALSE,1,NA,NA,6,sepmodel,0.7937,-4.522278268536424e-4,0.007945632412420692,0,10000
7,250,0,250,250,500,500,750,750,2,0,1,0.25,0.25,0.25,0.25,0.25,0.25,0.25,0,0,0,0,0,0,0,0,linear,0.025,TRUE,25,FALSE,1,NA,NA,6,splines,0.8458,-4.3585465523922237e-4,0.0069530800506964535,0,10000
7,250,0,250,250,500,500,750,750,2,0,1,0.25,0.25,0.25,0.25,0.25,0.25,0.25,0,0,0,0,0,0,0,0,linear,0.025,TRUE,25,FALSE,1,NA,NA,6,splines_cal,0.8422,-4.2121127207768547e-4,0.0070051770104648855,0,10000
7,250,0,250,250,500,500,750,750,2,0,1,0.25,0.25,0.25,0.25,0.25,0.25,0.25,0,0,0,0,0,0,0,0,linear,0.025,TRUE,25,FALSE,1,NA,NA,7,fixmodel,0.848,3.8196031400586545e-4,0.006962972791532145,0,10000
7,250,0,250,250,500,500,750,750,2,0,1,0.25,0.25,0.25,0.25,0.25,0.25,0.25,0,0,0,0,0,0,0,0,linear,0.025,TRUE,25,FALSE,1,NA,NA,7,sepmodel,0.7956,3.926245168514996e-4,0.008017850045530434,0,10000
7,250,0,250,250,500,500,750,750,2,0,1,0.25,0.25,0.25,0.25,0.25,0.25,0.25,0,0,0,0,0,0,0,0,linear,0.025,TRUE,25,FALSE,1,NA,NA,7,splines,0.8504,4.093646763129251e-4,0.006923849378521761,0,10000
7,250,0,250,250,500,500,750,750,2,0,1,0.25,0.25,0.25,0.25,0.25,0.25,0.25,0,0,0,0,0,0,0,0,linear,0.025,TRUE,25,FALSE,1,NA,NA,7,splines_cal,0.8476,3.1690248336703784e-4,0.0069850303909729065,0,10000
7,250,0,250,250,500,500,750,750,2,0,1,0.25,0.25,0.25,0.25,0.25,0.25,0.25,0,0,0,0,0,0,0,0,linear,0.025,TRUE,25,FALSE,2,NA,NA,2,fixmodel,0.8305,0.002154909349764153,0.007354419813947658,0,10000
7,250,0,250,250,500,500,750,750,2,0,1,0.25,0.25,0.25,0.25,0.25,0.25,0.25,0,0,0,0,0,0,0,0,linear,0.025,TRUE,25,FALSE,2,NA,NA,2,sepmodel,0.8041,0.002001351589658056,0.007926612147781441,0,10000
7,250,0,250,250,500,500,750,750,2,0,1,0.25,0.25,0.25,0.25,0.25,0.25,0.25,0,0,0,0,0,0,0,0,linear,0.025,TRUE,25,FALSE,2,NA,NA,2,splines,0.8356,0.002182824439299012,0.007285796434676216,0,10000
7,250,0,250,250,500,500,750,750,2,0,1,0.25,0.25,0.25,0.25,0.25,0.25,0.25,0,0,0,0,0,0,0,0,linear,0.025,TRUE,25,FALSE,2,NA,NA,2,splines_cal,0.8333,0.0021556642364406273,0.007334377672533269,0,10000
7,250,0,250,250,500,500,750,750,2,0,1,0.25,0.25,0.25,0.25,0.25,0.25,0.25,0,0,0,0,0,0,0,0,linear,0.025,TRUE,25,FALSE,2,NA,NA,3,fixmodel,0.8248,6.57133000240715e-4,0.007492919030797074,0,10000
7,250,0,250,250,500,500,750,750,2,0,1,0.25,0.25,0.25,0.25,0.25,0.25,0.25,0,0,0,0,0,0,0,0,linear,0.025,TRUE,25,FALSE,2,NA,NA,3,sepmodel,0.7944,5.03575240133427e-4,0.008069869725240925,0,10000
7,250,0,250,250,500,500,750,750,2,0,1,0.25,0.25,0.25,0.25,0.25,0.25,0.25,0,0,0,0,0,0,0,0,linear,0.025,TRUE,25,FALSE,2,NA,NA,3,splines,0.8285,6.857627064517383e-4,0.0073955178907366545,0,10000
7,250,0,250,250,500,500,750,750,2,0,1,0.25,0.25,0.25,0.25,0.25,0.25,0.25,0,0,0,0,0,0,0,0,linear,0.025,TRUE,25,FALSE,2,NA,NA,3,splines_cal,0.8246,6.256203976600803e-4,0.00747669128417938,0,10000
7,250,0,250,250,500,500,750,750,2,0,1,0.25,0.25,0.25,0.25,0.25,0.25,0.25,0,0,0,0,0,0,0,0,linear,0.025,TRUE,25,FALSE,2,NA,NA,4,fixmodel,0.8387,0.0011924682899254625,0.00718841687938911,0,10000
7,250,0,250,250,500,500,750,750,2,0,1,0.25,0.25,0.25,0.25,0.25,0.25,0.25,0,0,0,0,0,0,0,0,linear,0.025,TRUE,25,FALSE,2,NA,NA,4,sepmodel,0.7987,7.850277727329913e-4,0.00799607438726993,0,10000
7,250,0,250,250,500,500,750,750,2,0,1,0.25,0.25,0.25,0.25,0.25,0.25,0.25,0,0,0,0,0,0,0,0,linear,0.025,TRUE,25,FALSE,2,NA,NA,4,splines,0.8414,0.0012041618215726801,0.007130629693456944,0,10000
7,250,0,250,250,500,500,750,750,2,0,1,0.25,0.25,0.25,0.25,0.25,0.25,0.25,0,0,0,0,0,0,0,0,linear,0.025,TRUE,25,FALSE,2,NA,NA,4,splines_cal,0.84,0.0011429322272222446,0.007148059283583588,0,10000
7,250,0,250,250,500,500,750,750,2,0,1,0.25,0.25,0.25,0.25,0.25,0.25,0.25,0,0,0,0,0,0,0,0,linear,0.025,TRUE,25,FALSE,2,NA,NA,5,fixmodel,0.8432,0.0011857777622356425,0.0072849791548277205,0,10000
7,250,0,250,250,500,500,750,750,2,0,1,0.25,0.25,0.25,0.25,0.25,0.25,0.25,0,0,0,0,0,0,0,0,linear,0.025,TRUE,25,FALSE,2,NA,NA,5,sepmodel,0.8008,7.783372450428253e-4,0.008093372158451984,0,10000
7,250,0,250,250,500,500,750,750,2,0,1,0.25,0.25,0.25,0.25,0.25,0.25,0.25,0,0,0,0,0,0,0,0,linear,0.025,TRUE,25,FALSE,2,NA,NA,5,splines,0.8471,0.0011975202784611076,0.007226517582606903,0,10000
7,250,0,250,250,500,500,750,750,2,0,1,0.25,0.25,0.25,0.25,0.25,0.25,0.25,0,0,0,0,0,0,0,0,linear,0.025,TRUE,25,FALSE,2,NA,NA,5,splines_cal,0.8444,0.0011876063832332762,0.007260659631614649,0,10000
7,250,0,250,250,500,500,750,750,2,0,1,0.25,0.25,0.25,0.25,0.25,0.25,0.25,0,0,0,0,0,0,0,0,linear,0.025,TRUE,25,FALSE,2,NA,NA,6,fixmodel,0.8472,-5.2886727428238706e-5,0.007079528502434718,0,10000
7,250,0,250,250,500,500,750,750,2,0,1,0.25,0.25,0.25,0.25,0.25,0.25,0.25,0,0,0,0,0,0,0,0,linear,0.025,TRUE,25,FALSE,2,NA,NA,6,sepmodel,0.7994,-4.95833678248947e-4,0.008085630253971781,0,10000
7,250,0,250,250,500,500,750,750,2,0,1,0.25,0.25,0.25,0.25,0.25,0.25,0.25,0,0,0,0,0,0,0,0,linear,0.025,TRUE,25,FALSE,2,NA,NA,6,splines,0.849,1.8660169045496033e-5,0.007053489307535503,0,10000
7,250,0,250,250,500,500,750,750,2,0,1,0.25,0.25,0.25,0.25,0.25,0.25,0.25,0,0,0,0,0,0,0,0,linear,0.025,TRUE,25,FALSE,2,NA,NA,6,splines_cal,0.8461,5.691595596377433e-5,0.007095552022103874,0,10000
7,250,0,250,250,500,500,750,750,2,0,1,0.25,0.25,0.25,0.25,0.25,0.25,0.25,0,0,0,0,0,0,0,0,linear,0.025,TRUE,25,FALSE,2,NA,NA,7,fixmodel,0.8551,0.0015475723810810893,0.006958587460399218,0,10000
7,250,0,250,250,500,500,750,750,2,0,1,0.25,0.25,0.25,0.25,0.25,0.25,0.25,0,0,0,0,0,0,0,0,linear,0.025,TRUE,25,FALSE,2,NA,NA,7,sepmodel,0.8044,0.001104625430260356,0.00794563060656908,0,10000
7,250,0,250,250,500,500,750,750,2,0,1,0.25,0.25,0.25,0.25,0.25,0.25,0.25,0,0,0,0,0,0,0,0,linear,0.025,TRUE,25,FALSE,2,NA,NA,7,splines,0.8574,0.0016175314023589768,0.00694572198768025,0,10000
7,250,0,250,250,500,500,750,750,2,0,1,0.25,0.25,0.25,0.25,0.25,0.25,0.25,0,0,0,0,0,0,0,0,linear,0.025,TRUE,25,FALSE,2,NA,NA,7,splines_cal,0.8543,0.0015344337528577095,0.006967447264294987,0,10000
7,250,0,250,250,500,500,750,750,2,0,1,0.25,0.25,0.25,0.25,0.25,0.25,0.25,0,0,0,0,0,0,0,0,linear,0.025,TRUE,25,FALSE,3,NA,NA,2,fixmodel,0.8278,0.0010656850426994536,0.0073960108965362165,0,10000
7,250,0,250,250,500,500,750,750,2,0,1,0.25,0.25,0.25,0.25,0.25,0.25,0.25,0,0,0,0,0,0,0,0,linear,0.025,TRUE,25,FALSE,3,NA,NA,2,sepmodel,0.8052,0.0010388787249636226,0.007919739354458187,0,10000
7,250,0,250,250,500,500,750,750,2,0,1,0.25,0.25,0.25,0.25,0.25,0.25,0.25,0,0,0,0,0,0,0,0,linear,0.025,TRUE,25,FALSE,3,NA,NA,2,splines,0.8351,0.0011213803605979941,0.007301346549739432,0,10000
7,250,0,250,250,500,500,750,750,2,0,1,0.25,0.25,0.25,0.25,0.25,0.25,0.25,0,0,0,0,0,0,0,0,linear,0.025,TRUE,25,FALSE,3,NA,NA,2,splines_cal,0.8282,9.801187742938101e-4,0.007396365650603593,0,10000
7,250,0,250,250,500,500,750,750,2,0,1,0.25,0.25,0.25,0.25,0.25,0.25,0.25,0,0,0,0,0,0,0,0,linear,0.025,TRUE,25,FALSE,3,NA,NA,3,fixmodel,0.8287,-5.6981501391451e-4,0.0072984728003240885,0,10000
7,250,0,250,250,500,500,750,750,2,0,1,0.25,0.25,0.25,0.25,0.25,0.25,0.25,0,0,0,0,0,0,0,0,linear,0.025,TRUE,25,FALSE,3,NA,NA,3,sepmodel,0.8021,-5.966213316516301e-4,0.007764018995611909,0,10000
7,250,0,250,250,500,500,750,750,2,0,1,0.25,0.25,0.25,0.25,0.25,0.25,0.25,0,0,0,0,0,0,0,0,linear,0.025,TRUE,25,FALSE,3,NA,NA,3,splines,0.8304,-5.151378476935486e-4,0.007213734597668612,0,10000
7,250,0,250,250,500,500,750,750,2,0,1,0.25,0.25,0.25,0.25,0.25,0.25,0.25,0,0,0,0,0,0,0,0,linear,0.025,TRUE,25,FALSE,3,NA,NA,3,splines_cal,0.8265,-5.839934259893425e-4,0.00731618463473993,0,10000
7,250,0,250,250,500,500,750,750,2,0,1,0.25,0.25,0.25,0.25,0.25,0.25,0.25,0,0,0,0,0,0,0,0,linear,0.025,TRUE,25,FALSE,3,NA,NA,4,fixmodel,0.8429,-2.6160750448992387e-4,0.007057850692888159,0,10000
7,250,0,250,250,500,500,750,750,2,0,1,0.25,0.25,0.25,0.25,0.25,0.25,0.25,0,0,0,0,0,0,0,0,linear,0.025,TRUE,25,FALSE,3,NA,NA,4,sepmodel,0.7925,-4.831757211120125e-4,0.007870050866651794,0,10000
7,250,0,250,250,500,500,750,750,2,0,1,0.25,0.25,0.25,0.25,0.25,0.25,0.25,0,0,0,0,0,0,0,0,linear,0.025,TRUE,25,FALSE,3,NA,NA,4,splines,0.8435,-2.4043455091354675e-4,0.007018903915051701,0,10000
7,250,0,250,250,500,500,750,750,2,0,1,0.25,0.25,0.25,0.25,0.25,0.25,0.25,0,0,0,0,0,0,0,0,linear,0.025,TRUE,25,FALSE,3,NA,NA,4,splines_cal,0.8427,-6.943548248125628e-5,0.007061280499694911,0,10000
7,250,0,250,250,500,500,750,750,2,0,1,0.25,0.25,0.25,0.25,0.25,0.25,0.25,0,0,0,0,0,0,0,0,linear,0.025,TRUE,25,FALSE,3,NA,NA,5,fixmodel,0.8402,-0.0010898766605230777,0.007231470840644834,0,10000
7,250,0,250,250,500,500,750,750,2,0,1,0.25,0.25,0.25,0.25,0.25,0.25,0.25,0,0,0,0,0,0,0,0,linear,0.025,TRUE,25,FALSE,3,NA,NA,5,sepmodel,0.7935,-0.0013114448771455282,0.007990821036044446,0,10000
7,250,0,250,250,500,500,750,750,2,0,1,0.25,0.25,0.25,0.25,0.25,0.25,0.25,0,0,0,0,0,0,0,0,linear,0.025,TRUE,25,FALSE,3,NA,NA,5,splines,0.8405,-0.0010689867555346126,0.007184544599044314,0,10000
7,250,0,250,250,500,500,750,750,2,0,1,0.25,0.25,0.25,0.25,0.25,0.25,0.25,0,0,0,0,0,0,0,0,linear,0.025,TRUE,25,FALSE,3,NA,NA,5,splines_cal,0.8388,-9.811250550419e-4,0.007234376491989958,0,10000
7,250,0,250,250,500,500,750,750,2,0,1,0.25,0.25,0.25,0.25,0.25,0.25,0.25,0,0,0,0,0,0,0,0,linear,0.025,TRUE,25,FALSE,3,NA,NA,6,fixmodel,0.847,-5.0248834912653e-4,0.006956995819489453,0,10000
7,250,0,250,250,500,500,750,750,2,0,1,0.25,0.25,0.25,0.25,0.25,0.25,0.25,0,0,0,0,0,0,0,0,linear,0.025,TRUE,25,FALSE,3,NA,NA,6,sepmodel,0.7966,-0.0010113229907550967,0.007838433978821327,0,10000
7,250,0,250,250,500,500,750,750,2,0,1,0.25,0.25,0.25,0.25,0.25,0.25,0.25,0,0,0,0,0,0,0,0,linear,0.025,TRUE,25,FALSE,3,NA,NA,6,splines,0.8495,-4.301439040823193e-4,0.006922797764533952,0,10000
7,250,0,250,250,500,500,750,750,2,0,1,0.25,0.25,0.25,0.25,0.25,0.25,0.25,0,0,0,0,0,0,0,0,linear,0.025,TRUE,25,FALSE,3,NA,NA,6,splines_cal,0.8467,-5.102883461821181e-4,0.006981360042946673,0,10000
7,250,0,250,250,500,500,750,750,2,0,1,0.25,0.25,0.25,0.25,0.25,0.25,0.25,0,0,0,0,0,0,0,0,linear,0.025,TRUE,25,FALSE,3,NA,NA,7,fixmodel,0.8446,-0.001004304360095469,0.006957595023663133,0,10000
7,250,0,250,250,500,500,750,750,2,0,1,0.25,0.25,0.25,0.25,0.25,0.25,0.25,0,0,0,0,0,0,0,0,linear,0.025,TRUE,25,FALSE,3,NA,NA,7,sepmodel,0.7942,-0.0015131390017240247,0.007950867677898968,0,10000
7,250,0,250,250,500,500,750,750,2,0,1,0.25,0.25,0.25,0.25,0.25,0.25,0.25,0,0,0,0,0,0,0,0,linear,0.025,TRUE,25,FALSE,3,NA,NA,7,splines,0.8486,-9.325373861437202e-4,0.006910186153087297,0,10000
7,250,0,250,250,500,500,750,750,2,0,1,0.25,0.25,0.25,0.25,0.25,0.25,0.25,0,0,0,0,0,0,0,0,linear,0.025,TRUE,25,FALSE,3,NA,NA,7,splines_cal,0.8444,-0.0010437118830218816,0.006971952067686169,0,10000
7,250,0,250,250,500,500,750,750,2,0,1,0.25,0.25,0.25,0.25,0.25,0.25,0.25,0.125,0.125,0.125,0.125,0.125,0.125,0.125,0.125,linear,0.025,TRUE,25,FALSE,1,NA,NA,2,fixmodel,0.83,0.0019522532805836084,0.0074801521810457326,0,10000
7,250,0,250,250,500,500,750,750,2,0,1,0.25,0.25,0.25,0.25,0.25,0.25,0.25,0.125,0.125,0.125,0.125,0.125,0.125,0.125,0.125,linear,0.025,TRUE,25,FALSE,1,NA,NA,2,sepmodel,0.804,0.0019408649399278684,0.008028338378417056,0,10000
7,250,0,250,250,500,500,750,750,2,0,1,0.25,0.25,0.25,0.25,0.25,0.25,0.25,0.125,0.125,0.125,0.125,0.125,0.125,0.125,0.125,linear,0.025,TRUE,25,FALSE,1,NA,NA,2,splines,0.8352,0.0018409550716656593,0.007331912584272751,0,10000
7,250,0,250,250,500,500,750,750,2,0,1,0.25,0.25,0.25,0.25,0.25,0.25,0.25,0.125,0.125,0.125,0.125,0.125,0.125,0.125,0.125,linear,0.025,TRUE,25,FALSE,1,NA,NA,2,splines_cal,0.8309,0.0019866272888884955,0.007466195046038963,0,10000
7,250,0,250,250,500,500,750,750,2,0,1,0.25,0.25,0.25,0.25,0.25,0.25,0.25,0.125,0.125,0.125,0.125,0.125,0.125,0.125,0.125,linear,0.025,TRUE,25,FALSE,1,NA,NA,3,fixmodel,0.8335,0.0021610831463788204,0.007440297734660227,0,10000
7,250,0,250,250,500,500,750,750,2,0,1,0.25,0.25,0.25,0.25,0.25,0.25,0.25,0.125,0.125,0.125,0.125,0.125,0.125,0.125,0.125,linear,0.025,TRUE,25,FALSE,1,NA,NA,3,sepmodel,0.803,0.002149694805721981,0.008011398366012286,0,10000
7,250,0,250,250,500,500,750,750,2,0,1,0.25,0.25,0.25,0.25,0.25,0.25,0.25,0.125,0.125,0.125,0.125,0.125,0.125,0.125,0.125,linear,0.025,TRUE,25,FALSE,1,NA,NA,3,splines,0.8393,0.002046415026195221,0.007274824339061414,0,10000
7,250,0,250,250,500,500,750,750,2,0,1,0.25,0.25,0.25,0.25,0.25,0.25,0.25,0.125,0.125,0.125,0.125,0.125,0.125,0.125,0.125,linear,0.025,TRUE,25,FALSE,1,NA,NA,3,splines_cal,0.8327,0.002210457540237554,0.00741552873552887,0,10000
7,250,0,250,250,500,500,750,750,2,0,1,0.25,0.25,0.25,0.25,0.25,0.25,0.25,0.125,0.125,0.125,0.125,0.125,0.125,0.125,0.125,linear,0.025,TRUE,25,FALSE,1,NA,NA,4,fixmodel,0.8429,3.0739935329735765e-4,0.006953312128647398,0,10000
7,250,0,250,250,500,500,750,750,2,0,1,0.25,0.25,0.25,0.25,0.25,0.25,0.25,0.125,0.125,0.125,0.125,0.125,0.125,0.125,0.125,linear,0.025,TRUE,25,FALSE,1,NA,NA,4,sepmodel,0.8028,3.307867386345417e-4,0.007758353169336665,0,10000
7,250,0,250,250,500,500,750,750,2,0,1,0.25,0.25,0.25,0.25,0.25,0.25,0.25,0.125,0.125,0.125,0.125,0.125,0.125,0.125,0.125,linear,0.025,TRUE,25,FALSE,1,NA,NA,4,splines,0.846,2.5092545633335455e-4,0.006874261476604669,0,10000
7,250,0,250,250,500,500,750,750,2,0,1,0.25,0.25,0.25,0.25,0.25,0.25,0.25,0.125,0.125,0.125,0.125,0.125,0.125,0.125,0.125,linear,0.025,TRUE,25,FALSE,1,NA,NA,4,splines_cal,0.8454,2.038558250779021e-4,0.006933530364971118,0,10000
7,250,0,250,250,500,500,750,750,2,0,1,0.25,0.25,0.25,0.25,0.25,0.25,0.25,0.125,0.125,0.125,0.125,0.125,0.125,0.125,0.125,linear,0.025,TRUE,25,FALSE,1,NA,NA,5,fixmodel,0.8387,-8.590588012586104e-6,0.007102733302017489,0,10000
7,250,0,250,250,500,500,750,750,2,0,1,0.25,0.25,0.25,0.25,0.25,0.25,0.25,0.125,0.125,0.125,0.125,0.125,0.125,0.125,0.125,linear,0.025,TRUE,25,FALSE,1,NA,NA,5,sepmodel,0.7954,1.479679732422507e-5,0.007972483729569872,0,10000
7,250,0,250,250,500,500,750,750,2,0,1,0.25,0.25,0.25,0.25,0.25,0.25,0.25,0.125,0.125,0.125,0.125,0.125,0.125,0.125,0.125,linear,0.025,TRUE,25,FALSE,1,NA,NA,5,splines,0.8428,-6.575605927076727e-5,0.0070422435140035594,0,10000
7,250,0,250,250,500,500,750,750,2,0,1,0.25,0.25,0.25,0.25,0.25,0.25,0.25,0.125,0.125,0.125,0.125,0.125,0.125,0.125,0.125,linear,0.025,TRUE,25,FALSE,1,NA,NA,5,splines_cal,0.8411,-1.3752404262670138e-4,0.007091972745404037,0,10000
7,250,0,250,250,500,500,750,750,2,0,1,0.25,0.25,0.25,0.25,0.25,0.25,0.25,0.125,0.125,0.125,0.125,0.125,0.125,0.125,0.125,linear,0.025,TRUE,25,FALSE,1,NA,NA,6,fixmodel,0.8561,0.0014172396500927822,0.0068955103042253425,0,10000
7,250,0,250,250,500,500,750,750,2,0,1,0.25,0.25,0.25,0.25,0.25,0.25,0.25,0.125,0.125,0.125,0.125,0.125,0.125,0.125,0.125,linear,0.025,TRUE,25,FALSE,1,NA,NA,6,sepmodel,0.8068,0.0013027610618963543,0.007882143005369857,0,10000
7,250,0,250,250,500,500,750,750,2,0,1,0.25,0.25,0.25,0.25,0.25,0.25,0.25,0.125,0.125,0.125,0.125,0.125,0.125,0.125,0.125,linear,0.025,TRUE,25,FALSE,1,NA,NA,6,splines,0.8582,0.001336772207735773,0.006858407735113951,0,10000
7,250,0,250,250,500,500,750,750,2,0,1,0.25,0.25,0.25,0.25,0.25,0.25,0.25,0.125,0.125,0.125,0.125,0.125,0.125,0.125,0.125,linear,0.025,TRUE,25,FALSE,1,NA,NA,6,splines_cal,0.8538,0.001314984792821736,0.006901169489477531,0,10000
7,250,0,250,250,500,500,750,750,2,0,1,0.25,0.25,0.25,0.25,0.25,0.25,0.25,0.125,0.125,0.125,0.125,0.125,0.125,0.125,0.125,linear,0.025,TRUE,25,FALSE,1,NA,NA,7,fixmodel,0.8489,0.0012522454536115601,0.007021132946367579,0,10000
7,250,0,250,250,500,500,750,750,2,0,1,0.25,0.25,0.25,0.25,0.25,0.25,0.25,0.125,0.125,0.125,0.125,0.125,0.125,0.125,0.125,linear,0.025,TRUE,25,FALSE,1,NA,NA,7,sepmodel,0.8002,0.0011377668654151151,0.008012718093288426,0,10000
7,250,0,250,250,500,500,750,750,2,0,1,0.25,0.25,0.25,0.25,0.25,0.25,0.25,0.125,0.125,0.125,0.125,0.125,0.125,0.125,0.125,linear,0.025,TRUE,25,FALSE,1,NA,NA,7,splines,0.849,0.001171200029753526,0.006966770123288939,0,10000
7,250,0,250,250,500,500,750,750,2,0,1,0.25,0.25,0.25,0.25,0.25,0.25,0.25,0.125,0.125,0.125,0.125,0.125,0.125,0.125,0.125,linear,0.025,TRUE,25,FALSE,1,NA,NA,7,splines_cal,0.8471,0.001274687617759342,0.007033135357447709,0,10000
7,250,0,250,250,500,500,750,750,2,0,1,0.25,0.25,0.25,0.25,0.25,0.25,0.25,0.125,0.125,0.125,0.125,0.125,0.125,0.125,0.125,linear,0.025,TRUE,25,FALSE,2,NA,NA,2,fixmodel,0.8233,-9.175509856341042e-4,0.00734914534566689,0,10000
7,250,0,250,250,500,500,750,750,2,0,1,0.25,0.25,0.25,0.25,0.25,0.25,0.25,0.125,0.125,0.125,0.125,0.125,0.125,0.125,0.125,linear,0.025,TRUE,25,FALSE,2,NA,NA,2,sepmodel,0.797,-0.001075689848420356,0.007839541931239096,0,10000
7,250,0,250,250,500,500,750,750,2,0,1,0.25,0.25,0.25,0.25,0.25,0.25,0.25,0.125,0.125,0.125,0.125,0.125,0.125,0.125,0.125,linear,0.025,TRUE,25,FALSE,2,NA,NA,2,splines,0.8264,-8.657764056992855e-4,0.007271199441525217,0,10000
7,250,0,250,250,500,500,750,750,2,0,1,0.25,0.25,0.25,0.25,0.25,0.25,0.25,0.125,0.125,0.125,0.125,0.125,0.125,0.125,0.125,linear,0.025,TRUE,25,FALSE,2,NA,NA,2,splines_cal,0.8223,-8.737734959881664e-4,0.00733566347441031,0,10000
7,250,0,250,250,500,500,750,750,2,0,1,0.25,0.25,0.25,0.25,0.25,0.25,0.25,0.125,0.125,0.125,0.125,0.125,0.125,0.125,0.125,linear,0.025,TRUE,25,FALSE,2,NA,NA,3,fixmodel,0.8204,-0.0013344929067288787,0.007472417245354796,0,10000
7,250,0,250,250,500,500,750,750,2,0,1,0.25,0.25,0.25,0.25,0.25,0.25,0.25,0.125,0.125,0.125,0.125,0.125,0.125,0.125,0.125,linear,0.025,TRUE,25,FALSE,2,NA,NA,3,sepmodel,0.7935,-0.0014926317695161321,0.007985834550790294,0,10000
7,250,0,250,250,500,500,750,750,2,0,1,0.25,0.25,0.25,0.25,0.25,0.25,0.25,0.125,0.125,0.125,0.125,0.125,0.125,0.125,0.125,linear,0.025,TRUE,25,FALSE,2,NA,NA,3,splines,0.8221,-0.0012848461672941506,0.007408360239737477,0,10000
7,250,0,250,250,500,500,750,750,2,0,1,0.25,0.25,0.25,0.25,0.25,0.25,0.25,0.125,0.125,0.125,0.125,0.125,0.125,0.125,0.125,linear,0.025,TRUE,25,FALSE,2,NA,NA,3,splines_cal,0.8204,-0.0012596746151455525,0.007469133982725218,0,10000
7,250,0,250,250,500,500,750,750,2,0,1,0.25,0.25,0.25,0.25,0.25,0.25,0.25,0.125,0.125,0.125,0.125,0.125,0.125,0.125,0.125,linear,0.025,TRUE,25,FALSE,2,NA,NA,4,fixmodel,0.8323,-0.0019291134398045217,0.007213924047096486,0,10000
7,250,0,250,250,500,500,750,750,2,0,1,0.25,0.25,0.25,0.25,0.25,0.25,0.25,0.125,0.125,0.125,0.125,0.125,0.125,0.125,0.125,linear,0.025,TRUE,25,FALSE,2,NA,NA,4,sepmodel,0.7862,-0.0019247151522036013,0.007995941281858456,0,10000
7,250,0,250,250,500,500,750,750,2,0,1,0.25,0.25,0.25,0.25,0.25,0.25,0.25,0.125,0.125,0.125,0.125,0.125,0.125,0.125,0.125,linear,0.025,TRUE,25,FALSE,2,NA,NA,4,splines,0.8336,-0.0019536995161081893,0.007166093280895812,0,10000
7,250,0,250,250,500,500,750,750,2,0,1,0.25,0.25,0.25,0.25,0.25,0.25,0.25,0.125,0.125,0.125,0.125,0.125,0.125,0.125,0.125,linear,0.025,TRUE,25,FALSE,2,NA,NA,4,splines_cal,0.8326,-0.0017415511063978738,0.007180879743440774,0,10000
7,250,0,250,250,500,500,750,750,2,0,1,0.25,0.25,0.25,0.25,0.25,0.25,0.25,0.125,0.125,0.125,0.125,0.125,0.125,0.125,0.125,linear,0.025,TRUE,25,FALSE,2,NA,NA,5,fixmodel,0.8377,2.714771975546348e-4,0.007317321897280259,0,10000
7,250,0,250,250,500,500,750,750,2,0,1,0.25,0.25,0.25,0.25,0.25,0.25,0.25,0.125,0.125,0.125,0.125,0.125,0.125,0.125,0.125,linear,0.025,TRUE,25,FALSE,2,NA,NA,5,sepmodel,0.7932,2.758754851552036e-4,0.008137160976416037,0,10000
7,250,0,250,250,500,500,750,750,2,0,1,0.25,0.25,0.25,0.25,0.25,0.25,0.25,0.125,0.125,0.125,0.125,0.125,0.125,0.125,0.125,linear,0.025,TRUE,25,FALSE,2,NA,NA,5,splines,0.8415,2.468762610765862e-4,0.007262490907874503,0,10000
7,250,0,250,250,500,500,750,750,2,0,1,0.25,0.25,0.25,0.25,0.25,0.25,0.25,0.125,0.125,0.125,0.125,0.125,0.125,0.125,0.125,linear,0.025,TRUE,25,FALSE,2,NA,NA,5,splines_cal,0.8413,4.241132779566108e-4,0.0072941715631581645,0,10000
7,250,0,250,250,500,500,750,750,2,0,1,0.25,0.25,0.25,0.25,0.25,0.25,0.25,0.125,0.125,0.125,0.125,0.125,0.125,0.125,0.125,linear,0.025,TRUE,25,FALSE,2,NA,NA,6,fixmodel,0.8431,-0.001508322729183682,0.007050902175028328,0,10000
7,250,0,250,250,500,500,750,750,2,0,1,0.25,0.25,0.25,0.25,0.25,0.25,0.25,0.125,0.125,0.125,0.125,0.125,0.125,0.125,0.125,linear,0.025,TRUE,25,FALSE,2,NA,NA,6,sepmodel,0.7909,-0.0013391415054147672,0.008011550651554594,0,10000
7,250,0,250,250,500,500,750,750,2,0,1,0.25,0.25,0.25,0.25,0.25,0.25,0.25,0.125,0.125,0.125,0.125,0.125,0.125,0.125,0.125,linear,0.025,TRUE,25,FALSE,2,NA,NA,6,splines,0.8448,-0.001466676258618068,0.007021952048432401,0,10000
7,250,0,250,250,500,500,750,750,2,0,1,0.25,0.25,0.25,0.25,0.25,0.25,0.25,0.125,0.125,0.125,0.125,0.125,0.125,0.125,0.125,linear,0.025,TRUE,25,FALSE,2,NA,NA,6,splines_cal,0.8424,-0.0014338102893635633,0.00707400915480928,0,10000
7,250,0,250,250,500,500,750,750,2,0,1,0.25,0.25,0.25,0.25,0.25,0.25,0.25,0.125,0.125,0.125,0.125,0.125,0.125,0.125,0.125,linear,0.025,TRUE,25,FALSE,2,NA,NA,7,fixmodel,0.8438,-0.0011573063336275727,0.007077479078511077,0,10000
7,250,0,250,250,500,500,750,750,2,0,1,0.25,0.25,0.25,0.25,0.25,0.25,0.25,0.125,0.125,0.125,0.125,0.125,0.125,0.125,0.125,linear,0.025,TRUE,25,FALSE,2,NA,NA,7,sepmodel,0.7956,-9.881251098586127e-4,0.00813427737536867,0,10000
7,250,0,250,250,500,500,750,750,2,0,1,0.25,0.25,0.25,0.25,0.25,0.25,0.25,0.125,0.125,0.125,0.125,0.125,0.125,0.125,0.125,linear,0.025,TRUE,25,FALSE,2,NA,NA,7,splines,0.8451,-0.0011136519011532846,0.007043720344584079,0,10000
7,250,0,250,250,500,500,750,750,2,0,1,0.25,0.25,0.25,0.25,0.25,0.25,0.25,0.125,0.125,0.125,0.125,0.125,0.125,0.125,0.125,linear,0.025,TRUE,25,FALSE,2,NA,NA,7,splines_cal,0.844,-0.001085702409756082,0.007084792871249392,0,10000
7,250,0,250,250,500,500,750,750,2,0,1,0.25,0.25,0.25,0.25,0.25,0.25,0.25,0.125,0.125,0.125,0.125,0.125,0.125,0.125,0.125,linear,0.025,TRUE,25,FALSE,3,NA,NA,2,fixmodel,0.8231,-5.545941409304348e-4,0.007522739944436825,0,10000
7,250,0,250,250,500,500,750,750,2,0,1,0.25,0.25,0.25,0.25,0.25,0.25,0.25,0.125,0.125,0.125,0.125,0.125,0.125,0.125,0.125,linear,0.025,TRUE,25,FALSE,3,NA,NA,2,sepmodel,0.7924,-4.4800705095929147e-4,0.008190941416827064,0,10000
7,250,0,250,250,500,500,750,750,2,0,1,0.25,0.25,0.25,0.25,0.25,0.25,0.25,0.125,0.125,0.125,0.125,0.125,0.125,0.125,0.125,linear,0.025,TRUE,25,FALSE,3,NA,NA,2,splines,0.8267,-5.439273040289433e-4,0.0074214944604772,0,10000
7,250,0,250,250,500,500,750,750,2,0,1,0.25,0.25,0.25,0.25,0.25,0.25,0.25,0.125,0.125,0.125,0.125,0.125,0.125,0.125,0.125,linear,0.025,TRUE,25,FALSE,3,NA,NA,2,splines_cal,0.8244,-5.097117306474105e-4,0.007506209726578958,0,10000
7,250,0,250,250,500,500,750,750,2,0,1,0.25,0.25,0.25,0.25,0.25,0.25,0.25,0.125,0.125,0.125,0.125,0.125,0.125,0.125,0.125,linear,0.025,TRUE,25,FALSE,3,NA,NA,3,fixmodel,0.8255,7.661392892433011e-4,0.007380853951960545,0,10000
7,250,0,250,250,500,500,750,750,2,0,1,0.25,0.25,0.25,0.25,0.25,0.25,0.25,0.125,0.125,0.125,0.125,0.125,0.125,0.125,0.125,linear,0.025,TRUE,25,FALSE,3,NA,NA,3,sepmodel,0.7967,8.727263792133534e-4,0.008012013159672794,0,10000
7,250,0,250,250,500,500,750,750,2,0,1,0.25,0.25,0.25,0.25,0.25,0.25,0.25,0.125,0.125,0.125,0.125,0.125,0.125,0.125,0.125,linear,0.025,TRUE,25,FALSE,3,NA,NA,3,splines,0.8304,7.77384714283926e-4,0.007284873181148936,0,10000
7,250,0,250,250,500,500,750,750,2,0,1,0.25,0.25,0.25,0.25,0.25,0.25,0.25,0.125,0.125,0.125,0.125,0.125,0.125,0.125,0.125,linear,0.025,TRUE,25,FALSE,3,NA,NA,3,splines_cal,0.8277,7.863699112082602e-4,0.0073607778297356775,0,10000
7,250,0,250,250,500,500,750,750,2,0,1,0.25,0.25,0.25,0.25,0.25,0.25,0.25,0.125,0.125,0.125,0.125,0.125,0.125,0.125,0.125,linear,0.025,TRUE,25,FALSE,3,NA,NA,4,fixmodel,0.8372,-5.221527240854293e-4,0.007194430703220091,0,10000
7,250,0,250,250,500,500,750,750,2,0,1,0.25,0.25,0.25,0.25,0.25,0.25,0.25,0.125,0.125,0.125,0.125,0.125,0.125,0.125,0.125,linear,0.025,TRUE,25,FALSE,3,NA,NA,4,sepmodel,0.7943,-5.641584912474152e-4,0.008063590070766735,0,10000
7,250,0,250,250,500,500,750,750,2,0,1,0.25,0.25,0.25,0.25,0.25,0.25,0.25,0.125,0.125,0.125,0.125,0.125,0.125,0.125,0.125,linear,0.025,TRUE,25,FALSE,3,NA,NA,4,splines,0.8378,-5.476680841917312e-4,0.007157430351287705,0,10000
7,250,0,250,250,500,500,750,750,2,0,1,0.25,0.25,0.25,0.25,0.25,0.25,0.25,0.125,0.125,0.125,0.125,0.125,0.125,0.125,0.125,linear,0.025,TRUE,25,FALSE,3,NA,NA,4,splines_cal,0.8392,-3.613543422898204e-4,0.007182421111953872,0,10000
7,250,0,250,250,500,500,750,750,2,0,1,0.25,0.25,0.25,0.25,0.25,0.25,0.25,0.125,0.125,0.125,0.125,0.125,0.125,0.125,0.125,linear,0.025,TRUE,25,FALSE,3,NA,NA,5,fixmodel,0.8412,-7.313577456011737e-4,0.007128192445959221,0,10000
7,250,0,250,250,500,500,750,750,2,0,1,0.25,0.25,0.25,0.25,0.25,0.25,0.25,0.125,0.125,0.125,0.125,0.125,0.125,0.125,0.125,linear,0.025,TRUE,25,FALSE,3,NA,NA,5,sepmodel,0.796,-7.733635127636135e-4,0.008051956197105657,0,10000
7,250,0,250,250,500,500,750,750,2,0,1,0.25,0.25,0.25,0.25,0.25,0.25,0.25,0.125,0.125,0.125,0.125,0.125,0.125,0.125,0.125,linear,0.025,TRUE,25,FALSE,3,NA,NA,5,splines,0.8436,-7.563515842398992e-4,0.007089806710713207,0,10000
7,250,0,250,250,500,500,750,750,2,0,1,0.25,0.25,0.25,0.25,0.25,0.25,0.25,0.125,0.125,0.125,0.125,0.125,0.125,0.125,0.125,linear,0.025,TRUE,25,FALSE,3,NA,NA,5,splines_cal,0.8418,-6.327887248159629e-4,0.0070992294295277895,0,10000
7,250,0,250,250,500,500,750,750,2,0,1,0.25,0.25,0.25,0.25,0.25,0.25,0.25,0.125,0.125,0.125,0.125,0.125,0.125,0.125,0.125,linear,0.025,TRUE,25,FALSE,3,NA,NA,6,fixmodel,0.8457,-0.0019412108883342107,0.006983181447156976,0,10000
7,250,0,250,250,500,500,750,750,2,0,1,0.25,0.25,0.25,0.25,0.25,0.25,0.25,0.125,0.125,0.125,0.125,0.125,0.125,0.125,0.125,linear,0.025,TRUE,25,FALSE,3,NA,NA,6,sepmodel,0.7936,-0.001959456973158334,0.008010357731754332,0,10000
7,250,0,250,250,500,500,750,750,2,0,1,0.25,0.25,0.25,0.25,0.25,0.25,0.25,0.125,0.125,0.125,0.125,0.125,0.125,0.125,0.125,linear,0.025,TRUE,25,FALSE,3,NA,NA,6,splines,0.8462,-0.001938764754100616,0.006959216711987411,0,10000
7,250,0,250,250,500,500,750,750,2,0,1,0.25,0.25,0.25,0.25,0.25,0.25,0.25,0.125,0.125,0.125,0.125,0.125,0.125,0.125,0.125,linear,0.025,TRUE,25,FALSE,3,NA,NA,6,splines_cal,0.844,-0.0019406175700785154,0.006989578751701321,0,10000
7,250,0,250,250,500,500,750,750,2,0,1,0.25,0.25,0.25,0.25,0.25,0.25,0.25,0.125,0.125,0.125,0.125,0.125,0.125,0.125,0.125,linear,0.025,TRUE,25,FALSE,3,NA,NA,7,fixmodel,0.8487,1.982513961261949e-5,0.006965465821576996,0,10000
7,250,0,250,250,500,500,750,750,2,0,1,0.25,0.25,0.25,0.25,0.25,0.25,0.25,0.125,0.125,0.125,0.125,0.125,0.125,0.125,0.125,linear,0.025,TRUE,25,FALSE,3,NA,NA,7,sepmodel,0.7962,1.5790547885154576e-6,0.008015108685277817,0,10000
7,250,0,250,250,500,500,750,750,2,0,1,0.25,0.25,0.25,0.25,0.25,0.25,0.25,0.125,0.125,0.125,0.125,0.125,0.125,0.125,0.125,linear,0.025,TRUE,25,FALSE,3,NA,NA,7,splines,0.8508,2.2819099181660358e-5,0.006934852584825386,0,10000
7,250,0,250,250,500,500,750,750,2,0,1,0.25,0.25,0.25,0.25,0.25,0.25,0.25,0.125,0.125,0.125,0.125,0.125,0.125,0.125,0.125,linear,0.025,TRUE,25,FALSE,3,NA,NA,7,splines_cal,0.8481,2.905579754217951e-5,0.007001361772490394,0,10000
7,250,0,250,250,500,500,750,750,2,0,1,0.25,0.25,0.25,0.25,0.25,0.25,0.25,0.25,0.25,0.25,0.25,0.25,0.25,0.25,0.25,linear,0.025,TRUE,25,FALSE,1,NA,NA,2,fixmodel,0.8226,-6.445491077380448e-4,0.007543108170044128,0,10000
7,250,0,250,250,500,500,750,750,2,0,1,0.25,0.25,0.25,0.25,0.25,0.25,0.25,0.25,0.25,0.25,0.25,0.25,0.25,0.25,0.25,linear,0.025,TRUE,25,FALSE,1,NA,NA,2,sepmodel,0.7888,-0.0010087424333027816,0.008158178247301412,0,10000
7,250,0,250,250,500,500,750,750,2,0,1,0.25,0.25,0.25,0.25,0.25,0.25,0.25,0.25,0.25,0.25,0.25,0.25,0.25,0.25,0.25,linear,0.025,TRUE,25,FALSE,1,NA,NA,2,splines,0.8286,-4.3998694803443303e-4,0.007418745968451552,0,10000
7,250,0,250,250,500,500,750,750,2,0,1,0.25,0.25,0.25,0.25,0.25,0.25,0.25,0.25,0.25,0.25,0.25,0.25,0.25,0.25,0.25,linear,0.025,TRUE,25,FALSE,1,NA,NA,2,splines_cal,0.8215,-5.60550660100564e-4,0.007552999984634795,0,10000
7,250,0,250,250,500,500,750,750,2,0,1,0.25,0.25,0.25,0.25,0.25,0.25,0.25,0.25,0.25,0.25,0.25,0.25,0.25,0.25,0.25,linear,0.025,TRUE,25,FALSE,1,NA,NA,3,fixmodel,0.832,-9.21947724931859e-4,0.0073391581379209335,0,10000
7,250,0,250,250,500,500,750,750,2,0,1,0.25,0.25,0.25,0.25,0.25,0.25,0.25,0.25,0.25,0.25,0.25,0.25,0.25,0.25,0.25,linear,0.025,TRUE,25,FALSE,1,NA,NA,3,sepmodel,0.795,-0.0012861410504975686,0.007936152638851552,0,10000
7,250,0,250,250,500,500,750,750,2,0,1,0.25,0.25,0.25,0.25,0.25,0.25,0.25,0.25,0.25,0.25,0.25,0.25,0.25,0.25,0.25,linear,0.025,TRUE,25,FALSE,1,NA,NA,3,splines,0.8386,-7.170224443985979e-4,0.007187063508839318,0,10000
7,250,0,250,250,500,500,750,750,2,0,1,0.25,0.25,0.25,0.25,0.25,0.25,0.25,0.25,0.25,0.25,0.25,0.25,0.25,0.25,0.25,linear,0.025,TRUE,25,FALSE,1,NA,NA,3,splines_cal,0.8308,-8.615084646051185e-4,0.007343871128676587,0,10000
7,250,0,250,250,500,500,750,750,2,0,1,0.25,0.25,0.25,0.25,0.25,0.25,0.25,0.25,0.25,0.25,0.25,0.25,0.25,0.25,0.25,linear,0.025,TRUE,25,FALSE,1,NA,NA,4,fixmodel,0.841,8.272772061011605e-5,0.007126533994987359,0,10000
7,250,0,250,250,500,500,750,750,2,0,1,0.25,0.25,0.25,0.25,0.25,0.25,0.25,0.25,0.25,0.25,0.25,0.25,0.25,0.25,0.25,linear,0.025,TRUE,25,FALSE,1,NA,NA,4,sepmodel,0.7972,-5.454656568936916e-4,0.007984674964417725,0,10000
7,250,0,250,250,500,500,750,750,2,0,1,0.25,0.25,0.25,0.25,0.25,0.25,0.25,0.25,0.25,0.25,0.25,0.25,0.25,0.25,0.25,linear,0.025,TRUE,25,FALSE,1,NA,NA,4,splines,0.8421,1.7486646311788841e-4,0.007068851354364136,0,10000
7,250,0,250,250,500,500,750,750,2,0,1,0.25,0.25,0.25,0.25,0.25,0.25,0.25,0.25,0.25,0.25,0.25,0.25,0.25,0.25,0.25,linear,0.025,TRUE,25,FALSE,1,NA,NA,4,splines_cal,0.8423,1.0054620057245678e-4,0.007118852941961867,0,10000
7,250,0,250,250,500,500,750,750,2,0,1,0.25,0.25,0.25,0.25,0.25,0.25,0.25,0.25,0.25,0.25,0.25,0.25,0.25,0.25,0.25,linear,0.025,TRUE,25,FALSE,1,NA,NA,5,fixmodel,0.8408,-3.5934407767020625e-4,0.007256330432151716,0,10000
7,250,0,250,250,500,500,750,750,2,0,1,0.25,0.25,0.25,0.25,0.25,0.25,0.25,0.25,0.25,0.25,0.25,0.25,0.25,0.25,0.25,linear,0.025,TRUE,25,FALSE,1,NA,NA,5,sepmodel,0.7896,-9.87537455174372e-4,0.008140346119402935,0,10000
7,250,0,250,250,500,500,750,750,2,0,1,0.25,0.25,0.25,0.25,0.25,0.25,0.25,0.25,0.25,0.25,0.25,0.25,0.25,0.25,0.25,linear,0.025,TRUE,25,FALSE,1,NA,NA,5,splines,0.8458,-2.6648654902640466e-4,0.007209262492017294,0,10000
7,250,0,250,250,500,500,750,750,2,0,1,0.25,0.25,0.25,0.25,0.25,0.25,0.25,0.25,0.25,0.25,0.25,0.25,0.25,0.25,0.25,linear,0.025,TRUE,25,FALSE,1,NA,NA,5,splines_cal,0.8419,-3.396210022312125e-4,0.007251680845431207,0,10000
7,250,0,250,250,500,500,750,750,2,0,1,0.25,0.25,0.25,0.25,0.25,0.25,0.25,0.25,0.25,0.25,0.25,0.25,0.25,0.25,0.25,linear,0.025,TRUE,25,FALSE,1,NA,NA,6,fixmodel,0.8469,-4.660159312497573e-4,0.0070440746731242135,0,10000
7,250,0,250,250,500,500,750,750,2,0,1,0.25,0.25,0.25,0.25,0.25,0.25,0.25,0.25,0.25,0.25,0.25,0.25,0.25,0.25,0.25,linear,0.025,TRUE,25,FALSE,1,NA,NA,6,sepmodel,0.789,-0.001127340132366968,0.008159262624127904,0,10000
7,250,0,250,250,500,500,750,750,2,0,1,0.25,0.25,0.25,0.25,0.25,0.25,0.25,0.25,0.25,0.25,0.25,0.25,0.25,0.25,0.25,linear,0.025,TRUE,25,FALSE,1,NA,NA,6,splines,0.8493,-4.3158322725981446e-4,0.007004562329914123,0,10000
