pavlakrotka/MASTERARBEIT/simulations_09_2022/results/results_ii_eq_pow.csv
num_arms,n_arm,d1,d2,d3,d4,d5,d6,d7,d8,d9,d10,unit_size,period_blocks,mu0,sigma,theta1,theta2,theta3,theta4,theta5,theta6,theta7,theta8,theta9,theta10,lambda0,lambda1,lambda2,lambda3,lambda4,lambda5,lambda6,lambda7,lambda8,lambda9,lambda10,trend,alpha,ci,timetrend,hypothesis,study_arm,model,reject_h0
10,1000,0,0,0,0,0,0,0,0,0,0,250,2,0,1,0.13,0.13,0.13,0.13,0.13,0.13,0.13,0.13,0.13,0.13,-0.5,-0.5,-0.5,-0.5,-0.5,-0.5,-0.5,-0.5,-0.5,-0.5,-0.5,linear,0.025,FALSE,EQ,H1,2,fixmodel,0.8202
10,1000,0,0,0,0,0,0,0,0,0,0,250,2,0,1,0.13,0.13,0.13,0.13,0.13,0.13,0.13,0.13,0.13,0.13,-0.5,-0.5,-0.5,-0.5,-0.5,-0.5,-0.5,-0.5,-0.5,-0.5,-0.5,linear,0.025,FALSE,EQ,H1,2,fixmodel_cal,0.8247
10,1000,0,0,0,0,0,0,0,0,0,0,250,2,0,1,0.13,0.13,0.13,0.13,0.13,0.13,0.13,0.13,0.13,0.13,-0.5,-0.5,-0.5,-0.5,-0.5,-0.5,-0.5,-0.5,-0.5,-0.5,-0.5,linear,0.025,FALSE,EQ,H1,2,mixmodel,0.8202
10,1000,0,0,0,0,0,0,0,0,0,0,250,2,0,1,0.13,0.13,0.13,0.13,0.13,0.13,0.13,0.13,0.13,0.13,-0.5,-0.5,-0.5,-0.5,-0.5,-0.5,-0.5,-0.5,-0.5,-0.5,-0.5,linear,0.025,FALSE,EQ,H1,2,mixmodel_cal,0.8248
10,1000,0,0,0,0,0,0,0,0,0,0,250,2,0,1,0.13,0.13,0.13,0.13,0.13,0.13,0.13,0.13,0.13,0.13,-0.5,-0.5,-0.5,-0.5,-0.5,-0.5,-0.5,-0.5,-0.5,-0.5,-0.5,linear,0.025,FALSE,EQ,H1,2,sepmodel,0.8205
10,1000,0,0,0,0,0,0,0,0,0,0,250,2,0,1,0.13,0.13,0.13,0.13,0.13,0.13,0.13,0.13,0.13,0.13,-0.5,-0.5,-0.5,-0.5,-0.5,-0.5,-0.5,-0.5,-0.5,-0.5,-0.5,linear,0.025,FALSE,EQ,H1,3,fixmodel,0.8231
10,1000,0,0,0,0,0,0,0,0,0,0,250,2,0,1,0.13,0.13,0.13,0.13,0.13,0.13,0.13,0.13,0.13,0.13,-0.5,-0.5,-0.5,-0.5,-0.5,-0.5,-0.5,-0.5,-0.5,-0.5,-0.5,linear,0.025,FALSE,EQ,H1,3,fixmodel_cal,0.8283
10,1000,0,0,0,0,0,0,0,0,0,0,250,2,0,1,0.13,0.13,0.13,0.13,0.13,0.13,0.13,0.13,0.13,0.13,-0.5,-0.5,-0.5,-0.5,-0.5,-0.5,-0.5,-0.5,-0.5,-0.5,-0.5,linear,0.025,FALSE,EQ,H1,3,mixmodel,0.8231
10,1000,0,0,0,0,0,0,0,0,0,0,250,2,0,1,0.13,0.13,0.13,0.13,0.13,0.13,0.13,0.13,0.13,0.13,-0.5,-0.5,-0.5,-0.5,-0.5,-0.5,-0.5,-0.5,-0.5,-0.5,-0.5,linear,0.025,FALSE,EQ,H1,3,mixmodel_cal,0.8281
10,1000,0,0,0,0,0,0,0,0,0,0,250,2,0,1,0.13,0.13,0.13,0.13,0.13,0.13,0.13,0.13,0.13,0.13,-0.5,-0.5,-0.5,-0.5,-0.5,-0.5,-0.5,-0.5,-0.5,-0.5,-0.5,linear,0.025,FALSE,EQ,H1,3,sepmodel,0.8233
10,1000,0,0,0,0,0,0,0,0,0,0,250,2,0,1,0.13,0.13,0.13,0.13,0.13,0.13,0.13,0.13,0.13,0.13,-0.5,-0.5,-0.5,-0.5,-0.5,-0.5,-0.5,-0.5,-0.5,-0.5,-0.5,linear,0.025,FALSE,EQ,H1,4,fixmodel,0.8195
10,1000,0,0,0,0,0,0,0,0,0,0,250,2,0,1,0.13,0.13,0.13,0.13,0.13,0.13,0.13,0.13,0.13,0.13,-0.5,-0.5,-0.5,-0.5,-0.5,-0.5,-0.5,-0.5,-0.5,-0.5,-0.5,linear,0.025,FALSE,EQ,H1,4,fixmodel_cal,0.8246
10,1000,0,0,0,0,0,0,0,0,0,0,250,2,0,1,0.13,0.13,0.13,0.13,0.13,0.13,0.13,0.13,0.13,0.13,-0.5,-0.5,-0.5,-0.5,-0.5,-0.5,-0.5,-0.5,-0.5,-0.5,-0.5,linear,0.025,FALSE,EQ,H1,4,mixmodel,0.8195
10,1000,0,0,0,0,0,0,0,0,0,0,250,2,0,1,0.13,0.13,0.13,0.13,0.13,0.13,0.13,0.13,0.13,0.13,-0.5,-0.5,-0.5,-0.5,-0.5,-0.5,-0.5,-0.5,-0.5,-0.5,-0.5,linear,0.025,FALSE,EQ,H1,4,mixmodel_cal,0.8249
10,1000,0,0,0,0,0,0,0,0,0,0,250,2,0,1,0.13,0.13,0.13,0.13,0.13,0.13,0.13,0.13,0.13,0.13,-0.5,-0.5,-0.5,-0.5,-0.5,-0.5,-0.5,-0.5,-0.5,-0.5,-0.5,linear,0.025,FALSE,EQ,H1,4,sepmodel,0.8198
10,1000,0,0,0,0,0,0,0,0,0,0,250,2,0,1,0.13,0.13,0.13,0.13,0.13,0.13,0.13,0.13,0.13,0.13,-0.5,-0.5,-0.5,-0.5,-0.5,-0.5,-0.5,-0.5,-0.5,-0.5,-0.5,linear,0.025,FALSE,EQ,H1,5,fixmodel,0.8223
10,1000,0,0,0,0,0,0,0,0,0,0,250,2,0,1,0.13,0.13,0.13,0.13,0.13,0.13,0.13,0.13,0.13,0.13,-0.5,-0.5,-0.5,-0.5,-0.5,-0.5,-0.5,-0.5,-0.5,-0.5,-0.5,linear,0.025,FALSE,EQ,H1,5,fixmodel_cal,0.8274
10,1000,0,0,0,0,0,0,0,0,0,0,250,2,0,1,0.13,0.13,0.13,0.13,0.13,0.13,0.13,0.13,0.13,0.13,-0.5,-0.5,-0.5,-0.5,-0.5,-0.5,-0.5,-0.5,-0.5,-0.5,-0.5,linear,0.025,FALSE,EQ,H1,5,mixmodel,0.8223
10,1000,0,0,0,0,0,0,0,0,0,0,250,2,0,1,0.13,0.13,0.13,0.13,0.13,0.13,0.13,0.13,0.13,0.13,-0.5,-0.5,-0.5,-0.5,-0.5,-0.5,-0.5,-0.5,-0.5,-0.5,-0.5,linear,0.025,FALSE,EQ,H1,5,mixmodel_cal,0.8276
10,1000,0,0,0,0,0,0,0,0,0,0,250,2,0,1,0.13,0.13,0.13,0.13,0.13,0.13,0.13,0.13,0.13,0.13,-0.5,-0.5,-0.5,-0.5,-0.5,-0.5,-0.5,-0.5,-0.5,-0.5,-0.5,linear,0.025,FALSE,EQ,H1,5,sepmodel,0.8222
10,1000,0,0,0,0,0,0,0,0,0,0,250,2,0,1,0.13,0.13,0.13,0.13,0.13,0.13,0.13,0.13,0.13,0.13,-0.5,-0.5,-0.5,-0.5,-0.5,-0.5,-0.5,-0.5,-0.5,-0.5,-0.5,linear,0.025,FALSE,EQ,H1,6,fixmodel,0.8198
10,1000,0,0,0,0,0,0,0,0,0,0,250,2,0,1,0.13,0.13,0.13,0.13,0.13,0.13,0.13,0.13,0.13,0.13,-0.5,-0.5,-0.5,-0.5,-0.5,-0.5,-0.5,-0.5,-0.5,-0.5,-0.5,linear,0.025,FALSE,EQ,H1,6,fixmodel_cal,0.8252
10,1000,0,0,0,0,0,0,0,0,0,0,250,2,0,1,0.13,0.13,0.13,0.13,0.13,0.13,0.13,0.13,0.13,0.13,-0.5,-0.5,-0.5,-0.5,-0.5,-0.5,-0.5,-0.5,-0.5,-0.5,-0.5,linear,0.025,FALSE,EQ,H1,6,mixmodel,0.8198
10,1000,0,0,0,0,0,0,0,0,0,0,250,2,0,1,0.13,0.13,0.13,0.13,0.13,0.13,0.13,0.13,0.13,0.13,-0.5,-0.5,-0.5,-0.5,-0.5,-0.5,-0.5,-0.5,-0.5,-0.5,-0.5,linear,0.025,FALSE,EQ,H1,6,mixmodel_cal,0.8249
10,1000,0,0,0,0,0,0,0,0,0,0,250,2,0,1,0.13,0.13,0.13,0.13,0.13,0.13,0.13,0.13,0.13,0.13,-0.5,-0.5,-0.5,-0.5,-0.5,-0.5,-0.5,-0.5,-0.5,-0.5,-0.5,linear,0.025,FALSE,EQ,H1,6,sepmodel,0.8185
10,1000,0,0,0,0,0,0,0,0,0,0,250,2,0,1,0.13,0.13,0.13,0.13,0.13,0.13,0.13,0.13,0.13,0.13,-0.5,-0.5,-0.5,-0.5,-0.5,-0.5,-0.5,-0.5,-0.5,-0.5,-0.5,linear,0.025,FALSE,EQ,H1,7,fixmodel,0.8187
10,1000,0,0,0,0,0,0,0,0,0,0,250,2,0,1,0.13,0.13,0.13,0.13,0.13,0.13,0.13,0.13,0.13,0.13,-0.5,-0.5,-0.5,-0.5,-0.5,-0.5,-0.5,-0.5,-0.5,-0.5,-0.5,linear,0.025,FALSE,EQ,H1,7,fixmodel_cal,0.8234
10,1000,0,0,0,0,0,0,0,0,0,0,250,2,0,1,0.13,0.13,0.13,0.13,0.13,0.13,0.13,0.13,0.13,0.13,-0.5,-0.5,-0.5,-0.5,-0.5,-0.5,-0.5,-0.5,-0.5,-0.5,-0.5,linear,0.025,FALSE,EQ,H1,7,mixmodel,0.8187
10,1000,0,0,0,0,0,0,0,0,0,0,250,2,0,1,0.13,0.13,0.13,0.13,0.13,0.13,0.13,0.13,0.13,0.13,-0.5,-0.5,-0.5,-0.5,-0.5,-0.5,-0.5,-0.5,-0.5,-0.5,-0.5,linear,0.025,FALSE,EQ,H1,7,mixmodel_cal,0.8235
10,1000,0,0,0,0,0,0,0,0,0,0,250,2,0,1,0.13,0.13,0.13,0.13,0.13,0.13,0.13,0.13,0.13,0.13,-0.5,-0.5,-0.5,-0.5,-0.5,-0.5,-0.5,-0.5,-0.5,-0.5,-0.5,linear,0.025,FALSE,EQ,H1,7,sepmodel,0.8196
10,1000,0,0,0,0,0,0,0,0,0,0,250,2,0,1,0.13,0.13,0.13,0.13,0.13,0.13,0.13,0.13,0.13,0.13,-0.5,-0.5,-0.5,-0.5,-0.5,-0.5,-0.5,-0.5,-0.5,-0.5,-0.5,linear,0.025,FALSE,EQ,H1,8,fixmodel,0.8207
10,1000,0,0,0,0,0,0,0,0,0,0,250,2,0,1,0.13,0.13,0.13,0.13,0.13,0.13,0.13,0.13,0.13,0.13,-0.5,-0.5,-0.5,-0.5,-0.5,-0.5,-0.5,-0.5,-0.5,-0.5,-0.5,linear,0.025,FALSE,EQ,H1,8,fixmodel_cal,0.8252
10,1000,0,0,0,0,0,0,0,0,0,0,250,2,0,1,0.13,0.13,0.13,0.13,0.13,0.13,0.13,0.13,0.13,0.13,-0.5,-0.5,-0.5,-0.5,-0.5,-0.5,-0.5,-0.5,-0.5,-0.5,-0.5,linear,0.025,FALSE,EQ,H1,8,mixmodel,0.8207
10,1000,0,0,0,0,0,0,0,0,0,0,250,2,0,1,0.13,0.13,0.13,0.13,0.13,0.13,0.13,0.13,0.13,0.13,-0.5,-0.5,-0.5,-0.5,-0.5,-0.5,-0.5,-0.5,-0.5,-0.5,-0.5,linear,0.025,FALSE,EQ,H1,8,mixmodel_cal,0.8254
10,1000,0,0,0,0,0,0,0,0,0,0,250,2,0,1,0.13,0.13,0.13,0.13,0.13,0.13,0.13,0.13,0.13,0.13,-0.5,-0.5,-0.5,-0.5,-0.5,-0.5,-0.5,-0.5,-0.5,-0.5,-0.5,linear,0.025,FALSE,EQ,H1,8,sepmodel,0.8198
10,1000,0,0,0,0,0,0,0,0,0,0,250,2,0,1,0.13,0.13,0.13,0.13,0.13,0.13,0.13,0.13,0.13,0.13,-0.5,-0.5,-0.5,-0.5,-0.5,-0.5,-0.5,-0.5,-0.5,-0.5,-0.5,linear,0.025,FALSE,EQ,H1,9,fixmodel,0.8212
10,1000,0,0,0,0,0,0,0,0,0,0,250,2,0,1,0.13,0.13,0.13,0.13,0.13,0.13,0.13,0.13,0.13,0.13,-0.5,-0.5,-0.5,-0.5,-0.5,-0.5,-0.5,-0.5,-0.5,-0.5,-0.5,linear,0.025,FALSE,EQ,H1,9,fixmodel_cal,0.8263
10,1000,0,0,0,0,0,0,0,0,0,0,250,2,0,1,0.13,0.13,0.13,0.13,0.13,0.13,0.13,0.13,0.13,0.13,-0.5,-0.5,-0.5,-0.5,-0.5,-0.5,-0.5,-0.5,-0.5,-0.5,-0.5,linear,0.025,FALSE,EQ,H1,9,mixmodel,0.8212
10,1000,0,0,0,0,0,0,0,0,0,0,250,2,0,1,0.13,0.13,0.13,0.13,0.13,0.13,0.13,0.13,0.13,0.13,-0.5,-0.5,-0.5,-0.5,-0.5,-0.5,-0.5,-0.5,-0.5,-0.5,-0.5,linear,0.025,FALSE,EQ,H1,9,mixmodel_cal,0.8263
10,1000,0,0,0,0,0,0,0,0,0,0,250,2,0,1,0.13,0.13,0.13,0.13,0.13,0.13,0.13,0.13,0.13,0.13,-0.5,-0.5,-0.5,-0.5,-0.5,-0.5,-0.5,-0.5,-0.5,-0.5,-0.5,linear,0.025,FALSE,EQ,H1,9,sepmodel,0.8217
10,1000,0,0,0,0,0,0,0,0,0,0,250,2,0,1,0.13,0.13,0.13,0.13,0.13,0.13,0.13,0.13,0.13,0.13,-0.5,-0.5,-0.5,-0.5,-0.5,-0.5,-0.5,-0.5,-0.5,-0.5,-0.5,linear,0.025,FALSE,EQ,H1,10,fixmodel,0.8239
10,1000,0,0,0,0,0,0,0,0,0,0,250,2,0,1,0.13,0.13,0.13,0.13,0.13,0.13,0.13,0.13,0.13,0.13,-0.5,-0.5,-0.5,-0.5,-0.5,-0.5,-0.5,-0.5,-0.5,-0.5,-0.5,linear,0.025,FALSE,EQ,H1,10,fixmodel_cal,0.8279
10,1000,0,0,0,0,0,0,0,0,0,0,250,2,0,1,0.13,0.13,0.13,0.13,0.13,0.13,0.13,0.13,0.13,0.13,-0.5,-0.5,-0.5,-0.5,-0.5,-0.5,-0.5,-0.5,-0.5,-0.5,-0.5,linear,0.025,FALSE,EQ,H1,10,mixmodel,0.8239
10,1000,0,0,0,0,0,0,0,0,0,0,250,2,0,1,0.13,0.13,0.13,0.13,0.13,0.13,0.13,0.13,0.13,0.13,-0.5,-0.5,-0.5,-0.5,-0.5,-0.5,-0.5,-0.5,-0.5,-0.5,-0.5,linear,0.025,FALSE,EQ,H1,10,mixmodel_cal,0.8278
10,1000,0,0,0,0,0,0,0,0,0,0,250,2,0,1,0.13,0.13,0.13,0.13,0.13,0.13,0.13,0.13,0.13,0.13,-0.5,-0.5,-0.5,-0.5,-0.5,-0.5,-0.5,-0.5,-0.5,-0.5,-0.5,linear,0.025,FALSE,EQ,H1,10,sepmodel,0.8221
10,1000,0,500,1000,1500,2000,2500,3000,3500,4000,4500,250,2,0,1,0.13,0.13,0.13,0.13,0.13,0.13,0.13,0.13,0.13,0.13,-0.5,-0.5,-0.5,-0.5,-0.5,-0.5,-0.5,-0.5,-0.5,-0.5,-0.5,linear,0.025,FALSE,EQ,H1,2,fixmodel,0.8422
10,1000,0,500,1000,1500,2000,2500,3000,3500,4000,4500,250,2,0,1,0.13,0.13,0.13,0.13,0.13,0.13,0.13,0.13,0.13,0.13,-0.5,-0.5,-0.5,-0.5,-0.5,-0.5,-0.5,-0.5,-0.5,-0.5,-0.5,linear,0.025,FALSE,EQ,H1,2,fixmodel_cal,0.8433
10,1000,0,500,1000,1500,2000,2500,3000,3500,4000,4500,250,2,0,1,0.13,0.13,0.13,0.13,0.13,0.13,0.13,0.13,0.13,0.13,-0.5,-0.5,-0.5,-0.5,-0.5,-0.5,-0.5,-0.5,-0.5,-0.5,-0.5,linear,0.025,FALSE,EQ,H1,2,mixmodel,0.8047
10,1000,0,500,1000,1500,2000,2500,3000,3500,4000,4500,250,2,0,1,0.13,0.13,0.13,0.13,0.13,0.13,0.13,0.13,0.13,0.13,-0.5,-0.5,-0.5,-0.5,-0.5,-0.5,-0.5,-0.5,-0.5,-0.5,-0.5,linear,0.025,FALSE,EQ,H1,2,mixmodel_cal,0.7751
10,1000,0,500,1000,1500,2000,2500,3000,3500,4000,4500,250,2,0,1,0.13,0.13,0.13,0.13,0.13,0.13,0.13,0.13,0.13,0.13,-0.5,-0.5,-0.5,-0.5,-0.5,-0.5,-0.5,-0.5,-0.5,-0.5,-0.5,linear,0.025,FALSE,EQ,H1,2,sepmodel,0.8218
10,1000,0,500,1000,1500,2000,2500,3000,3500,4000,4500,250,2,0,1,0.13,0.13,0.13,0.13,0.13,0.13,0.13,0.13,0.13,0.13,-0.5,-0.5,-0.5,-0.5,-0.5,-0.5,-0.5,-0.5,-0.5,-0.5,-0.5,linear,0.025,FALSE,EQ,H1,3,fixmodel,0.854
10,1000,0,500,1000,1500,2000,2500,3000,3500,4000,4500,250,2,0,1,0.13,0.13,0.13,0.13,0.13,0.13,0.13,0.13,0.13,0.13,-0.5,-0.5,-0.5,-0.5,-0.5,-0.5,-0.5,-0.5,-0.5,-0.5,-0.5,linear,0.025,FALSE,EQ,H1,3,fixmodel_cal,0.8549
10,1000,0,500,1000,1500,2000,2500,3000,3500,4000,4500,250,2,0,1,0.13,0.13,0.13,0.13,0.13,0.13,0.13,0.13,0.13,0.13,-0.5,-0.5,-0.5,-0.5,-0.5,-0.5,-0.5,-0.5,-0.5,-0.5,-0.5,linear,0.025,FALSE,EQ,H1,3,mixmodel,0.8042
10,1000,0,500,1000,1500,2000,2500,3000,3500,4000,4500,250,2,0,1,0.13,0.13,0.13,0.13,0.13,0.13,0.13,0.13,0.13,0.13,-0.5,-0.5,-0.5,-0.5,-0.5,-0.5,-0.5,-0.5,-0.5,-0.5,-0.5,linear,0.025,FALSE,EQ,H1,3,mixmodel_cal,0.7337
10,1000,0,500,1000,1500,2000,2500,3000,3500,4000,4500,250,2,0,1,0.13,0.13,0.13,0.13,0.13,0.13,0.13,0.13,0.13,0.13,-0.5,-0.5,-0.5,-0.5,-0.5,-0.5,-0.5,-0.5,-0.5,-0.5,-0.5,linear,0.025,FALSE,EQ,H1,3,sepmodel,0.8231
10,1000,0,500,1000,1500,2000,2500,3000,3500,4000,4500,250,2,0,1,0.13,0.13,0.13,0.13,0.13,0.13,0.13,0.13,0.13,0.13,-0.5,-0.5,-0.5,-0.5,-0.5,-0.5,-0.5,-0.5,-0.5,-0.5,-0.5,linear,0.025,FALSE,EQ,H1,4,fixmodel,0.8699
10,1000,0,500,1000,1500,2000,2500,3000,3500,4000,4500,250,2,0,1,0.13,0.13,0.13,0.13,0.13,0.13,0.13,0.13,0.13,0.13,-0.5,-0.5,-0.5,-0.5,-0.5,-0.5,-0.5,-0.5,-0.5,-0.5,-0.5,linear,0.025,FALSE,EQ,H1,4,fixmodel_cal,0.8718
10,1000,0,500,1000,1500,2000,2500,3000,3500,4000,4500,250,2,0,1,0.13,0.13,0.13,0.13,0.13,0.13,0.13,0.13,0.13,0.13,-0.5,-0.5,-0.5,-0.5,-0.5,-0.5,-0.5,-0.5,-0.5,-0.5,-0.5,linear,0.025,FALSE,EQ,H1,4,mixmodel,0.8123
10,1000,0,500,1000,1500,2000,2500,3000,3500,4000,4500,250,2,0,1,0.13,0.13,0.13,0.13,0.13,0.13,0.13,0.13,0.13,0.13,-0.5,-0.5,-0.5,-0.5,-0.5,-0.5,-0.5,-0.5,-0.5,-0.5,-0.5,linear,0.025,FALSE,EQ,H1,4,mixmodel_cal,0.7058
10,1000,0,500,1000,1500,2000,2500,3000,3500,4000,4500,250,2,0,1,0.13,0.13,0.13,0.13,0.13,0.13,0.13,0.13,0.13,0.13,-0.5,-0.5,-0.5,-0.5,-0.5,-0.5,-0.5,-0.5,-0.5,-0.5,-0.5,linear,0.025,FALSE,EQ,H1,4,sepmodel,0.8318
10,1000,0,500,1000,1500,2000,2500,3000,3500,4000,4500,250,2,0,1,0.13,0.13,0.13,0.13,0.13,0.13,0.13,0.13,0.13,0.13,-0.5,-0.5,-0.5,-0.5,-0.5,-0.5,-0.5,-0.5,-0.5,-0.5,-0.5,linear,0.025,FALSE,EQ,H1,5,fixmodel,0.8749
10,1000,0,500,1000,1500,2000,2500,3000,3500,4000,4500,250,2,0,1,0.13,0.13,0.13,0.13,0.13,0.13,0.13,0.13,0.13,0.13,-0.5,-0.5,-0.5,-0.5,-0.5,-0.5,-0.5,-0.5,-0.5,-0.5,-0.5,linear,0.025,FALSE,EQ,H1,5,fixmodel_cal,0.8764
10,1000,0,500,1000,1500,2000,2500,3000,3500,4000,4500,250,2,0,1,0.13,0.13,0.13,0.13,0.13,0.13,0.13,0.13,0.13,0.13,-0.5,-0.5,-0.5,-0.5,-0.5,-0.5,-0.5,-0.5,-0.5,-0.5,-0.5,linear,0.025,FALSE,EQ,H1,5,mixmodel,0.8059
10,1000,0,500,1000,1500,2000,2500,3000,3500,4000,4500,250,2,0,1,0.13,0.13,0.13,0.13,0.13,0.13,0.13,0.13,0.13,0.13,-0.5,-0.5,-0.5,-0.5,-0.5,-0.5,-0.5,-0.5,-0.5,-0.5,-0.5,linear,0.025,FALSE,EQ,H1,5,mixmodel_cal,0.6698
10,1000,0,500,1000,1500,2000,2500,3000,3500,4000,4500,250,2,0,1,0.13,0.13,0.13,0.13,0.13,0.13,0.13,0.13,0.13,0.13,-0.5,-0.5,-0.5,-0.5,-0.5,-0.5,-0.5,-0.5,-0.5,-0.5,-0.5,linear,0.025,FALSE,EQ,H1,5,sepmodel,0.8278
10,1000,0,500,1000,1500,2000,2500,3000,3500,4000,4500,250,2,0,1,0.13,0.13,0.13,0.13,0.13,0.13,0.13,0.13,0.13,0.13,-0.5,-0.5,-0.5,-0.5,-0.5,-0.5,-0.5,-0.5,-0.5,-0.5,-0.5,linear,0.025,FALSE,EQ,H1,6,fixmodel,0.8773
10,1000,0,500,1000,1500,2000,2500,3000,3500,4000,4500,250,2,0,1,0.13,0.13,0.13,0.13,0.13,0.13,0.13,0.13,0.13,0.13,-0.5,-0.5,-0.5,-0.5,-0.5,-0.5,-0.5,-0.5,-0.5,-0.5,-0.5,linear,0.025,FALSE,EQ,H1,6,fixmodel_cal,0.879
10,1000,0,500,1000,1500,2000,2500,3000,3500,4000,4500,250,2,0,1,0.13,0.13,0.13,0.13,0.13,0.13,0.13,0.13,0.13,0.13,-0.5,-0.5,-0.5,-0.5,-0.5,-0.5,-0.5,-0.5,-0.5,-0.5,-0.5,linear,0.025,FALSE,EQ,H1,6,mixmodel,0.802
10,1000,0,500,1000,1500,2000,2500,3000,3500,4000,4500,250,2,0,1,0.13,0.13,0.13,0.13,0.13,0.13,0.13,0.13,0.13,0.13,-0.5,-0.5,-0.5,-0.5,-0.5,-0.5,-0.5,-0.5,-0.5,-0.5,-0.5,linear,0.025,FALSE,EQ,H1,6,mixmodel_cal,0.6532
10,1000,0,500,1000,1500,2000,2500,3000,3500,4000,4500,250,2,0,1,0.13,0.13,0.13,0.13,0.13,0.13,0.13,0.13,0.13,0.13,-0.5,-0.5,-0.5,-0.5,-0.5,-0.5,-0.5,-0.5,-0.5,-0.5,-0.5,linear,0.025,FALSE,EQ,H1,6,sepmodel,0.8253
10,1000,0,500,1000,1500,2000,2500,3000,3500,4000,4500,250,2,0,1,0.13,0.13,0.13,0.13,0.13,0.13,0.13,0.13,0.13,0.13,-0.5,-0.5,-0.5,-0.5,-0.5,-0.5,-0.5,-0.5,-0.5,-0.5,-0.5,linear,0.025,FALSE,EQ,H1,7,fixmodel,0.8757
10,1000,0,500,1000,1500,2000,2500,3000,3500,4000,4500,250,2,0,1,0.13,0.13,0.13,0.13,0.13,0.13,0.13,0.13,0.13,0.13,-0.5,-0.5,-0.5,-0.5,-0.5,-0.5,-0.5,-0.5,-0.5,-0.5,-0.5,linear,0.025,FALSE,EQ,H1,7,fixmodel_cal,0.8788
10,1000,0,500,1000,1500,2000,2500,3000,3500,4000,4500,250,2,0,1,0.13,0.13,0.13,0.13,0.13,0.13,0.13,0.13,0.13,0.13,-0.5,-0.5,-0.5,-0.5,-0.5,-0.5,-0.5,-0.5,-0.5,-0.5,-0.5,linear,0.025,FALSE,EQ,H1,7,mixmodel,0.7963
10,1000,0,500,1000,1500,2000,2500,3000,3500,4000,4500,250,2,0,1,0.13,0.13,0.13,0.13,0.13,0.13,0.13,0.13,0.13,0.13,-0.5,-0.5,-0.5,-0.5,-0.5,-0.5,-0.5,-0.5,-0.5,-0.5,-0.5,linear,0.025,FALSE,EQ,H1,7,mixmodel_cal,0.6179
10,1000,0,500,1000,1500,2000,2500,3000,3500,4000,4500,250,2,0,1,0.13,0.13,0.13,0.13,0.13,0.13,0.13,0.13,0.13,0.13,-0.5,-0.5,-0.5,-0.5,-0.5,-0.5,-0.5,-0.5,-0.5,-0.5,-0.5,linear,0.025,FALSE,EQ,H1,7,sepmodel,0.8227
10,1000,0,500,1000,1500,2000,2500,3000,3500,4000,4500,250,2,0,1,0.13,0.13,0.13,0.13,0.13,0.13,0.13,0.13,0.13,0.13,-0.5,-0.5,-0.5,-0.5,-0.5,-0.5,-0.5,-0.5,-0.5,-0.5,-0.5,linear,0.025,FALSE,EQ,H1,8,fixmodel,0.8834
10,1000,0,500,1000,1500,2000,2500,3000,3500,4000,4500,250,2,0,1,0.13,0.13,0.13,0.13,0.13,0.13,0.13,0.13,0.13,0.13,-0.5,-0.5,-0.5,-0.5,-0.5,-0.5,-0.5,-0.5,-0.5,-0.5,-0.5,linear,0.025,FALSE,EQ,H1,8,fixmodel_cal,0.8853
10,1000,0,500,1000,1500,2000,2500,3000,3500,4000,4500,250,2,0,1,0.13,0.13,0.13,0.13,0.13,0.13,0.13,0.13,0.13,0.13,-0.5,-0.5,-0.5,-0.5,-0.5,-0.5,-0.5,-0.5,-0.5,-0.5,-0.5,linear,0.025,FALSE,EQ,H1,8,mixmodel,0.7993
10,1000,0,500,1000,1500,2000,2500,3000,3500,4000,4500,250,2,0,1,0.13,0.13,0.13,0.13,0.13,0.13,0.13,0.13,0.13,0.13,-0.5,-0.5,-0.5,-0.5,-0.5,-0.5,-0.5,-0.5,-0.5,-0.5,-0.5,linear,0.025,FALSE,EQ,H1,8,mixmodel_cal,0.6083
10,1000,0,500,1000,1500,2000,2500,3000,3500,4000,4500,250,2,0,1,0.13,0.13,0.13,0.13,0.13,0.13,0.13,0.13,0.13,0.13,-0.5,-0.5,-0.5,-0.5,-0.5,-0.5,-0.5,-0.5,-0.5,-0.5,-0.5,linear,0.025,FALSE,EQ,H1,8,sepmodel,0.8235
10,1000,0,500,1000,1500,2000,2500,3000,3500,4000,4500,250,2,0,1,0.13,0.13,0.13,0.13,0.13,0.13,0.13,0.13,0.13,0.13,-0.5,-0.5,-0.5,-0.5,-0.5,-0.5,-0.5,-0.5,-0.5,-0.5,-0.5,linear,0.025,FALSE,EQ,H1,9,fixmodel,0.8833
10,1000,0,500,1000,1500,2000,2500,3000,3500,4000,4500,250,2,0,1,0.13,0.13,0.13,0.13,0.13,0.13,0.13,0.13,0.13,0.13,-0.5,-0.5,-0.5,-0.5,-0.5,-0.5,-0.5,-0.5,-0.5,-0.5,-0.5,linear,0.025,FALSE,EQ,H1,9,fixmodel_cal,0.8857
10,1000,0,500,1000,1500,2000,2500,3000,3500,4000,4500,250,2,0,1,0.13,0.13,0.13,0.13,0.13,0.13,0.13,0.13,0.13,0.13,-0.5,-0.5,-0.5,-0.5,-0.5,-0.5,-0.5,-0.5,-0.5,-0.5,-0.5,linear,0.025,FALSE,EQ,H1,9,mixmodel,0.7878
10,1000,0,500,1000,1500,2000,2500,3000,3500,4000,4500,250,2,0,1,0.13,0.13,0.13,0.13,0.13,0.13,0.13,0.13,0.13,0.13,-0.5,-0.5,-0.5,-0.5,-0.5,-0.5,-0.5,-0.5,-0.5,-0.5,-0.5,linear,0.025,FALSE,EQ,H1,9,mixmodel_cal,0.6125
10,1000,0,500,1000,1500,2000,2500,3000,3500,4000,4500,250,2,0,1,0.13,0.13,0.13,0.13,0.13,0.13,0.13,0.13,0.13,0.13,-0.5,-0.5,-0.5,-0.5,-0.5,-0.5,-0.5,-0.5,-0.5,-0.5,-0.5,linear,0.025,FALSE,EQ,H1,9,sepmodel,0.8261
10,1000,0,500,1000,1500,2000,2500,3000,3500,4000,4500,250,2,0,1,0.13,0.13,0.13,0.13,0.13,0.13,0.13,0.13,0.13,0.13,-0.5,-0.5,-0.5,-0.5,-0.5,-0.5,-0.5,-0.5,-0.5,-0.5,-0.5,linear,0.025,FALSE,EQ,H1,10,fixmodel,0.8885
10,1000,0,500,1000,1500,2000,2500,3000,3500,4000,4500,250,2,0,1,0.13,0.13,0.13,0.13,0.13,0.13,0.13,0.13,0.13,0.13,-0.5,-0.5,-0.5,-0.5,-0.5,-0.5,-0.5,-0.5,-0.5,-0.5,-0.5,linear,0.025,FALSE,EQ,H1,10,fixmodel_cal,0.8879
10,1000,0,500,1000,1500,2000,2500,3000,3500,4000,4500,250,2,0,1,0.13,0.13,0.13,0.13,0.13,0.13,0.13,0.13,0.13,0.13,-0.5,-0.5,-0.5,-0.5,-0.5,-0.5,-0.5,-0.5,-0.5,-0.5,-0.5,linear,0.025,FALSE,EQ,H1,10,mixmodel,0.7761
10,1000,0,500,1000,1500,2000,2500,3000,3500,4000,4500,250,2,0,1,0.13,0.13,0.13,0.13,0.13,0.13,0.13,0.13,0.13,0.13,-0.5,-0.5,-0.5,-0.5,-0.5,-0.5,-0.5,-0.5,-0.5,-0.5,-0.5,linear,0.025,FALSE,EQ,H1,10,mixmodel_cal,0.5701
10,1000,0,500,1000,1500,2000,2500,3000,3500,4000,4500,250,2,0,1,0.13,0.13,0.13,0.13,0.13,0.13,0.13,0.13,0.13,0.13,-0.5,-0.5,-0.5,-0.5,-0.5,-0.5,-0.5,-0.5,-0.5,-0.5,-0.5,linear,0.025,FALSE,EQ,H1,10,sepmodel,0.8277
10,1000,0,1000,2000,3000,4000,5000,6000,7000,8000,9000,250,2,0,1,0.13,0.13,0.13,0.13,0.13,0.13,0.13,0.13,0.13,0.13,-0.5,-0.5,-0.5,-0.5,-0.5,-0.5,-0.5,-0.5,-0.5,-0.5,-0.5,linear,0.025,FALSE,EQ,H1,2,fixmodel,0.8505
10,1000,0,1000,2000,3000,4000,5000,6000,7000,8000,9000,250,2,0,1,0.13,0.13,0.13,0.13,0.13,0.13,0.13,0.13,0.13,0.13,-0.5,-0.5,-0.5,-0.5,-0.5,-0.5,-0.5,-0.5,-0.5,-0.5,-0.5,linear,0.025,FALSE,EQ,H1,2,fixmodel_cal,0.8533
10,1000,0,1000,2000,3000,4000,5000,6000,7000,8000,9000,250,2,0,1,0.13,0.13,0.13,0.13,0.13,0.13,0.13,0.13,0.13,0.13,-0.5,-0.5,-0.5,-0.5,-0.5,-0.5,-0.5,-0.5,-0.5,-0.5,-0.5,linear,0.025,FALSE,EQ,H1,2,mixmodel,0.7883
10,1000,0,1000,2000,3000,4000,5000,6000,7000,8000,9000,250,2,0,1,0.13,0.13,0.13,0.13,0.13,0.13,0.13,0.13,0.13,0.13,-0.5,-0.5,-0.5,-0.5,-0.5,-0.5,-0.5,-0.5,-0.5,-0.5,-0.5,linear,0.025,FALSE,EQ,H1,2,mixmodel_cal,0.7467
10,1000,0,1000,2000,3000,4000,5000,6000,7000,8000,9000,250,2,0,1,0.13,0.13,0.13,0.13,0.13,0.13,0.13,0.13,0.13,0.13,-0.5,-0.5,-0.5,-0.5,-0.5,-0.5,-0.5,-0.5,-0.5,-0.5,-0.5,linear,0.025,FALSE,EQ,H1,2,sepmodel,0.8218
10,1000,0,1000,2000,3000,4000,5000,6000,7000,8000,9000,250,2,0,1,0.13,0.13,0.13,0.13,0.13,0.13,0.13,0.13,0.13,0.13,-0.5,-0.5,-0.5,-0.5,-0.5,-0.5,-0.5,-0.5,-0.5,-0.5,-0.5,linear,0.025,FALSE,EQ,H1,3,fixmodel,0.8565
10,1000,0,1000,2000,3000,4000,5000,6000,7000,8000,9000,250,2,0,1,0.13,0.13,0.13,0.13,0.13,0.13,0.13,0.13,0.13,0.13,-0.5,-0.5,-0.5,-0.5,-0.5,-0.5,-0.5,-0.5,-0.5,-0.5,-0.5,linear,0.025,FALSE,EQ,H1,3,fixmodel_cal,0.8608
10,1000,0,1000,2000,3000,4000,5000,6000,7000,8000,9000,250,2,0,1,0.13,0.13,0.13,0.13,0.13,0.13,0.13,0.13,0.13,0.13,-0.5,-0.5,-0.5,-0.5,-0.5,-0.5,-0.5,-0.5,-0.5,-0.5,-0.5,linear,0.025,FALSE,EQ,H1,3,mixmodel,0.7185
10,1000,0,1000,2000,3000,4000,5000,6000,7000,8000,9000,250,2,0,1,0.13,0.13,0.13,0.13,0.13,0.13,0.13,0.13,0.13,0.13,-0.5,-0.5,-0.5,-0.5,-0.5,-0.5,-0.5,-0.5,-0.5,-0.5,-0.5,linear,0.025,FALSE,EQ,H1,3,mixmodel_cal,0.6052
10,1000,0,1000,2000,3000,4000,5000,6000,7000,8000,9000,250,2,0,1,0.13,0.13,0.13,0.13,0.13,0.13,0.13,0.13,0.13,0.13,-0.5,-0.5,-0.5,-0.5,-0.5,-0.5,-0.5,-0.5,-0.5,-0.5,-0.5,linear,0.025,FALSE,EQ,H1,3,sepmodel,0.8193
10,1000,0,1000,2000,3000,4000,5000,6000,7000,8000,9000,250,2,0,1,0.13,0.13,0.13,0.13,0.13,0.13,0.13,0.13,0.13,0.13,-0.5,-0.5,-0.5,-0.5,-0.5,-0.5,-0.5,-0.5,-0.5,-0.5,-0.5,linear,0.025,FALSE,EQ,H1,4,fixmodel,0.8697
10,1000,0,1000,2000,3000,4000,5000,6000,7000,8000,9000,250,2,0,1,0.13,0.13,0.13,0.13,0.13,0.13,0.13,0.13,0.13,0.13,-0.5,-0.5,-0.5,-0.5,-0.5,-0.5,-0.5,-0.5,-0.5,-0.5,-0.5,linear,0.025,FALSE,EQ,H1,4,fixmodel_cal,0.8744
10,1000,0,1000,2000,3000,4000,5000,6000,7000,8000,9000,250,2,0,1,0.13,0.13,0.13,0.13,0.13,0.13,0.13,0.13,0.13,0.13,-0.5,-0.5,-0.5,-0.5,-0.5,-0.5,-0.5,-0.5,-0.5,-0.5,-0.5,linear,0.025,FALSE,EQ,H1,4,mixmodel,0.6815
10,1000,0,1000,2000,3000,4000,5000,6000,7000,8000,9000,250,2,0,1,0.13,0.13,0.13,0.13,0.13,0.13,0.13,0.13,0.13,0.13,-0.5,-0.5,-0.5,-0.5,-0.5,-0.5,-0.5,-0.5,-0.5,-0.5,-0.5,linear,0.025,FALSE,EQ,H1,4,mixmodel_cal,0.4274
10,1000,0,1000,2000,3000,4000,5000,6000,7000,8000,9000,250,2,0,1,0.13,0.13,0.13,0.13,0.13,0.13,0.13,0.13,0.13,0.13,-0.5,-0.5,-0.5,-0.5,-0.5,-0.5,-0.5,-0.5,-0.5,-0.5,-0.5,linear,0.025,FALSE,EQ,H1,4,sepmodel,0.8328
10,1000,0,1000,2000,3000,4000,5000,6000,7000,8000,9000,250,2,0,1,0.13,0.13,0.13,0.13,0.13,0.13,0.13,0.13,0.13,0.13,-0.5,-0.5,-0.5,-0.5,-0.5,-0.5,-0.5,-0.5,-0.5,-0.5,-0.5,linear,0.025,FALSE,EQ,H1,5,fixmodel,0.8727
10,1000,0,1000,2000,3000,4000,5000,6000,7000,8000,9000,250,2,0,1,0.13,0.13,0.13,0.13,0.13,0.13,0.13,0.13,0.13,0.13,-0.5,-0.5,-0.5,-0.5,-0.5,-0.5,-0.5,-0.5,-0.5,-0.5,-0.5,linear,0.025,FALSE,EQ,H1,5,fixmodel_cal,0.8743
10,1000,0,1000,2000,3000,4000,5000,6000,7000,8000,9000,250,2,0,1,0.13,0.13,0.13,0.13,0.13,0.13,0.13,0.13,0.13,0.13,-0.5,-0.5,-0.5,-0.5,-0.5,-0.5,-0.5,-0.5,-0.5,-0.5,-0.5,linear,0.025,FALSE,EQ,H1,5,mixmodel,0.6502
10,1000,0,1000,2000,3000,4000,5000,6000,7000,8000,9000,250,2,0,1,0.13,0.13,0.13,0.13,0.13,0.13,0.13,0.13,0.13,0.13,-0.5,-0.5,-0.5,-0.5,-0.5,-0.5,-0.5,-0.5,-0.5,-0.5,-0.5,linear,0.025,FALSE,EQ,H1,5,mixmodel_cal,0.2766
10,1000,0,1000,2000,3000,4000,5000,6000,7000,8000,9000,250,2,0,1,0.13,0.13,0.13,0.13,0.13,0.13,0.13,0.13,0.13,0.13,-0.5,-0.5,-0.5,-0.5,-0.5,-0.5,-0.5,-0.5,-0.5,-0.5,-0.5,linear,0.025,FALSE,EQ,H1,5,sepmodel,0.8287
10,1000,0,1000,2000,3000,4000,5000,6000,7000,8000,9000,250,2,0,1,0.13,0.13,0.13,0.13,0.13,0.13,0.13,0.13,0.13,0.13,-0.5,-0.5,-0.5,-0.5,-0.5,-0.5,-0.5,-0.5,-0.5,-0.5,-0.5,linear,0.025,FALSE,EQ,H1,6,fixmodel,0.876
10,1000,0,1000,2000,3000,4000,5000,6000,7000,8000,9000,250,2,0,1,0.13,0.13,0.13,0.13,0.13,0.13,0.13,0.13,0.13,0.13,-0.5,-0.5,-0.5,-0.5,-0.5,-0.5,-0.5,-0.5,-0.5,-0.5,-0.5,linear,0.025,FALSE,EQ,H1,6,fixmodel_cal,0.8765
10,1000,0,1000,2000,3000,4000,5000,6000,7000,8000,9000,250,2,0,1,0.13,0.13,0.13,0.13,0.13,0.13,0.13,0.13,0.13,0.13,-0.5,-0.5,-0.5,-0.5,-0.5,-0.5,-0.5,-0.5,-0.5,-0.5,-0.5,linear,0.025,FALSE,EQ,H1,6,mixmodel,0.639
10,1000,0,1000,2000,3000,4000,5000,6000,7000,8000,9000,250,2,0,1,0.13,0.13,0.13,0.13,0.13,0.13,0.13,0.13,0.13,0.13,-0.5,-0.5,-0.5,-0.5,-0.5,-0.5,-0.5,-0.5,-0.5,-0.5,-0.5,linear,0.025,FALSE,EQ,H1,6,mixmodel_cal,0.1857
10,1000,0,1000,2000,3000,4000,5000,6000,7000,8000,9000,250,2,0,1,0.13,0.13,0.13,0.13,0.13,0.13,0.13,0.13,0.13,0.13,-0.5,-0.5,-0.5,-0.5,-0.5,-0.5,-0.5,-0.5,-0.5,-0.5,-0.5,linear,0.025,FALSE,EQ,H1,6,sepmodel,0.8338
10,1000,0,1000,2000,3000,4000,5000,6000,7000,8000,9000,250,2,0,1,0.13,0.13,0.13,0.13,0.13,0.13,0.13,0.13,0.13,0.13,-0.5,-0.5,-0.5,-0.5,-0.5,-0.5,-0.5,-0.5,-0.5,-0.5,-0.5,linear,0.025,FALSE,EQ,H1,7,fixmodel,0.8793
10,1000,0,1000,2000,3000,4000,5000,6000,7000,8000,9000,250,2,0,1,0.13,0.13,0.13,0.13,0.13,0.13,0.13,0.13,0.13,0.13,-0.5,-0.5,-0.5,-0.5,-0.5,-0.5,-0.5,-0.5,-0.5,-0.5,-0.5,linear,0.025,FALSE,EQ,H1,7,fixmodel_cal,0.8807
10,1000,0,1000,2000,3000,4000,5000,6000,7000,8000,9000,250,2,0,1,0.13,0.13,0.13,0.13,0.13,0.13,0.13,0.13,0.13,0.13,-0.5,-0.5,-0.5,-0.5,-0.5,-0.5,-0.5,-0.5,-0.5,-0.5,-0.5,linear,0.025,FALSE,EQ,H1,7,mixmodel,0.6535
10,1000,0,1000,2000,3000,4000,5000,6000,7000,8000,9000,250,2,0,1,0.13,0.13,0.13,0.13,0.13,0.13,0.13,0.13,0.13,0.13,-0.5,-0.5,-0.5,-0.5,-0.5,-0.5,-0.5,-0.5,-0.5,-0.5,-0.5,linear,0.025,FALSE,EQ,H1,7,mixmodel_cal,0.1569
10,1000,0,1000,2000,3000,4000,5000,6000,7000,8000,9000,250,2,0,1,0.13,0.13,0.13,0.13,0.13,0.13,0.13,0.13,0.13,0.13,-0.5,-0.5,-0.5,-0.5,-0.5,-0.5,-0.5,-0.5,-0.5,-0.5,-0.5,linear,0.025,FALSE,EQ,H1,7,sepmodel,0.8299
10,1000,0,1000,2000,3000,4000,5000,6000,7000,8000,9000,250,2,0,1,0.13,0.13,0.13,0.13,0.13,0.13,0.13,0.13,0.13,0.13,-0.5,-0.5,-0.5,-0.5,-0.5,-0.5,-0.5,-0.5,-0.5,-0.5,-0.5,linear,0.025,FALSE,EQ,H1,8,fixmodel,0.8812
10,1000,0,1000,2000,3000,4000,5000,6000,7000,8000,9000,250,2,0,1,0.13,0.13,0.13,0.13,0.13,0.13,0.13,0.13,0.13,0.13,-0.5,-0.5,-0.5,-0.5,-0.5,-0.5,-0.5,-0.5,-0.5,-0.5,-0.5,linear,0.025,FALSE,EQ,H1,8,fixmodel_cal,0.8826
10,1000,0,1000,2000,3000,4000,5000,6000,7000,8000,9000,250,2,0,1,0.13,0.13,0.13,0.13,0.13,0.13,0.13,0.13,0.13,0.13,-0.5,-0.5,-0.5,-0.5,-0.5,-0.5,-0.5,-0.5,-0.5,-0.5,-0.5,linear,0.025,FALSE,EQ,H1,8,mixmodel,0.6536
10,1000,0,1000,2000,3000,4000,5000,6000,7000,8000,9000,250,2,0,1,0.13,0.13,0.13,0.13,0.13,0.13,0.13,0.13,0.13,0.13,-0.5,-0.5,-0.5,-0.5,-0.5,-0.5,-0.5,-0.5,-0.5,-0.5,-0.5,linear,0.025,FALSE,EQ,H1,8,mixmodel_cal,0.1454
10,1000,0,1000,2000,3000,4000,5000,6000,7000,8000,9000,250,2,0,1,0.13,0.13,0.13,0.13,0.13,0.13,0.13,0.13,0.13,0.13,-0.5,-0.5,-0.5,-0.5,-0.5,-0.5,-0.5,-0.5,-0.5,-0.5,-0.5,linear,0.025,FALSE,EQ,H1,8,sepmodel,0.831
10,1000,0,1000,2000,3000,4000,5000,6000,7000,8000,9000,250,2,0,1,0.13,0.13,0.13,0.13,0.13,0.13,0.13,0.13,0.13,0.13,-0.5,-0.5,-0.5,-0.5,-0.5,-0.5,-0.5,-0.5,-0.5,-0.5,-0.5,linear,0.025,FALSE,EQ,H1,9,fixmodel,0.8752
10,1000,0,1000,2000,3000,4000,5000,6000,7000,8000,9000,250,2,0,1,0.13,0.13,0.13,0.13,0.13,0.13,0.13,0.13,0.13,0.13,-0.5,-0.5,-0.5,-0.5,-0.5,-0.5,-0.5,-0.5,-0.5,-0.5,-0.5,linear,0.025,FALSE,EQ,H1,9,fixmodel_cal,0.8775
10,1000,0,1000,2000,3000,4000,5000,6000,7000,8000,9000,250,2,0,1,0.13,0.13,0.13,0.13,0.13,0.13,0.13,0.13,0.13,0.13,-0.5,-0.5,-0.5,-0.5,-0.5,-0.5,-0.5,-0.5,-0.5,-0.5,-0.5,linear,0.025,FALSE,EQ,H1,9,mixmodel,0.654
10,1000,0,1000,2000,3000,4000,5000,6000,7000,8000,9000,250,2,0,1,0.13,0.13,0.13,0.13,0.13,0.13,0.13,0.13,0.13,0.13,-0.5,-0.5,-0.5,-0.5,-0.5,-0.5,-0.5,-0.5,-0.5,-0.5,-0.5,linear,0.025,FALSE,EQ,H1,9,mixmodel_cal,0.1561
10,1000,0,1000,2000,3000,4000,5000,6000,7000,8000,9000,250,2,0,1,0.13,0.13,0.13,0.13,0.13,0.13,0.13,0.13,0.13,0.13,-0.5,-0.5,-0.5,-0.5,-0.5,-0.5,-0.5,-0.5,-0.5,-0.5,-0.5,linear,0.025,FALSE,EQ,H1,9,sepmodel,0.82
10,1000,0,1000,2000,3000,4000,5000,6000,7000,8000,9000,250,2,0,1,0.13,0.13,0.13,0.13,0.13,0.13,0.13,0.13,0.13,0.13,-0.5,-0.5,-0.5,-0.5,-0.5,-0.5,-0.5,-0.5,-0.5,-0.5,-0.5,linear,0.025,FALSE,EQ,H1,10,fixmodel,0.8826
10,1000,0,1000,2000,3000,4000,5000,6000,7000,8000,9000,250,2,0,1,0.13,0.13,0.13,0.13,0.13,0.13,0.13,0.13,0.13,0.13,-0.5,-0.5,-0.5,-0.5,-0.5,-0.5,-0.5,-0.5,-0.5,-0.5,-0.5,linear,0.025,FALSE,EQ,H1,10,fixmodel_cal,0.8832
10,1000,0,1000,2000,3000,4000,5000,6000,7000,8000,9000,250,2,0,1,0.13,0.13,0.13,0.13,0.13,0.13,0.13,0.13,0.13,0.13,-0.5,-0.5,-0.5,-0.5,-0.5,-0.5,-0.5,-0.5,-0.5,-0.5,-0.5,linear,0.025,FALSE,EQ,H1,10,mixmodel,0.6514
10,1000,0,1000,2000,3000,4000,5000,6000,7000,8000,9000,250,2,0,1,0.13,0.13,0.13,0.13,0.13,0.13,0.13,0.13,0.13,0.13,-0.5,-0.5,-0.5,-0.5,-0.5,-0.5,-0.5,-0.5,-0.5,-0.5,-0.5,linear,0.025,FALSE,EQ,H1,10,mixmodel_cal,0.1634
10,1000,0,1000,2000,3000,4000,5000,6000,7000,8000,9000,250,2,0,1,0.13,0.13,0.13,0.13,0.13,0.13,0.13,0.13,0.13,0.13,-0.5,-0.5,-0.5,-0.5,-0.5,-0.5,-0.5,-0.5,-0.5,-0.5,-0.5,linear,0.025,FALSE,EQ,H1,10,sepmodel,0.8229
10,1000,0,1500,3000,4500,6000,7500,9000,10500,12000,13500,250,2,0,1,0.13,0.13,0.13,0.13,0.13,0.13,0.13,0.13,0.13,0.13,-0.5,-0.5,-0.5,-0.5,-0.5,-0.5,-0.5,-0.5,-0.5,-0.5,-0.5,linear,0.025,FALSE,EQ,H1,2,fixmodel,0.8479
10,1000,0,1500,3000,4500,6000,7500,9000,10500,12000,13500,250,2,0,1,0.13,0.13,0.13,0.13,0.13,0.13,0.13,0.13,0.13,0.13,-0.5,-0.5,-0.5,-0.5,-0.5,-0.5,-0.5,-0.5,-0.5,-0.5,-0.5,linear,0.025,FALSE,EQ,H1,2,fixmodel_cal,0.8573
10,1000,0,1500,3000,4500,6000,7500,9000,10500,12000,13500,250,2,0,1,0.13,0.13,0.13,0.13,0.13,0.13,0.13,0.13,0.13,0.13,-0.5,-0.5,-0.5,-0.5,-0.5,-0.5,-0.5,-0.5,-0.5,-0.5,-0.5,linear,0.025,FALSE,EQ,H1,2,mixmodel,0.801
10,1000,0,1500,3000,4500,6000,7500,9000,10500,12000,13500,250,2,0,1,0.13,0.13,0.13,0.13,0.13,0.13,0.13,0.13,0.13,0.13,-0.5,-0.5,-0.5,-0.5,-0.5,-0.5,-0.5,-0.5,-0.5,-0.5,-0.5,linear,0.025,FALSE,EQ,H1,2,mixmodel_cal,0.7778
10,1000,0,1500,3000,4500,6000,7500,9000,10500,12000,13500,250,2,0,1,0.13,0.13,0.13,0.13,0.13,0.13,0.13,0.13,0.13,0.13,-0.5,-0.5,-0.5,-0.5,-0.5,-0.5,-0.5,-0.5,-0.5,-0.5,-0.5,linear,0.025,FALSE,EQ,H1,2,sepmodel,0.8277
10,1000,0,1500,3000,4500,6000,7500,9000,10500,12000,13500,250,2,0,1,0.13,0.13,0.13,0.13,0.13,0.13,0.13,0.13,0.13,0.13,-0.5,-0.5,-0.5,-0.5,-0.5,-0.5,-0.5,-0.5,-0.5,-0.5,-0.5,linear,0.025,FALSE,EQ,H1,3,fixmodel,0.8621
10,1000,0,1500,3000,4500,6000,7500,9000,10500,12000,13500,250,2,0,1,0.13,0.13,0.13,0.13,0.13,0.13,0.13,0.13,0.13,0.13,-0.5,-0.5,-0.5,-0.5,-0.5,-0.5,-0.5,-0.5,-0.5,-0.5,-0.5,linear,0.025,FALSE,EQ,H1,3,fixmodel_cal,0.8682
10,1000,0,1500,3000,4500,6000,7500,9000,10500,12000,13500,250,2,0,1,0.13,0.13,0.13,0.13,0.13,0.13,0.13,0.13,0.13,0.13,-0.5,-0.5,-0.5,-0.5,-0.5,-0.5,-0.5,-0.5,-0.5,-0.5,-0.5,linear,0.025,FALSE,EQ,H1,3,mixmodel,0.7408
10,1000,0,1500,3000,4500,6000,7500,9000,10500,12000,13500,250,2,0,1,0.13,0.13,0.13,0.13,0.13,0.13,0.13,0.13,0.13,0.13,-0.5,-0.5,-0.5,-0.5,-0.5,-0.5,-0.5,-0.5,-0.5,-0.5,-0.5,linear,0.025,FALSE,EQ,H1,3,mixmodel_cal,0.6345
10,1000,0,1500,3000,4500,6000,7500,9000,10500,12000,13500,250,2,0,1,0.13,0.13,0.13,0.13,0.13,0.13,0.13,0.13,0.13,0.13,-0.5,-0.5,-0.5,-0.5,-0.5,-0.5,-0.5,-0.5,-0.5,-0.5,-0.5,linear,0.025,FALSE,EQ,H1,3,sepmodel,0.8377
10,1000,0,1500,3000,4500,6000,7500,9000,10500,12000,13500,250,2,0,1,0.13,0.13,0.13,0.13,0.13,0.13,0.13,0.13,0.13,0.13,-0.5,-0.5,-0.5,-0.5,-0.5,-0.5,-0.5,-0.5,-0.5,-0.5,-0.5,linear,0.025,FALSE,EQ,H1,4,fixmodel,0.8603
10,1000,0,1500,3000,4500,6000,7500,9000,10500,12000,13500,250,2,0,1,0.13,0.13,0.13,0.13,0.13,0.13,0.13,0.13,0.13,0.13,-0.5,-0.5,-0.5,-0.5,-0.5,-0.5,-0.5,-0.5,-0.5,-0.5,-0.5,linear,0.025,FALSE,EQ,H1,4,fixmodel_cal,0.8672
10,1000,0,1500,3000,4500,6000,7500,9000,10500,12000,13500,250,2,0,1,0.13,0.13,0.13,0.13,0.13,0.13,0.13,0.13,0.13,0.13,-0.5,-0.5,-0.5,-0.5,-0.5,-0.5,-0.5,-0.5,-0.5,-0.5,-0.5,linear,0.025,FALSE,EQ,H1,4,mixmodel,0.6816
10,1000,0,1500,3000,4500,6000,7500,9000,10500,12000,13500,250,2,0,1,0.13,0.13,0.13,0.13,0.13,0.13,0.13,0.13,0.13,0.13,-0.5,-0.5,-0.5,-0.5,-0.5,-0.5,-0.5,-0.5,-0.5,-0.5,-0.5,linear,0.025,FALSE,EQ,H1,4,mixmodel_cal,0.4209
10,1000,0,1500,3000,4500,6000,7500,9000,10500,12000,13500,250,2,0,1,0.13,0.13,0.13,0.13,0.13,0.13,0.13,0.13,0.13,0.13,-0.5,-0.5,-0.5,-0.5,-0.5,-0.5,-0.5,-0.5,-0.5,-0.5,-0.5,linear,0.025,FALSE,EQ,H1,4,sepmodel,0.8308
10,1000,0,1500,3000,4500,6000,7500,9000,10500,12000,13500,250,2,0,1,0.13,0.13,0.13,0.13,0.13,0.13,0.13,0.13,0.13,0.13,-0.5,-0.5,-0.5,-0.5,-0.5,-0.5,-0.5,-0.5,-0.5,-0.5,-0.5,linear,0.025,FALSE,EQ,H1,5,fixmodel,0.8543
10,1000,0,1500,3000,4500,6000,7500,9000,10500,12000,13500,250,2,0,1,0.13,0.13,0.13,0.13,0.13,0.13,0.13,0.13,0.13,0.13,-0.5,-0.5,-0.5,-0.5,-0.5,-0.5,-0.5,-0.5,-0.5,-0.5,-0.5,linear,0.025,FALSE,EQ,H1,5,fixmodel_cal,0.8589
10,1000,0,1500,3000,4500,6000,7500,9000,10500,12000,13500,250,2,0,1,0.13,0.13,0.13,0.13,0.13,0.13,0.13,0.13,0.13,0.13,-0.5,-0.5,-0.5,-0.5,-0.5,-0.5,-0.5,-0.5,-0.5,-0.5,-0.5,linear,0.025,FALSE,EQ,H1,5,mixmodel,0.6661
10,1000,0,1500,3000,4500,6000,7500,9000,10500,12000,13500,250,2,0,1,0.13,0.13,0.13,0.13,0.13,0.13,0.13,0.13,0.13,0.13,-0.5,-0.5,-0.5,-0.5,-0.5,-0.5,-0.5,-0.5,-0.5,-0.5,-0.5,linear,0.025,FALSE,EQ,H1,5,mixmodel_cal,0.2562
10,1000,0,1500,3000,4500,6000,7500,9000,10500,12000,13500,250,2,0,1,0.13,0.13,0.13,0.13,0.13,0.13,0.13,0.13,0.13,0.13,-0.5,-0.5,-0.5,-0.5,-0.5,-0.5,-0.5,-0.5,-0.5,-0.5,-0.5,linear,0.025,FALSE,EQ,H1,5,sepmodel,0.8286
10,1000,0,1500,3000,4500,6000,7500,9000,10500,12000,13500,250,2,0,1,0.13,0.13,0.13,0.13,0.13,0.13,0.13,0.13,0.13,0.13,-0.5,-0.5,-0.5,-0.5,-0.5,-0.5,-0.5,-0.5,-0.5,-0.5,-0.5,linear,0.025,FALSE,EQ,H1,6,fixmodel,0.855
10,1000,0,1500,3000,4500,6000,7500,9000,10500,12000,13500,250,2,0,1,0.13,0.13,0.13,0.13,0.13,0.13,0.13,0.13,0.13,0.13,-0.5,-0.5,-0.5,-0.5,-0.5,-0.5,-0.5,-0.5,-0.5,-0.5,-0.5,linear,0.025,FALSE,EQ,H1,6,fixmodel_cal,0.8566
10,1000,0,1500,3000,4500,6000,7500,9000,10500,12000,13500,250,2,0,1,0.13,0.13,0.13,0.13,0.13,0.13,0.13,0.13,0.13,0.13,-0.5,-0.5,-0.5,-0.5,-0.5,-0.5,-0.5,-0.5,-0.5,-0.5,-0.5,linear,0.025,FALSE,EQ,H1,6,mixmodel,0.6716
10,1000,0,1500,3000,4500,6000,7500,9000,10500,12000,13500,250,2,0,1,0.13,0.13,0.13,0.13,0.13,0.13,0.13,0.13,0.13,0.13,-0.5,-0.5,-0.5,-0.5,-0.5,-0.5,-0.5,-0.5,-0.5,-0.5,-0.5,linear,0.025,FALSE,EQ,H1,6,mixmodel_cal,0.156
10,1000,0,1500,3000,4500,6000,7500,9000,10500,12000,13500,250,2,0,1,0.13,0.13,0.13,0.13,0.13,0.13,0.13,0.13,0.13,0.13,-0.5,-0.5,-0.5,-0.5,-0.5,-0.5,-0.5,-0.5,-0.5,-0.5,-0.5,linear,0.025,FALSE,EQ,H1,6,sepmodel,0.8294
10,1000,0,1500,3000,4500,6000,7500,9000,10500,12000,13500,250,2,0,1,0.13,0.13,0.13,0.13,0.13,0.13,0.13,0.13,0.13,0.13,-0.5,-0.5,-0.5,-0.5,-0.5,-0.5,-0.5,-0.5,-0.5,-0.5,-0.5,linear,0.025,FALSE,EQ,H1,7,fixmodel,0.8549
10,1000,0,1500,3000,4500,6000,7500,9000,10500,12000,13500,250,2,0,1,0.13,0.13,0.13,0.13,0.13,0.13,0.13,0.13,0.13,0.13,-0.5,-0.5,-0.5,-0.5,-0.5,-0.5,-0.5,-0.5,-0.5,-0.5,-0.5,linear,0.025,FALSE,EQ,H1,7,fixmodel_cal,0.8569
10,1000,0,1500,3000,4500,6000,7500,9000,10500,12000,13500,250,2,0,1,0.13,0.13,0.13,0.13,0.13,0.13,0.13,0.13,0.13,0.13,-0.5,-0.5,-0.5,-0.5,-0.5,-0.5,-0.5,-0.5,-0.5,-0.5,-0.5,linear,0.025,FALSE,EQ,H1,7,mixmodel,0.688
10,1000,0,1500,3000,4500,6000,7500,9000,10500,12000,13500,250,2,0,1,0.13,0.13,0.13,0.13,0.13,0.13,0.13,0.13,0.13,0.13,-0.5,-0.5,-0.5,-0.5,-0.5,-0.5,-0.5,-0.5,-0.5,-0.5,-0.5,linear,0.025,FALSE,EQ,H1,7,mixmodel_cal,0.1218
10,1000,0,1500,3000,4500,6000,7500,9000,10500,12000,13500,250,2,0,1,0.13,0.13,0.13,0.13,0.13,0.13,0.13,0.13,0.13,0.13,-0.5,-0.5,-0.5,-0.5,-0.5,-0.5,-0.5,-0.5,-0.5,-0.5,-0.5,linear,0.025,FALSE,EQ,H1,7,sepmodel,0.8299
10,1000,0,1500,3000,4500,6000,7500,9000,10500,12000,13500,250,2,0,1,0.13,0.13,0.13,0.13,0.13,0.13,0.13,0.13,0.13,0.13,-0.5,-0.5,-0.5,-0.5,-0.5,-0.5,-0.5,-0.5,-0.5,-0.5,-0.5,linear,0.025,FALSE,EQ,H1,8,fixmodel,0.8554
10,1000,0,1500,3000,4500,6000,7500,9000,10500,12000,13500,250,2,0,1,0.13,0.13,0.13,0.13,0.13,0.13,0.13,0.13,0.13,0.13,-0.5,-0.5,-0.5,-0.5,-0.5,-0.5,-0.5,-0.5,-0.5,-0.5,-0.5,linear,0.025,FALSE,EQ,H1,8,fixmodel_cal,0.8556
10,1000,0,1500,3000,4500,6000,7500,9000,10500,12000,13500,250,2,0,1,0.13,0.13,0.13,0.13,0.13,0.13,0.13,0.13,0.13,0.13,-0.5,-0.5,-0.5,-0.5,-0.5,-0.5,-0.5,-0.5,-0.5,-0.5,-0.5,linear,0.025,FALSE,EQ,H1,8,mixmodel,0.7002
10,1000,0,1500,3000,4500,6000,7500,9000,10500,12000,13500,250,2,0,1,0.13,0.13,0.13,0.13,0.13,0.13,0.13,0.13,0.13,0.13,-0.5,-0.5,-0.5,-0.5,-0.5,-0.5,-0.5,-0.5,-0.5,-0.5,-0.5,linear,0.025,FALSE,EQ,H1,8,mixmodel_cal,0.1018
10,1000,0,1500,3000,4500,6000,7500,9000,10500,12000,13500,250,2,0,1,0.13,0.13,0.13,0.13,0.13,0.13,0.13,0.13,0.13,0.13,-0.5,-0.5,-0.5,-0.5,-0.5,-0.5,-0.5,-0.5,-0.5,-0.5,-0.5,linear,0.025,FALSE,EQ,H1,8,sepmodel,0.8269
10,1000,0,1500,3000,4500,6000,7500,9000,10500,12000,13500,250,2,0,1,0.13,0.13,0.13,0.13,0.13,0.13,0.13,0.13,0.13,0.13,-0.5,-0.5,-0.5,-0.5,-0.5,-0.5,-0.5,-0.5,-0.5,-0.5,-0.5,linear,0.025,FALSE,EQ,H1,9,fixmodel,0.8581
10,1000,0,1500,3000,4500,6000,7500,9000,10500,12000,13500,250,2,0,1,0.13,0.13,0.13,0.13,0.13,0.13,0.13,0.13,0.13,0.13,-0.5,-0.5,-0.5,-0.5,-0.5,-0.5,-0.5,-0.5,-0.5,-0.5,-0.5,linear,0.025,FALSE,EQ,H1,9,fixmodel_cal,0.8577
10,1000,0,1500,3000,4500,6000,7500,9000,10500,12000,13500,250,2,0,1,0.13,0.13,0.13,0.13,0.13,0.13,0.13,0.13,0.13,0.13,-0.5,-0.5,-0.5,-0.5,-0.5,-0.5,-0.5,-0.5,-0.5,-0.5,-0.5,linear,0.025,FALSE,EQ,H1,9,mixmodel,0.7156
10,1000,0,1500,3000,4500,6000,7500,9000,10500,12000,13500,250,2,0,1,0.13,0.13,0.13,0.13,0.13,0.13,0.13,0.13,0.13,0.13,-0.5,-0.5,-0.5,-0.5,-0.5,-0.5,-0.5,-0.5,-0.5,-0.5,-0.5,linear,0.025,FALSE,EQ,H1,9,mixmodel_cal,0.1083
10,1000,0,1500,3000,4500,6000,7500,9000,10500,12000,13500,250,2,0,1,0.13,0.13,0.13,0.13,0.13,0.13,0.13,0.13,0.13,0.13,-0.5,-0.5,-0.5,-0.5,-0.5,-0.5,-0.5,-0.5,-0.5,-0.5,-0.5,linear,0.025,FALSE,EQ,H1,9,sepmodel,0.833
10,1000,0,1500,3000,4500,6000,7500,9000,10500,12000,13500,250,2,0,1,0.13,0.13,0.13,0.13,0.13,0.13,0.13,0.13,0.13,0.13,-0.5,-0.5,-0.5,-0.5,-0.5,-0.5,-0.5,-0.5,-0.5,-0.5,-0.5,linear,0.025,FALSE,EQ,H1,10,fixmodel,0.8504
10,1000,0,1500,3000,4500,6000,7500,9000,10500,12000,13500,250,2,0,1,0.13,0.13,0.13,0.13,0.13,0.13,0.13,0.13,0.13,0.13,-0.5,-0.5,-0.5,-0.5,-0.5,-0.5,-0.5,-0.5,-0.5,-0.5,-0.5,linear,0.025,FALSE,EQ,H1,10,fixmodel_cal,0.8506
10,1000,0,1500,3000,4500,6000,7500,9000,10500,12000,13500,250,2,0,1,0.13,0.13,0.13,0.13,0.13,0.13,0.13,0.13,0.13,0.13,-0.5,-0.5,-0.5,-0.5,-0.5,-0.5,-0.5,-0.5,-0.5,-0.5,-0.5,linear,0.025,FALSE,EQ,H1,10,mixmodel,0.7231
10,1000,0,1500,3000,4500,6000,7500,9000,10500,12000,13500,250,2,0,1,0.13,0.13,0.13,0.13,0.13,0.13,0.13,0.13,0.13,0.13,-0.5,-0.5,-0.5,-0.5,-0.5,-0.5,-0.5,-0.5,-0.5,-0.5,-0.5,linear,0.025,FALSE,EQ,H1,10,mixmodel_cal,0.1662
10,1000,0,1500,3000,4500,6000,7500,9000,10500,12000,13500,250,2,0,1,0.13,0.13,0.13,0.13,0.13,0.13,0.13,0.13,0.13,0.13,-0.5,-0.5,-0.5,-0.5,-0.5,-0.5,-0.5,-0.5,-0.5,-0.5,-0.5,linear,0.025,FALSE,EQ,H1,10,sepmodel,0.822
10,1000,0,2000,4000,6000,8000,10000,12000,14000,16000,18000,250,2,0,1,0.13,0.13,0.13,0.13,0.13,0.13,0.13,0.13,0.13,0.13,-0.5,-0.5,-0.5,-0.5,-0.5,-0.5,-0.5,-0.5,-0.5,-0.5,-0.5,linear,0.025,FALSE,EQ,H1,2,fixmodel,0.8282
10,1000,0,2000,4000,6000,8000,10000,12000,14000,16000,18000,250,2,0,1,0.13,0.13,0.13,0.13,0.13,0.13,0.13,0.13,0.13,0.13,-0.5,-0.5,-0.5,-0.5,-0.5,-0.5,-0.5,-0.5,-0.5,-0.5,-0.5,linear,0.025,FALSE,EQ,H1,2,fixmodel_cal,0.8276
10,1000,0,2000,4000,6000,8000,10000,12000,14000,16000,18000,250,2,0,1,0.13,0.13,0.13,0.13,0.13,0.13,0.13,0.13,0.13,0.13,-0.5,-0.5,-0.5,-0.5,-0.5,-0.5,-0.5,-0.5,-0.5,-0.5,-0.5,linear,0.025,FALSE,EQ,H1,2,mixmodel,0.8246
10,1000,0,2000,4000,6000,8000,10000,12000,14000,16000,18000,250,2,0,1,0.13,0.13,0.13,0.13,0.13,0.13,0.13,0.13,0.13,0.13,-0.5,-0.5,-0.5,-0.5,-0.5,-0.5,-0.5,-0.5,-0.5,-0.5,-0.5,linear,0.025,FALSE,EQ,H1,2,mixmodel_cal,0.7815
10,1000,0,2000,4000,6000,8000,10000,12000,14000,16000,18000,250,2,0,1,0.13,0.13,0.13,0.13,0.13,0.13,0.13,0.13,0.13,0.13,-0.5,-0.5,-0.5,-0.5,-0.5,-0.5,-0.5,-0.5,-0.5,-0.5,-0.5,linear,0.025,FALSE,EQ,H1,2,sepmodel,0.828
10,1000,0,2000,4000,6000,8000,10000,12000,14000,16000,18000,250,2,0,1,0.13,0.13,0.13,0.13,0.13,0.13,0.13,0.13,0.13,0.13,-0.5,-0.5,-0.5,-0.5,-0.5,-0.5,-0.5,-0.5,-0.5,-0.5,-0.5,linear,0.025,FALSE,EQ,H1,3,fixmodel,0.8321
10,1000,0,2000,4000,6000,8000,10000,12000,14000,16000,18000,250,2,0,1,0.13,0.13,0.13,0.13,0.13,0.13,0.13,0.13,0.13,0.13,-0.5,-0.5,-0.5,-0.5,-0.5,-0.5,-0.5,-0.5,-0.5,-0.5,-0.5,linear,0.025,FALSE,EQ,H1,3,fixmodel_cal,0.8322
10,1000,0,2000,4000,6000,8000,10000,12000,14000,16000,18000,250,2,0,1,0.13,0.13,0.13,0.13,0.13,0.13,0.13,0.13,0.13,0.13,-0.5,-0.5,-0.5,-0.5,-0.5,-0.5,-0.5,-0.5,-0.5,-0.5,-0.5,linear,0.025,FALSE,EQ,H1,3,mixmodel,0.7703
10,1000,0,2000,4000,6000,8000,10000,12000,14000,16000,18000,250,2,0,1,0.13,0.13,0.13,0.13,0.13,0.13,0.13,0.13,0.13,0.13,-0.5,-0.5,-0.5,-0.5,-0.5,-0.5,-0.5,-0.5,-0.5,-0.5,-0.5,linear,0.025,FALSE,EQ,H1,3,mixmodel_cal,0.6353
10,1000,0,2000,4000,6000,8000,10000,12000,14000,16000,18000,250,2,0,1,0.13,0.13,0.13,0.13,0.13,0.13,0.13,0.13,0.13,0.13,-0.5,-0.5,-0.5,-0.5,-0.5,-0.5,-0.5,-0.5,-0.5,-0.5,-0.5,linear,0.025,FALSE,EQ,H1,3,sepmodel,0.8322
10,1000,0,2000,4000,6000,8000,10000,12000,14000,16000,18000,250,2,0,1,0.13,0.13,0.13,0.13,0.13,0.13,0.13,0.13,0.13,0.13,-0.5,-0.5,-0.5,-0.5,-0.5,-0.5,-0.5,-0.5,-0.5,-0.5,-0.5,linear,0.025,FALSE,EQ,H1,4,fixmodel,0.829
10,1000,0,2000,4000,6000,8000,10000,12000,14000,16000,18000,250,2,0,1,0.13,0.13,0.13,0.13,0.13,0.13,0.13,0.13,0.13,0.13,-0.5,-0.5,-0.5,-0.5,-0.5,-0.5,-0.5,-0.5,-0.5,-0.5,-0.5,linear,0.025,FALSE,EQ,H1,4,fixmodel_cal,0.8287
10,1000,0,2000,4000,6000,8000,10000,12000,14000,16000,18000,250,2,0,1,0.13,0.13,0.13,0.13,0.13,0.13,0.13,0.13,0.13,0.13,-0.5,-0.5,-0.5,-0.5,-0.5,-0.5,-0.5,-0.5,-0.5,-0.5,-0.5,linear,0.025,FALSE,EQ,H1,4,mixmodel,0.7494
10,1000,0,2000,4000,6000,8000,10000,12000,14000,16000,18000,250,2,0,1,0.13,0.13,0.13,0.13,0.13,0.13,0.13,0.13,0.13,0.13,-0.5,-0.5,-0.5,-0.5,-0.5,-0.5,-0.5,-0.5,-0.5,-0.5,-0.5,linear,0.025,FALSE,EQ,H1,4,mixmodel_cal,0.4384
10,1000,0,2000,4000,6000,8000,10000,12000,14000,16000,18000,250,2,0,1,0.13,0.13,0.13,0.13,0.13,0.13,0.13,0.13,0.13,0.13,-0.5,-0.5,-0.5,-0.5,-0.5,-0.5,-0.5,-0.5,-0.5,-0.5,-0.5,linear,0.025,FALSE,EQ,H1,4,sepmodel,0.8292
10,1000,0,2000,4000,6000,8000,10000,12000,14000,16000,18000,250,2,0,1,0.13,0.13,0.13,0.13,0.13,0.13,0.13,0.13,0.13,0.13,-0.5,-0.5,-0.5,-0.5,-0.5,-0.5,-0.5,-0.5,-0.5,-0.5,-0.5,linear,0.025,FALSE,EQ,H1,5,fixmodel,0.8333
10,1000,0,2000,4000,6000,8000,10000,12000,14000,16000,18000,250,2,0,1,0.13,0.13,0.13,0.13,0.13,0.13,0.13,0.13,0.13,0.13,-0.5,-0.5,-0.5,-0.5,-0.5,-0.5,-0.5,-0.5,-0.5,-0.5,-0.5,linear,0.025,FALSE,EQ,H1,5,fixmodel_cal,0.8332
10,1000,0,2000,4000,6000,8000,10000,12000,14000,16000,18000,250,2,0,1,0.13,0.13,0.13,0.13,0.13,0.13,0.13,0.13,0.13,0.13,-0.5,-0.5,-0.5,-0.5,-0.5,-0.5,-0.5,-0.5,-0.5,-0.5,-0.5,linear,0.025,FALSE,EQ,H1,5,mixmodel,0.76
10,1000,0,2000,4000,6000,8000,10000,12000,14000,16000,18000,250,2,0,1,0.13,0.13,0.13,0.13,0.13,0.13,0.13,0.13,0.13,0.13,-0.5,-0.5,-0.5,-0.5,-0.5,-0.5,-0.5,-0.5,-0.5,-0.5,-0.5,linear,0.025,FALSE,EQ,H1,5,mixmodel_cal,0.2959
10,1000,0,2000,4000,6000,8000,10000,12000,14000,16000,18000,250,2,0,1,0.13,0.13,0.13,0.13,0.13,0.13,0.13,0.13,0.13,0.13,-0.5,-0.5,-0.5,-0.5,-0.5,-0.5,-0.5,-0.5,-0.5,-0.5,-0.5,linear,0.025,FALSE,EQ,H1,5,sepmodel,0.8333
10,1000,0,2000,4000,6000,8000,10000,12000,14000,16000,18000,250,2,0,1,0.13,0.13,0.13,0.13,0.13,0.13,0.13,0.13,0.13,0.13,-0.5,-0.5,-0.5,-0.5,-0.5,-0.5,-0.5,-0.5,-0.5,-0.5,-0.5,linear,0.025,FALSE,EQ,H1,6,fixmodel,0.8282
10,1000,0,2000,4000,6000,8000,10000,12000,14000,16000,18000,250,2,0,1,0.13,0.13,0.13,0.13,0.13,0.13,0.13,0.13,0.13,0.13,-0.5,-0.5,-0.5,-0.5,-0.5,-0.5,-0.5,-0.5,-0.5,-0.5,-0.5,linear,0.025,FALSE,EQ,H1,6,fixmodel_cal,0.8289
10,1000,0,2000,4000,6000,8000,10000,12000,14000,16000,18000,250,2,0,1,0.13,0.13,0.13,0.13,0.13,0.13,0.13,0.13,0.13,0.13,-0.5,-0.5,-0.5,-0.5,-0.5,-0.5,-0.5,-0.5,-0.5,-0.5,-0.5,linear,0.025,FALSE,EQ,H1,6,mixmodel,0.7572
10,1000,0,2000,4000,6000,8000,10000,12000,14000,16000,18000,250,2,0,1,0.13,0.13,0.13,0.13,0.13,0.13,0.13,0.13,0.13,0.13,-0.5,-0.5,-0.5,-0.5,-0.5,-0.5,-0.5,-0.5,-0.5,-0.5,-0.5,linear,0.025,FALSE,EQ,H1,6,mixmodel_cal,0.2183
10,1000,0,2000,4000,6000,8000,10000,12000,14000,16000,18000,250,2,0,1,0.13,0.13,0.13,0.13,0.13,0.13,0.13,0.13,0.13,0.13,-0.5,-0.5,-0.5,-0.5,-0.5,-0.5,-0.5,-0.5,-0.5,-0.5,-0.5,linear,0.025,FALSE,EQ,H1,6,sepmodel,0.8275
10,1000,0,2000,4000,6000,8000,10000,12000,14000,16000,18000,250,2,0,1,0.13,0.13,0.13,0.13,0.13,0.13,0.13,0.13,0.13,0.13,-0.5,-0.5,-0.5,-0.5,-0.5,-0.5,-0.5,-0.5,-0.5,-0.5,-0.5,linear,0.025,FALSE,EQ,H1,7,fixmodel,0.8294
10,1000,0,2000,4000,6000,8000,10000,12000,14000,16000,18000,250,2,0,1,0.13,0.13,0.13,0.13,0.13,0.13,0.13,0.13,0.13,0.13,-0.5,-0.5,-0.5,-0.5,-0.5,-0.5,-0.5,-0.5,-0.5,-0.5,-0.5,linear,0.025,FALSE,EQ,H1,7,fixmodel_cal,0.8296
10,1000,0,2000,4000,6000,8000,10000,12000,14000,16000,18000,250,2,0,1,0.13,0.13,0.13,0.13,0.13,0.13,0.13,0.13,0.13,0.13,-0.5,-0.5,-0.5,-0.5,-0.5,-0.5,-0.5,-0.5,-0.5,-0.5,-0.5,linear,0.025,FALSE,EQ,H1,7,mixmodel,0.7655
10,1000,0,2000,4000,6000,8000,10000,12000,14000,16000,18000,250,2,0,1,0.13,0.13,0.13,0.13,0.13,0.13,0.13,0.13,0.13,0.13,-0.5,-0.5,-0.5,-0.5,-0.5,-0.5,-0.5,-0.5,-0.5,-0.5,-0.5,linear,0.025,FALSE,EQ,H1,7,mixmodel_cal,0.1896
10,1000,0,2000,4000,6000,8000,10000,12000,14000,16000,18000,250,2,0,1,0.13,0.13,0.13,0.13,0.13,0.13,0.13,0.13,0.13,0.13,-0.5,-0.5,-0.5,-0.5,-0.5,-0.5,-0.5,-0.5,-0.5,-0.5,-0.5,linear,0.025,FALSE,EQ,H1,7,sepmodel,0.8302
10,1000,0,2000,4000,6000,8000,10000,12000,14000,16000,18000,250,2,0,1,0.13,0.13,0.13,0.13,0.13,0.13,0.13,0.13,0.13,0.13,-0.5,-0.5,-0.5,-0.5,-0.5,-0.5,-0.5,-0.5,-0.5,-0.5,-0.5,linear,0.025,FALSE,EQ,H1,8,fixmodel,0.8285
10,1000,0,2000,4000,6000,8000,10000,12000,14000,16000,18000,250,2,0,1,0.13,0.13,0.13,0.13,0.13,0.13,0.13,0.13,0.13,0.13,-0.5,-0.5,-0.5,-0.5,-0.5,-0.5,-0.5,-0.5,-0.5,-0.5,-0.5,linear,0.025,FALSE,EQ,H1,8,fixmodel_cal,0.8286
10,1000,0,2000,4000,6000,8000,10000,12000,14000,16000,18000,250,2,0,1,0.13,0.13,0.13,0.13,0.13,0.13,0.13,0.13,0.13,0.13,-0.5,-0.5,-0.5,-0.5,-0.5,-0.5,-0.5,-0.5,-0.5,-0.5,-0.5,linear,0.025,FALSE,EQ,H1,8,mixmodel,0.7672
10,1000,0,2000,4000,6000,8000,10000,12000,14000,16000,18000,250,2,0,1,0.13,0.13,0.13,0.13,0.13,0.13,0.13,0.13,0.13,0.13,-0.5,-0.5,-0.5,-0.5,-0.5,-0.5,-0.5,-0.5,-0.5,-0.5,-0.5,linear,0.025,FALSE,EQ,H1,8,mixmodel_cal,0.1932
10,1000,0,2000,4000,6000,8000,10000,12000,14000,16000,18000,250,2,0,1,0.13,0.13,0.13,0.13,0.13,0.13,0.13,0.13,0.13,0.13,-0.5,-0.5,-0.5,-0.5,-0.5,-0.5,-0.5,-0.5,-0.5,-0.5,-0.5,linear,0.025,FALSE,EQ,H1,8,sepmodel,0.8282
10,1000,0,2000,4000,6000,8000,10000,12000,14000,16000,18000,250,2,0,1,0.13,0.13,0.13,0.13,0.13,0.13,0.13,0.13,0.13,0.13,-0.5,-0.5,-0.5,-0.5,-0.5,-0.5,-0.5,-0.5,-0.5,-0.5,-0.5,linear,0.025,FALSE,EQ,H1,9,fixmodel,0.8325
10,1000,0,2000,4000,6000,8000,10000,12000,14000,16000,18000,250,2,0,1,0.13,0.13,0.13,0.13,0.13,0.13,0.13,0.13,0.13,0.13,-0.5,-0.5,-0.5,-0.5,-0.5,-0.5,-0.5,-0.5,-0.5,-0.5,-0.5,linear,0.025,FALSE,EQ,H1,9,fixmodel_cal,0.8319
10,1000,0,2000,4000,6000,8000,10000,12000,14000,16000,18000,250,2,0,1,0.13,0.13,0.13,0.13,0.13,0.13,0.13,0.13,0.13,0.13,-0.5,-0.5,-0.5,-0.5,-0.5,-0.5,-0.5,-0.5,-0.5,-0.5,-0.5,linear,0.025,FALSE,EQ,H1,9,mixmodel,0.7763
10,1000,0,2000,4000,6000,8000,10000,12000,14000,16000,18000,250,2,0,1,0.13,0.13,0.13,0.13,0.13,0.13,0.13,0.13,0.13,0.13,-0.5,-0.5,-0.5,-0.5,-0.5,-0.5,-0.5,-0.5,-0.5,-0.5,-0.5,linear,0.025,FALSE,EQ,H1,9,mixmodel_cal,0.2189
10,1000,0,2000,4000,6000,8000,10000,12000,14000,16000,18000,250,2,0,1,0.13,0.13,0.13,0.13,0.13,0.13,0.13,0.13,0.13,0.13,-0.5,-0.5,-0.5,-0.5,-0.5,-0.5,-0.5,-0.5,-0.5,-0.5,-0.5,linear,0.025,FALSE,EQ,H1,9,sepmodel,0.8332
10,1000,0,2000,4000,6000,8000,10000,12000,14000,16000,18000,250,2,0,1,0.13,0.13,0.13,0.13,0.13,0.13,0.13,0.13,0.13,0.13,-0.5,-0.5,-0.5,-0.5,-0.5,-0.5,-0.5,-0.5,-0.5,-0.5,-0.5,linear,0.025,FALSE,EQ,H1,10,fixmodel,0.8324
10,1000,0,2000,4000,6000,8000,10000,12000,14000,16000,18000,250,2,0,1,0.13,0.13,0.13,0.13,0.13,0.13,0.13,0.13,0.13,0.13,-0.5,-0.5,-0.5,-0.5,-0.5,-0.5,-0.5,-0.5,-0.5,-0.5,-0.5,linear,0.025,FALSE,EQ,H1,10,fixmodel_cal,0.8324
10,1000,0,2000,4000,6000,8000,10000,12000,14000,16000,18000,250,2,0,1,0.13,0.13,0.13,0.13,0.13,0.13,0.13,0.13,0.13,0.13,-0.5,-0.5,-0.5,-0.5,-0.5,-0.5,-0.5,-0.5,-0.5,-0.5,-0.5,linear,0.025,FALSE,EQ,H1,10,mixmodel,0.7848
10,1000,0,2000,4000,6000,8000,10000,12000,14000,16000,18000,250,2,0,1,0.13,0.13,0.13,0.13,0.13,0.13,0.13,0.13,0.13,0.13,-0.5,-0.5,-0.5,-0.5,-0.5,-0.5,-0.5,-0.5,-0.5,-0.5,-0.5,linear,0.025,FALSE,EQ,H1,10,mixmodel_cal,0.2469
10,1000,0,2000,4000,6000,8000,10000,12000,14000,16000,18000,250,2,0,1,0.13,0.13,0.13,0.13,0.13,0.13,0.13,0.13,0.13,0.13,-0.5,-0.5,-0.5,-0.5,-0.5,-0.5,-0.5,-0.5,-0.5,-0.5,-0.5,linear,0.025,FALSE,EQ,H1,10,sepmodel,0.8317
10,1000,0,0,0,0,0,0,0,0,0,0,250,2,0,1,0.13,0.13,0.13,0.13,0.13,0.13,0.13,0.13,0.13,0.13,-0.375,-0.375,-0.375,-0.375,-0.375,-0.375,-0.375,-0.375,-0.375,-0.375,-0.375,linear,0.025,FALSE,EQ,H1,2,fixmodel,0.8261
10,1000,0,0,0,0,0,0,0,0,0,0,250,2,0,1,0.13,0.13,0.13,0.13,0.13,0.13,0.13,0.13,0.13,0.13,-0.375,-0.375,-0.375,-0.375,-0.375,-0.375,-0.375,-0.375,-0.375,-0.375,-0.375,linear,0.025,FALSE,EQ,H1,2,fixmodel_cal,0.8282
10,1000,0,0,0,0,0,0,0,0,0,0,250,2,0,1,0.13,0.13,0.13,0.13,0.13,0.13,0.13,0.13,0.13,0.13,-0.375,-0.375,-0.375,-0.375,-0.375,-0.375,-0.375,-0.375,-0.375,-0.375,-0.375,linear,0.025,FALSE,EQ,H1,2,mixmodel,0.8261
10,1000,0,0,0,0,0,0,0,0,0,0,250,2,0,1,0.13,0.13,0.13,0.13,0.13,0.13,0.13,0.13,0.13,0.13,-0.375,-0.375,-0.375,-0.375,-0.375,-0.375,-0.375,-0.375,-0.375,-0.375,-0.375,linear,0.025,FALSE,EQ,H1,2,mixmodel_cal,0.8284
10,1000,0,0,0,0,0,0,0,0,0,0,250,2,0,1,0.13,0.13,0.13,0.13,0.13,0.13,0.13,0.13,0.13,0.13,-0.375,-0.375,-0.375,-0.375,-0.375,-0.375,-0.375,-0.375,-0.375,-0.375,-0.375,linear,0.025,FALSE,EQ,H1,2,sepmodel,0.8255
10,1000,0,0,0,0,0,0,0,0,0,0,250,2,0,1,0.13,0.13,0.13,0.13,0.13,0.13,0.13,0.13,0.13,0.13,-0.375,-0.375,-0.375,-0.375,-0.375,-0.375,-0.375,-0.375,-0.375,-0.375,-0.375,linear,0.025,FALSE,EQ,H1,3,fixmodel,0.8236
10,1000,0,0,0,0,0,0,0,0,0,0,250,2,0,1,0.13,0.13,0.13,0.13,0.13,0.13,0.13,0.13,0.13,0.13,-0.375,-0.375,-0.375,-0.375,-0.375,-0.375,-0.375,-0.375,-0.375,-0.375,-0.375,linear,0.025,FALSE,EQ,H1,3,fixmodel_cal,0.8262
10,1000,0,0,0,0,0,0,0,0,0,0,250,2,0,1,0.13,0.13,0.13,0.13,0.13,0.13,0.13,0.13,0.13,0.13,-0.375,-0.375,-0.375,-0.375,-0.375,-0.375,-0.375,-0.375,-0.375,-0.375,-0.375,linear,0.025,FALSE,EQ,H1,3,mixmodel,0.8236
10,1000,0,0,0,0,0,0,0,0,0,0,250,2,0,1,0.13,0.13,0.13,0.13,0.13,0.13,0.13,0.13,0.13,0.13,-0.375,-0.375,-0.375,-0.375,-0.375,-0.375,-0.375,-0.375,-0.375,-0.375,-0.375,linear,0.025,FALSE,EQ,H1,3,mixmodel_cal,0.8261
10,1000,0,0,0,0,0,0,0,0,0,0,250,2,0,1,0.13,0.13,0.13,0.13,0.13,0.13,0.13,0.13,0.13,0.13,-0.375,-0.375,-0.375,-0.375,-0.375,-0.375,-0.375,-0.375,-0.375,-0.375,-0.375,linear,0.025,FALSE,EQ,H1,3,sepmodel,0.8231
10,1000,0,0,0,0,0,0,0,0,0,0,250,2,0,1,0.13,0.13,0.13,0.13,0.13,0.13,0.13,0.13,0.13,0.13,-0.375,-0.375,-0.375,-0.375,-0.375,-0.375,-0.375,-0.375,-0.375,-0.375,-0.375,linear,0.025,FALSE,EQ,H1,4,fixmodel,0.8256
10,1000,0,0,0,0,0,0,0,0,0,0,250,2,0,1,0.13,0.13,0.13,0.13,0.13,0.13,0.13,0.13,0.13,0.13,-0.375,-0.375,-0.375,-0.375,-0.375,-0.375,-0.375,-0.375,-0.375,-0.375,-0.375,linear,0.025,FALSE,EQ,H1,4,fixmodel_cal,0.8279
10,1000,0,0,0,0,0,0,0,0,0,0,250,2,0,1,0.13,0.13,0.13,0.13,0.13,0.13,0.13,0.13,0.13,0.13,-0.375,-0.375,-0.375,-0.375,-0.375,-0.375,-0.375,-0.375,-0.375,-0.375,-0.375,linear,0.025,FALSE,EQ,H1,4,mixmodel,0.8256
10,1000,0,0,0,0,0,0,0,0,0,0,250,2,0,1,0.13,0.13,0.13,0.13,0.13,0.13,0.13,0.13,0.13,0.13,-0.375,-0.375,-0.375,-0.375,-0.375,-0.375,-0.375,-0.375,-0.375,-0.375,-0.375,linear,0.025,FALSE,EQ,H1,4,mixmodel_cal,0.8282
10,1000,0,0,0,0,0,0,0,0,0,0,250,2,0,1,0.13,0.13,0.13,0.13,0.13,0.13,0.13,0.13,0.13,0.13,-0.375,-0.375,-0.375,-0.375,-0.375,-0.375,-0.375,-0.375,-0.375,-0.375,-0.375,linear,0.025,FALSE,EQ,H1,4,sepmodel,0.8249
10,1000,0,0,0,0,0,0,0,0,0,0,250,2,0,1,0.13,0.13,0.13,0.13,0.13,0.13,0.13,0.13,0.13,0.13,-0.375,-0.375,-0.375,-0.375,-0.375,-0.375,-0.375,-0.375,-0.375,-0.375,-0.375,linear,0.025,FALSE,EQ,H1,5,fixmodel,0.8247
10,1000,0,0,0,0,0,0,0,0,0,0,250,2,0,1,0.13,0.13,0.13,0.13,0.13,0.13,0.13,0.13,0.13,0.13,-0.375,-0.375,-0.375,-0.375,-0.375,-0.375,-0.375,-0.375,-0.375,-0.375,-0.375,linear,0.025,FALSE,EQ,H1,5,fixmodel_cal,0.8269
10,1000,0,0,0,0,0,0,0,0,0,0,250,2,0,1,0.13,0.13,0.13,0.13,0.13,0.13,0.13,0.13,0.13,0.13,-0.375,-0.375,-0.375,-0.375,-0.375,-0.375,-0.375,-0.375,-0.375,-0.375,-0.375,linear,0.025,FALSE,EQ,H1,5,mixmodel,0.8247
10,1000,0,0,0,0,0,0,0,0,0,0,250,2,0,1,0.13,0.13,0.13,0.13,0.13,0.13,0.13,0.13,0.13,0.13,-0.375,-0.375,-0.375,-0.375,-0.375,-0.375,-0.375,-0.375,-0.375,-0.375,-0.375,linear,0.025,FALSE,EQ,H1,5,mixmodel_cal,0.8267
10,1000,0,0,0,0,0,0,0,0,0,0,250,2,0,1,0.13,0.13,0.13,0.13,0.13,0.13,0.13,0.13,0.13,0.13,-0.375,-0.375,-0.375,-0.375,-0.375,-0.375,-0.375,-0.375,-0.375,-0.375,-0.375,linear,0.025,FALSE,EQ,H1,5,sepmodel,0.825
10,1000,0,0,0,0,0,0,0,0,0,0,250,2,0,1,0.13,0.13,0.13,0.13,0.13,0.13,0.13,0.13,0.13,0.13,-0.375,-0.375,-0.375,-0.375,-0.375,-0.375,-0.375,-0.375,-0.375,-0.375,-0.375,linear,0.025,FALSE,EQ,H1,6,fixmodel,0.8236
10,1000,0,0,0,0,0,0,0,0,0,0,250,2,0,1,0.13,0.13,0.13,0.13,0.13,0.13,0.13,0.13,0.13,0.13,-0.375,-0.375,-0.375,-0.375,-0.375,-0.375,-0.375,-0.375,-0.375,-0.375,-0.375,linear,0.025,FALSE,EQ,H1,6,fixmodel_cal,0.8266
10,1000,0,0,0,0,0,0,0,0,0,0,250,2,0,1,0.13,0.13,0.13,0.13,0.13,0.13,0.13,0.13,0.13,0.13,-0.375,-0.375,-0.375,-0.375,-0.375,-0.375,-0.375,-0.375,-0.375,-0.375,-0.375,linear,0.025,FALSE,EQ,H1,6,mixmodel,0.8236
10,1000,0,0,0,0,0,0,0,0,0,0,250,2,0,1,0.13,0.13,0.13,0.13,0.13,0.13,0.13,0.13,0.13,0.13,-0.375,-0.375,-0.375,-0.375,-0.375,-0.375,-0.375,-0.375,-0.375,-0.375,-0.375,linear,0.025,FALSE,EQ,H1,6,mixmodel_cal,0.8265
10,1000,0,0,0,0,0,0,0,0,0,0,250,2,0,1,0.13,0.13,0.13,0.13,0.13,0.13,0.13,0.13,0.13,0.13,-0.375,-0.375,-0.375,-0.375,-0.375,-0.375,-0.375,-0.375,-0.375,-0.375,-0.375,linear,0.025,FALSE,EQ,H1,6,sepmodel,0.8242
10,1000,0,0,0,0,0,0,0,0,0,0,250,2,0,1,0.13,0.13,0.13,0.13,0.13,0.13,0.13,0.13,0.13,0.13,-0.375,-0.375,-0.375,-0.375,-0.375,-0.375,-0.375,-0.375,-0.375,-0.375,-0.375,linear,0.025,FALSE,EQ,H1,7,fixmodel,0.8269
10,1000,0,0,0,0,0,0,0,0,0,0,250,2,0,1,0.13,0.13,0.13,0.13,0.13,0.13,0.13,0.13,0.13,0.13,-0.375,-0.375,-0.375,-0.375,-0.375,-0.375,-0.375,-0.375,-0.375,-0.375,-0.375,linear,0.025,FALSE,EQ,H1,7,fixmodel_cal,0.8312
10,1000,0,0,0,0,0,0,0,0,0,0,250,2,0,1,0.13,0.13,0.13,0.13,0.13,0.13,0.13,0.13,0.13,0.13,-0.375,-0.375,-0.375,-0.375,-0.375,-0.375,-0.375,-0.375,-0.375,-0.375,-0.375,linear,0.025,FALSE,EQ,H1,7,mixmodel,0.8269
10,1000,0,0,0,0,0,0,0,0,0,0,250,2,0,1,0.13,0.13,0.13,0.13,0.13,0.13,0.13,0.13,0.13,0.13,-0.375,-0.375,-0.375,-0.375,-0.375,-0.375,-0.375,-0.375,-0.375,-0.375,-0.375,linear,0.025,FALSE,EQ,H1,7,mixmodel_cal,0.8311
10,1000,0,0,0,0,0,0,0,0,0,0,250,2,0,1,0.13,0.13,0.13,0.13,0.13,0.13,0.13,0.13,0.13,0.13,-0.375,-0.375,-0.375,-0.375,-0.375,-0.375,-0.375,-0.375,-0.375,-0.375,-0.375,linear,0.025,FALSE,EQ,H1,7,sepmodel,0.8273
10,1000,0,0,0,0,0,0,0,0,0,0,250,2,0,1,0.13,0.13,0.13,0.13,0.13,0.13,0.13,0.13,0.13,0.13,-0.375,-0.375,-0.375,-0.375,-0.375,-0.375,-0.375,-0.375,-0.375,-0.375,-0.375,linear,0.025,FALSE,EQ,H1,8,fixmodel,0.8235
10,1000,0,0,0,0,0,0,0,0,0,0,250,2,0,1,0.13,0.13,0.13,0.13,0.13,0.13,0.13,0.13,0.13,0.13,-0.375,-0.375,-0.375,-0.375,-0.375,-0.375,-0.375,-0.375,-0.375,-0.375,-0.375,linear,0.025,FALSE,EQ,H1,8,fixmodel_cal,0.8264
10,1000,0,0,0,0,0,0,0,0,0,0,250,2,0,1,0.13,0.13,0.13,0.13,0.13,0.13,0.13,0.13,0.13,0.13,-0.375,-0.375,-0.375,-0.375,-0.375,-0.375,-0.375,-0.375,-0.375,-0.375,-0.375,linear,0.025,FALSE,EQ,H1,8,mixmodel,0.8235
10,1000,0,0,0,0,0,0,0,0,0,0,250,2,0,1,0.13,0.13,0.13,0.13,0.13,0.13,0.13,0.13,0.13,0.13,-0.375,-0.375,-0.375,-0.375,-0.375,-0.375,-0.375,-0.375,-0.375,-0.375,-0.375,linear,0.025,FALSE,EQ,H1,8,mixmodel_cal,0.8262
10,1000,0,0,0,0,0,0,0,0,0,0,250,2,0,1,0.13,0.13,0.13,0.13,0.13,0.13,0.13,0.13,0.13,0.13,-0.375,-0.375,-0.375,-0.375,-0.375,-0.375,-0.375,-0.375,-0.375,-0.375,-0.375,linear,0.025,FALSE,EQ,H1,8,sepmodel,0.8235
10,1000,0,0,0,0,0,0,0,0,0,0,250,2,0,1,0.13,0.13,0.13,0.13,0.13,0.13,0.13,0.13,0.13,0.13,-0.375,-0.375,-0.375,-0.375,-0.375,-0.375,-0.375,-0.375,-0.375,-0.375,-0.375,linear,0.025,FALSE,EQ,H1,9,fixmodel,0.8202
10,1000,0,0,0,0,0,0,0,0,0,0,250,2,0,1,0.13,0.13,0.13,0.13,0.13,0.13,0.13,0.13,0.13,0.13,-0.375,-0.375,-0.375,-0.375,-0.375,-0.375,-0.375,-0.375,-0.375,-0.375,-0.375,linear,0.025,FALSE,EQ,H1,9,fixmodel_cal,0.8227
10,1000,0,0,0,0,0,0,0,0,0,0,250,2,0,1,0.13,0.13,0.13,0.13,0.13,0.13,0.13,0.13,0.13,0.13,-0.375,-0.375,-0.375,-0.375,-0.375,-0.375,-0.375,-0.375,-0.375,-0.375,-0.375,linear,0.025,FALSE,EQ,H1,9,mixmodel,0.8202
10,1000,0,0,0,0,0,0,0,0,0,0,250,2,0,1,0.13,0.13,0.13,0.13,0.13,0.13,0.13,0.13,0.13,0.13,-0.375,-0.375,-0.375,-0.375,-0.375,-0.375,-0.375,-0.375,-0.375,-0.375,-0.375,linear,0.025,FALSE,EQ,H1,9,mixmodel_cal,0.8229
10,1000,0,0,0,0,0,0,0,0,0,0,250,2,0,1,0.13,0.13,0.13,0.13,0.13,0.13,0.13,0.13,0.13,0.13,-0.375,-0.375,-0.375,-0.375,-0.375,-0.375,-0.375,-0.375,-0.375,-0.375,-0.375,linear,0.025,FALSE,EQ,H1,9,sepmodel,0.8197
10,1000,0,0,0,0,0,0,0,0,0,0,250,2,0,1,0.13,0.13,0.13,0.13,0.13,0.13,0.13,0.13,0.13,0.13,-0.375,-0.375,-0.375,-0.375,-0.375,-0.375,-0.375,-0.375,-0.375,-0.375,-0.375,linear,0.025,FALSE,EQ,H1,10,fixmodel,0.8256
10,1000,0,0,0,0,0,0,0,0,0,0,250,2,0,1,0.13,0.13,0.13,0.13,0.13,0.13,0.13,0.13,0.13,0.13,-0.375,-0.375,-0.375,-0.375,-0.375,-0.375,-0.375,-0.375,-0.375,-0.375,-0.375,linear,0.025,FALSE,EQ,H1,10,fixmodel_cal,0.8283
10,1000,0,0,0,0,0,0,0,0,0,0,250,2,0,1,0.13,0.13,0.13,0.13,0.13,0.13,0.13,0.13,0.13,0.13,-0.375,-0.375,-0.375,-0.375,-0.375,-0.375,-0.375,-0.375,-0.375,-0.375,-0.375,linear,0.025,FALSE,EQ,H1,10,mixmodel,0.8256
10,1000,0,0,0,0,0,0,0,0,0,0,250,2,0,1,0.13,0.13,0.13,0.13,0.13,0.13,0.13,0.13,0.13,0.13,-0.375,-0.375,-0.375,-0.375,-0.375,-0.375,-0.375,-0.375,-0.375,-0.375,-0.375,linear,0.025,FALSE,EQ,H1,10,mixmodel_cal,0.8282
10,1000,0,0,0,0,0,0,0,0,0,0,250,2,0,1,0.13,0.13,0.13,0.13,0.13,0.13,0.13,0.13,0.13,0.13,-0.375,-0.375,-0.375,-0.375,-0.375,-0.375,-0.375,-0.375,-0.375,-0.375,-0.375,linear,0.025,FALSE,EQ,H1,10,sepmodel,0.8262
10,1000,0,500,1000,1500,2000,2500,3000,3500,4000,4500,250,2,0,1,0.13,0.13,0.13,0.13,0.13,0.13,0.13,0.13,0.13,0.13,-0.375,-0.375,-0.375,-0.375,-0.375,-0.375,-0.375,-0.375,-0.375,-0.375,-0.375,linear,0.025,FALSE,EQ,H1,2,fixmodel,0.8467
10,1000,0,500,1000,1500,2000,2500,3000,3500,4000,4500,250,2,0,1,0.13,0.13,0.13,0.13,0.13,0.13,0.13,0.13,0.13,0.13,-0.375,-0.375,-0.375,-0.375,-0.375,-0.375,-0.375,-0.375,-0.375,-0.375,-0.375,linear,0.025,FALSE,EQ,H1,2,fixmodel_cal,0.8496
10,1000,0,500,1000,1500,2000,2500,3000,3500,4000,4500,250,2,0,1,0.13,0.13,0.13,0.13,0.13,0.13,0.13,0.13,0.13,0.13,-0.375,-0.375,-0.375,-0.375,-0.375,-0.375,-0.375,-0.375,-0.375,-0.375,-0.375,linear,0.025,FALSE,EQ,H1,2,mixmodel,0.812
10,1000,0,500,1000,1500,2000,2500,3000,3500,4000,4500,250,2,0,1,0.13,0.13,0.13,0.13,0.13,0.13,0.13,0.13,0.13,0.13,-0.375,-0.375,-0.375,-0.375,-0.375,-0.375,-0.375,-0.375,-0.375,-0.375,-0.375,linear,0.025,FALSE,EQ,H1,2,mixmodel_cal,0.7909
10,1000,0,500,1000,1500,2000,2500,3000,3500,4000,4500,250,2,0,1,0.13,0.13,0.13,0.13,0.13,0.13,0.13,0.13,0.13,0.13,-0.375,-0.375,-0.375,-0.375,-0.375,-0.375,-0.375,-0.375,-0.375,-0.375,-0.375,linear,0.025,FALSE,EQ,H1,2,sepmodel,0.8289
10,1000,0,500,1000,1500,2000,2500,3000,3500,4000,4500,250,2,0,1,0.13,0.13,0.13,0.13,0.13,0.13,0.13,0.13,0.13,0.13,-0.375,-0.375,-0.375,-0.375,-0.375,-0.375,-0.375,-0.375,-0.375,-0.375,-0.375,linear,0.025,FALSE,EQ,H1,3,fixmodel,0.8567
10,1000,0,500,1000,1500,2000,2500,3000,3500,4000,4500,250,2,0,1,0.13,0.13,0.13,0.13,0.13,0.13,0.13,0.13,0.13,0.13,-0.375,-0.375,-0.375,-0.375,-0.375,-0.375,-0.375,-0.375,-0.375,-0.375,-0.375,linear,0.025,FALSE,EQ,H1,3,fixmodel_cal,0.8583
10,1000,0,500,1000,1500,2000,2500,3000,3500,4000,4500,250,2,0,1,0.13,0.13,0.13,0.13,0.13,0.13,0.13,0.13,0.13,0.13,-0.375,-0.375,-0.375,-0.375,-0.375,-0.375,-0.375,-0.375,-0.375,-0.375,-0.375,linear,0.025,FALSE,EQ,H1,3,mixmodel,0.8017
10,1000,0,500,1000,1500,2000,2500,3000,3500,4000,4500,250,2,0,1,0.13,0.13,0.13,0.13,0.13,0.13,0.13,0.13,0.13,0.13,-0.375,-0.375,-0.375,-0.375,-0.375,-0.375,-0.375,-0.375,-0.375,-0.375,-0.375,linear,0.025,FALSE,EQ,H1,3,mixmodel_cal,0.7339
10,1000,0,500,1000,1500,2000,2500,3000,3500,4000,4500,250,2,0,1,0.13,0.13,0.13,0.13,0.13,0.13,0.13,0.13,0.13,0.13,-0.375,-0.375,-0.375,-0.375,-0.375,-0.375,-0.375,-0.375,-0.375,-0.375,-0.375,linear,0.025,FALSE,EQ,H1,3,sepmodel,0.8294
10,1000,0,500,1000,1500,2000,2500,3000,3500,4000,4500,250,2,0,1,0.13,0.13,0.13,0.13,0.13,0.13,0.13,0.13,0.13,0.13,-0.375,-0.375,-0.375,-0.375,-0.375,-0.375,-0.375,-0.375,-0.375,-0.375,-0.375,linear,0.025,FALSE,EQ,H1,4,fixmodel,0.8723
10,1000,0,500,1000,1500,2000,2500,3000,3500,4000,4500,250,2,0,1,0.13,0.13,0.13,0.13,0.13,0.13,0.13,0.13,0.13,0.13,-0.375,-0.375,-0.375,-0.375,-0.375,-0.375,-0.375,-0.375,-0.375,-0.375,-0.375,linear,0.025,FALSE,EQ,H1,4,fixmodel_cal,0.873
10,1000,0,500,1000,1500,2000,2500,3000,3500,4000,4500,250,2,0,1,0.13,0.13,0.13,0.13,0.13,0.13,0.13,0.13,0.13,0.13,-0.375,-0.375,-0.375,-0.375,-0.375,-0.375,-0.375,-0.375,-0.375,-0.375,-0.375,linear,0.025,FALSE,EQ,H1,4,mixmodel,0.7981
10,1000,0,500,1000,1500,2000,2500,3000,3500,4000,4500,250,2,0,1,0.13,0.13,0.13,0.13,0.13,0.13,0.13,0.13,0.13,0.13,-0.375,-0.375,-0.375,-0.375,-0.375,-0.375,-0.375,-0.375,-0.375,-0.375,-0.375,linear,0.025,FALSE,EQ,H1,4,mixmodel_cal,0.6872
10,1000,0,500,1000,1500,2000,2500,3000,3500,4000,4500,250,2,0,1,0.13,0.13,0.13,0.13,0.13,0.13,0.13,0.13,0.13,0.13,-0.375,-0.375,-0.375,-0.375,-0.375,-0.375,-0.375,-0.375,-0.375,-0.375,-0.375,linear,0.025,FALSE,EQ,H1,4,sepmodel,0.8343
10,1000,0,500,1000,1500,2000,2500,3000,3500,4000,4500,250,2,0,1,0.13,0.13,0.13,0.13,0.13,0.13,0.13,0.13,0.13,0.13,-0.375,-0.375,-0.375,-0.375,-0.375,-0.375,-0.375,-0.375,-0.375,-0.375,-0.375,linear,0.025,FALSE,EQ,H1,5,fixmodel,0.8683
10,1000,0,500,1000,1500,2000,2500,3000,3500,4000,4500,250,2,0,1,0.13,0.13,0.13,0.13,0.13,0.13,0.13,0.13,0.13,0.13,-0.375,-0.375,-0.375,-0.375,-0.375,-0.375,-0.375,-0.375,-0.375,-0.375,-0.375,linear,0.025,FALSE,EQ,H1,5,fixmodel_cal,0.8722
10,1000,0,500,1000,1500,2000,2500,3000,3500,4000,4500,250,2,0,1,0.13,0.13,0.13,0.13,0.13,0.13,0.13,0.13,0.13,0.13,-0.375,-0.375,-0.375,-0.375,-0.375,-0.375,-0.375,-0.375,-0.375,-0.375,-0.375,linear,0.025,FALSE,EQ,H1,5,mixmodel,0.7813
10,1000,0,500,1000,1500,2000,2500,3000,3500,4000,4500,250,2,0,1,0.13,0.13,0.13,0.13,0.13,0.13,0.13,0.13,0.13,0.13,-0.375,-0.375,-0.375,-0.375,-0.375,-0.375,-0.375,-0.375,-0.375,-0.375,-0.375,linear,0.025,FALSE,EQ,H1,5,mixmodel_cal,0.6428
10,1000,0,500,1000,1500,2000,2500,3000,3500,4000,4500,250,2,0,1,0.13,0.13,0.13,0.13,0.13,0.13,0.13,0.13,0.13,0.13,-0.375,-0.375,-0.375,-0.375,-0.375,-0.375,-0.375,-0.375,-0.375,-0.375,-0.375,linear,0.025,FALSE,EQ,H1,5,sepmodel,0.8241
10,1000,0,500,1000,1500,2000,2500,3000,3500,4000,4500,250,2,0,1,0.13,0.13,0.13,0.13,0.13,0.13,0.13,0.13,0.13,0.13,-0.375,-0.375,-0.375,-0.375,-0.375,-0.375,-0.375,-0.375,-0.375,-0.375,-0.375,linear,0.025,FALSE,EQ,H1,6,fixmodel,0.8762
10,1000,0,500,1000,1500,2000,2500,3000,3500,4000,4500,250,2,0,1,0.13,0.13,0.13,0.13,0.13,0.13,0.13,0.13,0.13,0.13,-0.375,-0.375,-0.375,-0.375,-0.375,-0.375,-0.375,-0.375,-0.375,-0.375,-0.375,linear,0.025,FALSE,EQ,H1,6,fixmodel_cal,0.879
10,1000,0,500,1000,1500,2000,2500,3000,3500,4000,4500,250,2,0,1,0.13,0.13,0.13,0.13,0.13,0.13,0.13,0.13,0.13,0.13,-0.375,-0.375,-0.375,-0.375,-0.375,-0.375,-0.375,-0.375,-0.375,-0.375,-0.375,linear,0.025,FALSE,EQ,H1,6,mixmodel,0.7781
10,1000,0,500,1000,1500,2000,2500,3000,3500,4000,4500,250,2,0,1,0.13,0.13,0.13,0.13,0.13,0.13,0.13,0.13,0.13,0.13,-0.375,-0.375,-0.375,-0.375,-0.375,-0.375,-0.375,-0.375,-0.375,-0.375,-0.375,linear,0.025,FALSE,EQ,H1,6,mixmodel_cal,0.6109
10,1000,0,500,1000,1500,2000,2500,3000,3500,4000,4500,250,2,0,1,0.13,0.13,0.13,0.13,0.13,0.13,0.13,0.13,0.13,0.13,-0.375,-0.375,-0.375,-0.375,-0.375,-0.375,-0.375,-0.375,-0.375,-0.375,-0.375,linear,0.025,FALSE,EQ,H1,6,sepmodel,0.8249
10,1000,0,500,1000,1500,2000,2500,3000,3500,4000,4500,250,2,0,1,0.13,0.13,0.13,0.13,0.13,0.13,0.13,0.13,0.13,0.13,-0.375,-0.375,-0.375,-0.375,-0.375,-0.375,-0.375,-0.375,-0.375,-0.375,-0.375,linear,0.025,FALSE,EQ,H1,7,fixmodel,0.8799
10,1000,0,500,1000,1500,2000,2500,3000,3500,4000,4500,250,2,0,1,0.13,0.13,0.13,0.13,0.13,0.13,0.13,0.13,0.13,0.13,-0.375,-0.375,-0.375,-0.375,-0.375,-0.375,-0.375,-0.375,-0.375,-0.375,-0.375,linear,0.025,FALSE,EQ,H1,7,fixmodel_cal,0.8791
10,1000,0,500,1000,1500,2000,2500,3000,3500,4000,4500,250,2,0,1,0.13,0.13,0.13,0.13,0.13,0.13,0.13,0.13,0.13,0.13,-0.375,-0.375,-0.375,-0.375,-0.375,-0.375,-0.375,-0.375,-0.375,-0.375,-0.375,linear,0.025,FALSE,EQ,H1,7,mixmodel,0.7668
10,1000,0,500,1000,1500,2000,2500,3000,3500,4000,4500,250,2,0,1,0.13,0.13,0.13,0.13,0.13,0.13,0.13,0.13,0.13,0.13,-0.375,-0.375,-0.375,-0.375,-0.375,-0.375,-0.375,-0.375,-0.375,-0.375,-0.375,linear,0.025,FALSE,EQ,H1,7,mixmodel_cal,0.5695
10,1000,0,500,1000,1500,2000,2500,3000,3500,4000,4500,250,2,0,1,0.13,0.13,0.13,0.13,0.13,0.13,0.13,0.13,0.13,0.13,-0.375,-0.375,-0.375,-0.375,-0.375,-0.375,-0.375,-0.375,-0.375,-0.375,-0.375,linear,0.025,FALSE,EQ,H1,7,sepmodel,0.8288
10,1000,0,500,1000,1500,2000,2500,3000,3500,4000,4500,250,2,0,1,0.13,0.13,0.13,0.13,0.13,0.13,0.13,0.13,0.13,0.13,-0.375,-0.375,-0.375,-0.375,-0.375,-0.375,-0.375,-0.375,-0.375,-0.375,-0.375,linear,0.025,FALSE,EQ,H1,8,fixmodel,0.8862
10,1000,0,500,1000,1500,2000,2500,3000,3500,4000,4500,250,2,0,1,0.13,0.13,0.13,0.13,0.13,0.13,0.13,0.13,0.13,0.13,-0.375,-0.375,-0.375,-0.375,-0.375,-0.375,-0.375,-0.375,-0.375,-0.375,-0.375,linear,0.025,FALSE,EQ,H1,8,fixmodel_cal,0.8868
10,1000,0,500,1000,1500,2000,2500,3000,3500,4000,4500,250,2,0,1,0.13,0.13,0.13,0.13,0.13,0.13,0.13,0.13,0.13,0.13,-0.375,-0.375,-0.375,-0.375,-0.375,-0.375,-0.375,-0.375,-0.375,-0.375,-0.375,linear,0.025,FALSE,EQ,H1,8,mixmodel,0.7572
10,1000,0,500,1000,1500,2000,2500,3000,3500,4000,4500,250,2,0,1,0.13,0.13,0.13,0.13,0.13,0.13,0.13,0.13,0.13,0.13,-0.375,-0.375,-0.375,-0.375,-0.375,-0.375,-0.375,-0.375,-0.375,-0.375,-0.375,linear,0.025,FALSE,EQ,H1,8,mixmodel_cal,0.5459
10,1000,0,500,1000,1500,2000,2500,3000,3500,4000,4500,250,2,0,1,0.13,0.13,0.13,0.13,0.13,0.13,0.13,0.13,0.13,0.13,-0.375,-0.375,-0.375,-0.375,-0.375,-0.375,-0.375,-0.375,-0.375,-0.375,-0.375,linear,0.025,FALSE,EQ,H1,8,sepmodel,0.829
10,1000,0,500,1000,1500,2000,2500,3000,3500,4000,4500,250,2,0,1,0.13,0.13,0.13,0.13,0.13,0.13,0.13,0.13,0.13,0.13,-0.375,-0.375,-0.375,-0.375,-0.375,-0.375,-0.375,-0.375,-0.375,-0.375,-0.375,linear,0.025,FALSE,EQ,H1,9,fixmodel,0.8847
10,1000,0,500,1000,1500,2000,2500,3000,3500,4000,4500,250,2,0,1,0.13,0.13,0.13,0.13,0.13,0.13,0.13,0.13,0.13,0.13,-0.375,-0.375,-0.375,-0.375,-0.375,-0.375,-0.375,-0.375,-0.375,-0.375,-0.375,linear,0.025,FALSE,EQ,H1,9,fixmodel_cal,0.8882
10,1000,0,500,1000,1500,2000,2500,3000,3500,4000,4500,250,2,0,1,0.13,0.13,0.13,0.13,0.13,0.13,0.13,0.13,0.13,0.13,-0.375,-0.375,-0.375,-0.375,-0.375,-0.375,-0.375,-0.375,-0.375,-0.375,-0.375,linear,0.025,FALSE,EQ,H1,9,mixmodel,0.7511
10,1000,0,500,1000,1500,2000,2500,3000,3500,4000,4500,250,2,0,1,0.13,0.13,0.13,0.13,0.13,0.13,0.13,0.13,0.13,0.13,-0.375,-0.375,-0.375,-0.375,-0.375,-0.375,-0.375,-0.375,-0.375,-0.375,-0.375,linear,0.025,FALSE,EQ,H1,9,mixmodel_cal,0.5523
10,1000,0,500,1000,1500,2000,2500,3000,3500,4000,4500,250,2,0,1,0.13,0.13,0.13,0.13,0.13,0.13,0.13,0.13,0.13,0.13,-0.375,-0.375,-0.375,-0.375,-0.375,-0.375,-0.375,-0.375,-0.375,-0.375,-0.375,linear,0.025,FALSE,EQ,H1,9,sepmodel,0.8281
10,1000,0,500,1000,1500,2000,2500,3000,3500,4000,4500,250,2,0,1,0.13,0.13,0.13,0.13,0.13,0.13,0.13,0.13,0.13,0.13,-0.375,-0.375,-0.375,-0.375,-0.375,-0.375,-0.375,-0.375,-0.375,-0.375,-0.375,linear,0.025,FALSE,EQ,H1,10,fixmodel,0.8888
10,1000,0,500,1000,1500,2000,2500,3000,3500,4000,4500,250,2,0,1,0.13,0.13,0.13,0.13,0.13,0.13,0.13,0.13,0.13,0.13,-0.375,-0.375,-0.375,-0.375,-0.375,-0.375,-0.375,-0.375,-0.375,-0.375,-0.375,linear,0.025,FALSE,EQ,H1,10,fixmodel_cal,0.8884
10,1000,0,500,1000,1500,2000,2500,3000,3500,4000,4500,250,2,0,1,0.13,0.13,0.13,0.13,0.13,0.13,0.13,0.13,0.13,0.13,-0.375,-0.375,-0.375,-0.375,-0.375,-0.375,-0.375,-0.375,-0.375,-0.375,-0.375,linear,0.025,FALSE,EQ,H1,10,mixmodel,0.7349
10,1000,0,500,1000,1500,2000,2500,3000,3500,4000,4500,250,2,0,1,0.13,0.13,0.13,0.13,0.13,0.13,0.13,0.13,0.13,0.13,-0.375,-0.375,-0.375,-0.375,-0.375,-0.375,-0.375,-0.375,-0.375,-0.375,-0.375,linear,0.025,FALSE,EQ,H1,10,mixmodel_cal,0.5006
10,1000,0,500,1000,1500,2000,2500,3000,3500,4000,4500,250,2,0,1,0.13,0.13,0.13,0.13,0.13,0.13,0.13,0.13,0.13,0.13,-0.375,-0.375,-0.375,-0.375,-0.375,-0.375,-0.375,-0.375,-0.375,-0.375,-0.375,linear,0.025,FALSE,EQ,H1,10,sepmodel,0.8294
10,1000,0,1000,2000,3000,4000,5000,6000,7000,8000,9000,250,2,0,1,0.13,0.13,0.13,0.13,0.13,0.13,0.13,0.13,0.13,0.13,-0.375,-0.375,-0.375,-0.375,-0.375,-0.375,-0.375,-0.375,-0.375,-0.375,-0.375,linear,0.025,FALSE,EQ,H1,2,fixmodel,0.8532
10,1000,0,1000,2000,3000,4000,5000,6000,7000,8000,9000,250,2,0,1,0.13,0.13,0.13,0.13,0.13,0.13,0.13,0.13,0.13,0.13,-0.375,-0.375,-0.375,-0.375,-0.375,-0.375,-0.375,-0.375,-0.375,-0.375,-0.375,linear,0.025,FALSE,EQ,H1,2,fixmodel_cal,0.8563
10,1000,0,1000,2000,3000,4000,5000,6000,7000,8000,9000,250,2,0,1,0.13,0.13,0.13,0.13,0.13,0.13,0.13,0.13,0.13,0.13,-0.375,-0.375,-0.375,-0.375,-0.375,-0.375,-0.375,-0.375,-0.375,-0.375,-0.375,linear,0.025,FALSE,EQ,H1,2,mixmodel,0.8025
10,1000,0,1000,2000,3000,4000,5000,6000,7000,8000,9000,250,2,0,1,0.13,0.13,0.13,0.13,0.13,0.13,0.13,0.13,0.13,0.13,-0.375,-0.375,-0.375,-0.375,-0.375,-0.375,-0.375,-0.375,-0.375,-0.375,-0.375,linear,0.025,FALSE,EQ,H1,2,mixmodel_cal,0.7822
10,1000,0,1000,2000,3000,4000,5000,6000,7000,8000,9000,250,2,0,1,0.13,0.13,0.13,0.13,0.13,0.13,0.13,0.13,0.13,0.13,-0.375,-0.375,-0.375,-0.375,-0.375,-0.375,-0.375,-0.375,-0.375,-0.375,-0.375,linear,0.025,FALSE,EQ,H1,2,sepmodel,0.8306
10,1000,0,1000,2000,3000,4000,5000,6000,7000,8000,9000,250,2,0,1,0.13,0.13,0.13,0.13,0.13,0.13,0.13,0.13,0.13,0.13,-0.375,-0.375,-0.375,-0.375,-0.375,-0.375,-0.375,-0.375,-0.375,-0.375,-0.375,linear,0.025,FALSE,EQ,H1,3,fixmodel,0.8591
10,1000,0,1000,2000,3000,4000,5000,6000,7000,8000,9000,250,2,0,1,0.13,0.13,0.13,0.13,0.13,0.13,0.13,0.13,0.13,0.13,-0.375,-0.375,-0.375,-0.375,-0.375,-0.375,-0.375,-0.375,-0.375,-0.375,-0.375,linear,0.025,FALSE,EQ,H1,3,fixmodel_cal,0.8634
10,1000,0,1000,2000,3000,4000,5000,6000,7000,8000,9000,250,2,0,1,0.13,0.13,0.13,0.13,0.13,0.13,0.13,0.13,0.13,0.13,-0.375,-0.375,-0.375,-0.375,-0.375,-0.375,-0.375,-0.375,-0.375,-0.375,-0.375,linear,0.025,FALSE,EQ,H1,3,mixmodel,0.743
10,1000,0,1000,2000,3000,4000,5000,6000,7000,8000,9000,250,2,0,1,0.13,0.13,0.13,0.13,0.13,0.13,0.13,0.13,0.13,0.13,-0.375,-0.375,-0.375,-0.375,-0.375,-0.375,-0.375,-0.375,-0.375,-0.375,-0.375,linear,0.025,FALSE,EQ,H1,3,mixmodel_cal,0.6915
10,1000,0,1000,2000,3000,4000,5000,6000,7000,8000,9000,250,2,0,1,0.13,0.13,0.13,0.13,0.13,0.13,0.13,0.13,0.13,0.13,-0.375,-0.375,-0.375,-0.375,-0.375,-0.375,-0.375,-0.375,-0.375,-0.375,-0.375,linear,0.025,FALSE,EQ,H1,3,sepmodel,0.8324
10,1000,0,1000,2000,3000,4000,5000,6000,7000,8000,9000,250,2,0,1,0.13,0.13,0.13,0.13,0.13,0.13,0.13,0.13,0.13,0.13,-0.375,-0.375,-0.375,-0.375,-0.375,-0.375,-0.375,-0.375,-0.375,-0.375,-0.375,linear,0.025,FALSE,EQ,H1,4,fixmodel,0.8683
10,1000,0,1000,2000,3000,4000,5000,6000,7000,8000,9000,250,2,0,1,0.13,0.13,0.13,0.13,0.13,0.13,0.13,0.13,0.13,0.13,-0.375,-0.375,-0.375,-0.375,-0.375,-0.375,-0.375,-0.375,-0.375,-0.375,-0.375,linear,0.025,FALSE,EQ,H1,4,fixmodel_cal,0.8696
10,1000,0,1000,2000,3000,4000,5000,6000,7000,8000,9000,250,2,0,1,0.13,0.13,0.13,0.13,0.13,0.13,0.13,0.13,0.13,0.13,-0.375,-0.375,-0.375,-0.375,-0.375,-0.375,-0.375,-0.375,-0.375,-0.375,-0.375,linear,0.025,FALSE,EQ,H1,4,mixmodel,0.6738
10,1000,0,1000,2000,3000,4000,5000,6000,7000,8000,9000,250,2,0,1,0.13,0.13,0.13,0.13,0.13,0.13,0.13,0.13,0.13,0.13,-0.375,-0.375,-0.375,-0.375,-0.375,-0.375,-0.375,-0.375,-0.375,-0.375,-0.375,linear,0.025,FALSE,EQ,H1,4,mixmodel_cal,0.5411
10,1000,0,1000,2000,3000,4000,5000,6000,7000,8000,9000,250,2,0,1,0.13,0.13,0.13,0.13,0.13,0.13,0.13,0.13,0.13,0.13,-0.375,-0.375,-0.375,-0.375,-0.375,-0.375,-0.375,-0.375,-0.375,-0.375,-0.375,linear,0.025,FALSE,EQ,H1,4,sepmodel,0.8333
10,1000,0,1000,2000,3000,4000,5000,6000,7000,8000,9000,250,2,0,1,0.13,0.13,0.13,0.13,0.13,0.13,0.13,0.13,0.13,0.13,-0.375,-0.375,-0.375,-0.375,-0.375,-0.375,-0.375,-0.375,-0.375,-0.375,-0.375,linear,0.025,FALSE,EQ,H1,5,fixmodel,0.8661
10,1000,0,1000,2000,3000,4000,5000,6000,7000,8000,9000,250,2,0,1,0.13,0.13,0.13,0.13,0.13,0.13,0.13,0.13,0.13,0.13,-0.375,-0.375,-0.375,-0.375,-0.375,-0.375,-0.375,-0.375,-0.375,-0.375,-0.375,linear,0.025,FALSE,EQ,H1,5,fixmodel_cal,0.8691
10,1000,0,1000,2000,3000,4000,5000,6000,7000,8000,9000,250,2,0,1,0.13,0.13,0.13,0.13,0.13,0.13,0.13,0.13,0.13,0.13,-0.375,-0.375,-0.375,-0.375,-0.375,-0.375,-0.375,-0.375,-0.375,-0.375,-0.375,linear,0.025,FALSE,EQ,H1,5,mixmodel,0.6074
10,1000,0,1000,2000,3000,4000,5000,6000,7000,8000,9000,250,2,0,1,0.13,0.13,0.13,0.13,0.13,0.13,0.13,0.13,0.13,0.13,-0.375,-0.375,-0.375,-0.375,-0.375,-0.375,-0.375,-0.375,-0.375,-0.375,-0.375,linear,0.025,FALSE,EQ,H1,5,mixmodel_cal,0.3773
10,1000,0,1000,2000,3000,4000,5000,6000,7000,8000,9000,250,2,0,1,0.13,0.13,0.13,0.13,0.13,0.13,0.13,0.13,0.13,0.13,-0.375,-0.375,-0.375,-0.375,-0.375,-0.375,-0.375,-0.375,-0.375,-0.375,-0.375,linear,0.025,FALSE,EQ,H1,5,sepmodel,0.8253
10,1000,0,1000,2000,3000,4000,5000,6000,7000,8000,9000,250,2,0,1,0.13,0.13,0.13,0.13,0.13,0.13,0.13,0.13,0.13,0.13,-0.375,-0.375,-0.375,-0.375,-0.375,-0.375,-0.375,-0.375,-0.375,-0.375,-0.375,linear,0.025,FALSE,EQ,H1,6,fixmodel,0.8743
10,1000,0,1000,2000,3000,4000,5000,6000,7000,8000,9000,250,2,0,1,0.13,0.13,0.13,0.13,0.13,0.13,0.13,0.13,0.13,0.13,-0.375,-0.375,-0.375,-0.375,-0.375,-0.375,-0.375,-0.375,-0.375,-0.375,-0.375,linear,0.025,FALSE,EQ,H1,6,fixmodel_cal,0.8755
10,1000,0,1000,2000,3000,4000,5000,6000,7000,8000,9000,250,2,0,1,0.13,0.13,0.13,0.13,0.13,0.13,0.13,0.13,0.13,0.13,-0.375,-0.375,-0.375,-0.375,-0.375,-0.375,-0.375,-0.375,-0.375,-0.375,-0.375,linear,0.025,FALSE,EQ,H1,6,mixmodel,0.5908
10,1000,0,1000,2000,3000,4000,5000,6000,7000,8000,9000,250,2,0,1,0.13,0.13,0.13,0.13,0.13,0.13,0.13,0.13,0.13,0.13,-0.375,-0.375,-0.375,-0.375,-0.375,-0.375,-0.375,-0.375,-0.375,-0.375,-0.375,linear,0.025,FALSE,EQ,H1,6,mixmodel_cal,0.2513
10,1000,0,1000,2000,3000,4000,5000,6000,7000,8000,9000,250,2,0,1,0.13,0.13,0.13,0.13,0.13,0.13,0.13,0.13,0.13,0.13,-0.375,-0.375,-0.375,-0.375,-0.375,-0.375,-0.375,-0.375,-0.375,-0.375,-0.375,linear,0.025,FALSE,EQ,H1,6,sepmodel,0.8293
10,1000,0,1000,2000,3000,4000,5000,6000,7000,8000,9000,250,2,0,1,0.13,0.13,0.13,0.13,0.13,0.13,0.13,0.13,0.13,0.13,-0.375,-0.375,-0.375,-0.375,-0.375,-0.375,-0.375,-0.375,-0.375,-0.375,-0.375,linear,0.025,FALSE,EQ,H1,7,fixmodel,0.8762
10,1000,0,1000,2000,3000,4000,5000,6000,7000,8000,9000,250,2,0,1,0.13,0.13,0.13,0.13,0.13,0.13,0.13,0.13,0.13,0.13,-0.375,-0.375,-0.375,-0.375,-0.375,-0.375,-0.375,-0.375,-0.375,-0.375,-0.375,linear,0.025,FALSE,EQ,H1,7,fixmodel_cal,0.8773
10,1000,0,1000,2000,3000,4000,5000,6000,7000,8000,9000,250,2,0,1,0.13,0.13,0.13,0.13,0.13,0.13,0.13,0.13,0.13,0.13,-0.375,-0.375,-0.375,-0.375,-0.375,-0.375,-0.375,-0.375,-0.375,-0.375,-0.375,linear,0.025,FALSE,EQ,H1,7,mixmodel,0.5885
10,1000,0,1000,2000,3000,4000,5000,6000,7000,8000,9000,250,2,0,1,0.13,0.13,0.13,0.13,0.13,0.13,0.13,0.13,0.13,0.13,-0.375,-0.375,-0.375,-0.375,-0.375,-0.375,-0.375,-0.375,-0.375,-0.375,-0.375,linear,0.025,FALSE,EQ,H1,7,mixmodel_cal,0.1724
10,1000,0,1000,2000,3000,4000,5000,6000,7000,8000,9000,250,2,0,1,0.13,0.13,0.13,0.13,0.13,0.13,0.13,0.13,0.13,0.13,-0.375,-0.375,-0.375,-0.375,-0.375,-0.375,-0.375,-0.375,-0.375,-0.375,-0.375,linear,0.025,FALSE,EQ,H1,7,sepmodel,0.8279
10,1000,0,1000,2000,3000,4000,5000,6000,7000,8000,9000,250,2,0,1,0.13,0.13,0.13,0.13,0.13,0.13,0.13,0.13,0.13,0.13,-0.375,-0.375,-0.375,-0.375,-0.375,-0.375,-0.375,-0.375,-0.375,-0.375,-0.375,linear,0.025,FALSE,EQ,H1,8,fixmodel,0.8781
10,1000,0,1000,2000,3000,4000,5000,6000,7000,8000,9000,250,2,0,1,0.13,0.13,0.13,0.13,0.13,0.13,0.13,0.13,0.13,0.13,-0.375,-0.375,-0.375,-0.375,-0.375,-0.375,-0.375,-0.375,-0.375,-0.375,-0.375,linear,0.025,FALSE,EQ,H1,8,fixmodel_cal,0.8809
10,1000,0,1000,2000,3000,4000,5000,6000,7000,8000,9000,250,2,0,1,0.13,0.13,0.13,0.13,0.13,0.13,0.13,0.13,0.13,0.13,-0.375,-0.375,-0.375,-0.375,-0.375,-0.375,-0.375,-0.375,-0.375,-0.375,-0.375,linear,0.025,FALSE,EQ,H1,8,mixmodel,0.5829
10,1000,0,1000,2000,3000,4000,5000,6000,7000,8000,9000,250,2,0,1,0.13,0.13,0.13,0.13,0.13,0.13,0.13,0.13,0.13,0.13,-0.375,-0.375,-0.375,-0.375,-0.375,-0.375,-0.375,-0.375,-0.375,-0.375,-0.375,linear,0.025,FALSE,EQ,H1,8,mixmodel_cal,0.1309
10,1000,0,1000,2000,3000,4000,5000,6000,7000,8000,9000,250,2,0,1,0.13,0.13,0.13,0.13,0.13,0.13,0.13,0.13,0.13,0.13,-0.375,-0.375,-0.375,-0.375,-0.375,-0.375,-0.375,-0.375,-0.375,-0.375,-0.375,linear,0.025,FALSE,EQ,H1,8,sepmodel,0.8275
10,1000,0,1000,2000,3000,4000,5000,6000,7000,8000,9000,250,2,0,1,0.13,0.13,0.13,0.13,0.13,0.13,0.13,0.13,0.13,0.13,-0.375,-0.375,-0.375,-0.375,-0.375,-0.375,-0.375,-0.375,-0.375,-0.375,-0.375,linear,0.025,FALSE,EQ,H1,9,fixmodel,0.8791
10,1000,0,1000,2000,3000,4000,5000,6000,7000,8000,9000,250,2,0,1,0.13,0.13,0.13,0.13,0.13,0.13,0.13,0.13,0.13,0.13,-0.375,-0.375,-0.375,-0.375,-0.375,-0.375,-0.375,-0.375,-0.375,-0.375,-0.375,linear,0.025,FALSE,EQ,H1,9,fixmodel_cal,0.8823
10,1000,0,1000,2000,3000,4000,5000,6000,7000,8000,9000,250,2,0,1,0.13,0.13,0.13,0.13,0.13,0.13,0.13,0.13,0.13,0.13,-0.375,-0.375,-0.375,-0.375,-0.375,-0.375,-0.375,-0.375,-0.375,-0.375,-0.375,linear,0.025,FALSE,EQ,H1,9,mixmodel,0.5811
10,1000,0,1000,2000,3000,4000,5000,6000,7000,8000,9000,250,2,0,1,0.13,0.13,0.13,0.13,0.13,0.13,0.13,0.13,0.13,0.13,-0.375,-0.375,-0.375,-0.375,-0.375,-0.375,-0.375,-0.375,-0.375,-0.375,-0.375,linear,0.025,FALSE,EQ,H1,9,mixmodel_cal,0.1159
10,1000,0,1000,2000,3000,4000,5000,6000,7000,8000,9000,250,2,0,1,0.13,0.13,0.13,0.13,0.13,0.13,0.13,0.13,0.13,0.13,-0.375,-0.375,-0.375,-0.375,-0.375,-0.375,-0.375,-0.375,-0.375,-0.375,-0.375,linear,0.025,FALSE,EQ,H1,9,sepmodel,0.8316
10,1000,0,1000,2000,3000,4000,5000,6000,7000,8000,9000,250,2,0,1,0.13,0.13,0.13,0.13,0.13,0.13,0.13,0.13,0.13,0.13,-0.375,-0.375,-0.375,-0.375,-0.375,-0.375,-0.375,-0.375,-0.375,-0.375,-0.375,linear,0.025,FALSE,EQ,H1,10,fixmodel,0.8783
10,1000,0,1000,2000,3000,4000,5000,6000,7000,8000,9000,250,2,0,1,0.13,0.13,0.13,0.13,0.13,0.13,0.13,0.13,0.13,0.13,-0.375,-0.375,-0.375,-0.375,-0.375,-0.375,-0.375,-0.375,-0.375,-0.375,-0.375,linear,0.025,FALSE,EQ,H1,10,fixmodel_cal,0.8784
10,1000,0,1000,2000,3000,4000,5000,6000,7000,8000,9000,250,2,0,1,0.13,0.13,0.13,0.13,0.13,0.13,0.13,0.13,0.13,0.13,-0.375,-0.375,-0.375,-0.375,-0.375,-0.375,-0.375,-0.375,-0.375,-0.375,-0.375,linear,0.025,FALSE,EQ,H1,10,mixmodel,0.5837
10,1000,0,1000,2000,3000,4000,5000,6000,7000,8000,9000,250,2,0,1,0.13,0.13,0.13,0.13,0.13,0.13,0.13,0.13,0.13,0.13,-0.375,-0.375,-0.375,-0.375,-0.375,-0.375,-0.375,-0.375,-0.375,-0.375,-0.375,linear,0.025,FALSE,EQ,H1,10,mixmodel_cal,0.1094
10,1000,0,1000,2000,3000,4000,5000,6000,7000,8000,9000,250,2,0,1,0.13,0.13,0.13,0.13,0.13,0.13,0.13,0.13,0.13,0.13,-0.375,-0.375,-0.375,-0.375,-0.375,-0.375,-0.375,-0.375,-0.375,-0.375,-0.375,linear,0.025,FALSE,EQ,H1,10,sepmodel,0.8292
10,1000,0,1500,3000,4500,6000,7500,9000,10500,12000,13500,250,2,0,1,0.13,0.13,0.13,0.13,0.13,0.13,0.13,0.13,0.13,0.13,-0.375,-0.375,-0.375,-0.375,-0.375,-0.375,-0.375,-0.375,-0.375,-0.375,-0.375,linear,0.025,FALSE,EQ,H1,2,fixmodel,0.8455
10,1000,0,1500,3000,4500,6000,7500,9000,10500,12000,13500,250,2,0,1,0.13,0.13,0.13,0.13,0.13,0.13,0.13,0.13,0.13,0.13,-0.375,-0.375,-0.375,-0.375,-0.375,-0.375,-0.375,-0.375,-0.375,-0.375,-0.375,linear,0.025,FALSE,EQ,H1,2,fixmodel_cal,0.8529
10,1000,0,1500,3000,4500,6000,7500,9000,10500,12000,13500,250,2,0,1,0.13,0.13,0.13,0.13,0.13,0.13,0.13,0.13,0.13,0.13,-0.375,-0.375,-0.375,-0.375,-0.375,-0.375,-0.375,-0.375,-0.375,-0.375,-0.375,linear,0.025,FALSE,EQ,H1,2,mixmodel,0.8185
10,1000,0,1500,3000,4500,6000,7500,9000,10500,12000,13500,250,2,0,1,0.13,0.13,0.13,0.13,0.13,0.13,0.13,0.13,0.13,0.13,-0.375,-0.375,-0.375,-0.375,-0.375,-0.375,-0.375,-0.375,-0.375,-0.375,-0.375,linear,0.025,FALSE,EQ,H1,2,mixmodel_cal,0.8092
10,1000,0,1500,3000,4500,6000,7500,9000,10500,12000,13500,250,2,0,1,0.13,0.13,0.13,0.13,0.13,0.13,0.13,0.13,0.13,0.13,-0.375,-0.375,-0.375,-0.375,-0.375,-0.375,-0.375,-0.375,-0.375,-0.375,-0.375,linear,0.025,FALSE,EQ,H1,2,sepmodel,0.8229
10,1000,0,1500,3000,4500,6000,7500,9000,10500,12000,13500,250,2,0,1,0.13,0.13,0.13,0.13,0.13,0.13,0.13,0.13,0.13,0.13,-0.375,-0.375,-0.375,-0.375,-0.375,-0.375,-0.375,-0.375,-0.375,-0.375,-0.375,linear,0.025,FALSE,EQ,H1,3,fixmodel,0.8502
10,1000,0,1500,3000,4500,6000,7500,9000,10500,12000,13500,250,2,0,1,0.13,0.13,0.13,0.13,0.13,0.13,0.13,0.13,0.13,0.13,-0.375,-0.375,-0.375,-0.375,-0.375,-0.375,-0.375,-0.375,-0.375,-0.375,-0.375,linear,0.025,FALSE,EQ,H1,3,fixmodel_cal,0.8609
10,1000,0,1500,3000,4500,6000,7500,9000,10500,12000,13500,250,2,0,1,0.13,0.13,0.13,0.13,0.13,0.13,0.13,0.13,0.13,0.13,-0.375,-0.375,-0.375,-0.375,-0.375,-0.375,-0.375,-0.375,-0.375,-0.375,-0.375,linear,0.025,FALSE,EQ,H1,3,mixmodel,0.7566
10,1000,0,1500,3000,4500,6000,7500,9000,10500,12000,13500,250,2,0,1,0.13,0.13,0.13,0.13,0.13,0.13,0.13,0.13,0.13,0.13,-0.375,-0.375,-0.375,-0.375,-0.375,-0.375,-0.375,-0.375,-0.375,-0.375,-0.375,linear,0.025,FALSE,EQ,H1,3,mixmodel_cal,0.7154
10,1000,0,1500,3000,4500,6000,7500,9000,10500,12000,13500,250,2,0,1,0.13,0.13,0.13,0.13,0.13,0.13,0.13,0.13,0.13,0.13,-0.375,-0.375,-0.375,-0.375,-0.375,-0.375,-0.375,-0.375,-0.375,-0.375,-0.375,linear,0.025,FALSE,EQ,H1,3,sepmodel,0.8258
10,1000,0,1500,3000,4500,6000,7500,9000,10500,12000,13500,250,2,0,1,0.13,0.13,0.13,0.13,0.13,0.13,0.13,0.13,0.13,0.13,-0.375,-0.375,-0.375,-0.375,-0.375,-0.375,-0.375,-0.375,-0.375,-0.375,-0.375,linear,0.025,FALSE,EQ,H1,4,fixmodel,0.8545
10,1000,0,1500,3000,4500,6000,7500,9000,10500,12000,13500,250,2,0,1,0.13,0.13,0.13,0.13,0.13,0.13,0.13,0.13,0.13,0.13,-0.375,-0.375,-0.375,-0.375,-0.375,-0.375,-0.375,-0.375,-0.375,-0.375,-0.375,linear,0.025,FALSE,EQ,H1,4,fixmodel_cal,0.8605
10,1000,0,1500,3000,4500,6000,7500,9000,10500,12000,13500,250,2,0,1,0.13,0.13,0.13,0.13,0.13,0.13,0.13,0.13,0.13,0.13,-0.375,-0.375,-0.375,-0.375,-0.375,-0.375,-0.375,-0.375,-0.375,-0.375,-0.375,linear,0.025,FALSE,EQ,H1,4,mixmodel,0.6934
10,1000,0,1500,3000,4500,6000,7500,9000,10500,12000,13500,250,2,0,1,0.13,0.13,0.13,0.13,0.13,0.13,0.13,0.13,0.13,0.13,-0.375,-0.375,-0.375,-0.375,-0.375,-0.375,-0.375,-0.375,-0.375,-0.375,-0.375,linear,0.025,FALSE,EQ,H1,4,mixmodel_cal,0.5589
10,1000,0,1500,3000,4500,6000,7500,9000,10500,12000,13500,250,2,0,1,0.13,0.13,0.13,0.13,0.13,0.13,0.13,0.13,0.13,0.13,-0.375,-0.375,-0.375,-0.375,-0.375,-0.375,-0.375,-0.375,-0.375,-0.375,-0.375,linear,0.025,FALSE,EQ,H1,4,sepmodel,0.8295
10,1000,0,1500,3000,4500,6000,7500,9000,10500,12000,13500,250,2,0,1,0.13,0.13,0.13,0.13,0.13,0.13,0.13,0.13,0.13,0.13,-0.375,-0.375,-0.375,-0.375,-0.375,-0.375,-0.375,-0.375,-0.375,-0.375,-0.375,linear,0.025,FALSE,EQ,H1,5,fixmodel,0.8522
10,1000,0,1500,3000,4500,6000,7500,9000,10500,12000,13500,250,2,0,1,0.13,0.13,0.13,0.13,0.13,0.13,0.13,0.13,0.13,0.13,-0.375,-0.375,-0.375,-0.375,-0.375,-0.375,-0.375,-0.375,-0.375,-0.375,-0.375,linear,0.025,FALSE,EQ,H1,5,fixmodel_cal,0.8547
10,1000,0,1500,3000,4500,6000,7500,9000,10500,12000,13500,250,2,0,1,0.13,0.13,0.13,0.13,0.13,0.13,0.13,0.13,0.13,0.13,-0.375,-0.375,-0.375,-0.375,-0.375,-0.375,-0.375,-0.375,-0.375,-0.375,-0.375,linear,0.025,FALSE,EQ,H1,5,mixmodel,0.657
10,1000,0,1500,3000,4500,6000,7500,9000,10500,12000,13500,250,2,0,1,0.13,0.13,0.13,0.13,0.13,0.13,0.13,0.13,0.13,0.13,-0.375,-0.375,-0.375,-0.375,-0.375,-0.375,-0.375,-0.375,-0.375,-0.375,-0.375,linear,0.025,FALSE,EQ,H1,5,mixmodel_cal,0.3869
10,1000,0,1500,3000,4500,6000,7500,9000,10500,12000,13500,250,2,0,1,0.13,0.13,0.13,0.13,0.13,0.13,0.13,0.13,0.13,0.13,-0.375,-0.375,-0.375,-0.375,-0.375,-0.375,-0.375,-0.375,-0.375,-0.375,-0.375,linear,0.025,FALSE,EQ,H1,5,sepmodel,0.8267
10,1000,0,1500,3000,4500,6000,7500,9000,10500,12000,13500,250,2,0,1,0.13,0.13,0.13,0.13,0.13,0.13,0.13,0.13,0.13,0.13,-0.375,-0.375,-0.375,-0.375,-0.375,-0.375,-0.375,-0.375,-0.375,-0.375,-0.375,linear,0.025,FALSE,EQ,H1,6,fixmodel,0.8568
10,1000,0,1500,3000,4500,6000,7500,9000,10500,12000,13500,250,2,0,1,0.13,0.13,0.13,0.13,0.13,0.13,0.13,0.13,0.13,0.13,-0.375,-0.375,-0.375,-0.375,-0.375,-0.375,-0.375,-0.375,-0.375,-0.375,-0.375,linear,0.025,FALSE,EQ,H1,6,fixmodel_cal,0.8587
10,1000,0,1500,3000,4500,6000,7500,9000,10500,12000,13500,250,2,0,1,0.13,0.13,0.13,0.13,0.13,0.13,0.13,0.13,0.13,0.13,-0.375,-0.375,-0.375,-0.375,-0.375,-0.375,-0.375,-0.375,-0.375,-0.375,-0.375,linear,0.025,FALSE,EQ,H1,6,mixmodel,0.6482
10,1000,0,1500,3000,4500,6000,7500,9000,10500,12000,13500,250,2,0,1,0.13,0.13,0.13,0.13,0.13,0.13,0.13,0.13,0.13,0.13,-0.375,-0.375,-0.375,-0.375,-0.375,-0.375,-0.375,-0.375,-0.375,-0.375,-0.375,linear,0.025,FALSE,EQ,H1,6,mixmodel_cal,0.2524
10,1000,0,1500,3000,4500,6000,7500,9000,10500,12000,13500,250,2,0,1,0.13,0.13,0.13,0.13,0.13,0.13,0.13,0.13,0.13,0.13,-0.375,-0.375,-0.375,-0.375,-0.375,-0.375,-0.375,-0.375,-0.375,-0.375,-0.375,linear,0.025,FALSE,EQ,H1,6,sepmodel,0.8259
10,1000,0,1500,3000,4500,6000,7500,9000,10500,12000,13500,250,2,0,1,0.13,0.13,0.13,0.13,0.13,0.13,0.13,0.13,0.13,0.13,-0.375,-0.375,-0.375,-0.375,-0.375,-0.375,-0.375,-0.375,-0.375,-0.375,-0.375,linear,0.025,FALSE,EQ,H1,7,fixmodel,0.8575
10,1000,0,1500,3000,4500,6000,7500,9000,10500,12000,13500,250,2,0,1,0.13,0.13,0.13,0.13,0.13,0.13,0.13,0.13,0.13,0.13,-0.375,-0.375,-0.375,-0.375,-0.375,-0.375,-0.375,-0.375,-0.375,-0.375,-0.375,linear,0.025,FALSE,EQ,H1,7,fixmodel_cal,0.8583
10,1000,0,1500,3000,4500,6000,7500,9000,10500,12000,13500,250,2,0,1,0.13,0.13,0.13,0.13,0.13,0.13,0.13,0.13,0.13,0.13,-0.375,-0.375,-0.375,-0.375,-0.375,-0.375,-0.375,-0.375,-0.375,-0.375,-0.375,linear,0.025,FALSE,EQ,H1,7,mixmodel,0.649
10,1000,0,1500,3000,4500,6000,7500,9000,10500,12000,13500,250,2,0,1,0.13,0.13,0.13,0.13,0.13,0.13,0.13,0.13,0.13,0.13,-0.375,-0.375,-0.375,-0.375,-0.375,-0.375,-0.375,-0.375,-0.375,-0.375,-0.375,linear,0.025,FALSE,EQ,H1,7,mixmodel_cal,0.1566
10,1000,0,1500,3000,4500,6000,7500,9000,10500,12000,13500,250,2,0,1,0.13,0.13,0.13,0.13,0.13,0.13,0.13,0.13,0.13,0.13,-0.375,-0.375,-0.375,-0.375,-0.375,-0.375,-0.375,-0.375,-0.375,-0.375,-0.375,linear,0.025,FALSE,EQ,H1,7,sepmodel,0.8305
10,1000,0,1500,3000,4500,6000,7500,9000,10500,12000,13500,250,2,0,1,0.13,0.13,0.13,0.13,0.13,0.13,0.13,0.13,0.13,0.13,-0.375,-0.375,-0.375,-0.375,-0.375,-0.375,-0.375,-0.375,-0.375,-0.375,-0.375,linear,0.025,FALSE,EQ,H1,8,fixmodel,0.8588
10,1000,0,1500,3000,4500,6000,7500,9000,10500,12000,13500,250,2,0,1,0.13,0.13,0.13,0.13,0.13,0.13,0.13,0.13,0.13,0.13,-0.375,-0.375,-0.375,-0.375,-0.375,-0.375,-0.375,-0.375,-0.375,-0.375,-0.375,linear,0.025,FALSE,EQ,H1,8,fixmodel_cal,0.8605
10,1000,0,1500,3000,4500,6000,7500,9000,10500,12000,13500,250,2,0,1,0.13,0.13,0.13,0.13,0.13,0.13,0.13,0.13,0.13,0.13,-0.375,-0.375,-0.375,-0.375,-0.375,-0.375,-0.375,-0.375,-0.375,-0.375,-0.375,linear,0.025,FALSE,EQ,H1,8,mixmodel,0.6677
10,1000,0,1500,3000,4500,6000,7500,9000,10500,12000,13500,250,2,0,1,0.13,0.13,0.13,0.13,0.13,0.13,0.13,0.13,0.13,0.13,-0.375,-0.375,-0.375,-0.375,-0.375,-0.375,-0.375,-0.375,-0.375,-0.375,-0.375,linear,0.025,FALSE,EQ,H1,8,mixmodel_cal,0.1073
10,1000,0,1500,3000,4500,6000,7500,9000,10500,12000,13500,250,2,0,1,0.13,0.13,0.13,0.13,0.13,0.13,0.13,0.13,0.13,0.13,-0.375,-0.375,-0.375,-0.375,-0.375,-0.375,-0.375,-0.375,-0.375,-0.375,-0.375,linear,0.025,FALSE,EQ,H1,8,sepmodel,0.832
10,1000,0,1500,3000,4500,6000,7500,9000,10500,12000,13500,250,2,0,1,0.13,0.13,0.13,0.13,0.13,0.13,0.13,0.13,0.13,0.13,-0.375,-0.375,-0.375,-0.375,-0.375,-0.375,-0.375,-0.375,-0.375,-0.375,-0.375,linear,0.025,FALSE,EQ,H1,9,fixmodel,0.8573
10,1000,0,1500,3000,4500,6000,7500,9000,10500,12000,13500,250,2,0,1,0.13,0.13,0.13,0.13,0.13,0.13,0.13,0.13,0.13,0.13,-0.375,-0.375,-0.375,-0.375,-0.375,-0.375,-0.375,-0.375,-0.375,-0.375,-0.375,linear,0.025,FALSE,EQ,H1,9,fixmodel_cal,0.8568
10,1000,0,1500,3000,4500,6000,7500,9000,10500,12000,13500,250,2,0,1,0.13,0.13,0.13,0.13,0.13,0.13,0.13,0.13,0.13,0.13,-0.375,-0.375,-0.375,-0.375,-0.375,-0.375,-0.375,-0.375,-0.375,-0.375,-0.375,linear,0.025,FALSE,EQ,H1,9,mixmodel,0.6722
10,1000,0,1500,3000,4500,6000,7500,9000,10500,12000,13500,250,2,0,1,0.13,0.13,0.13,0.13,0.13,0.13,0.13,0.13,0.13,0.13,-0.375,-0.375,-0.375,-0.375,-0.375,-0.375,-0.375,-0.375,-0.375,-0.375,-0.375,linear,0.025,FALSE,EQ,H1,9,mixmodel_cal,0.0798
10,1000,0,1500,3000,4500,6000,7500,9000,10500,12000,13500,250,2,0,1,0.13,0.13,0.13,0.13,0.13,0.13,0.13,0.13,0.13,0.13,-0.375,-0.375,-0.375,-0.375,-0.375,-0.375,-0.375,-0.375,-0.375,-0.375,-0.375,linear,0.025,FALSE,EQ,H1,9,sepmodel,0.8321
10,1000,0,1500,3000,4500,6000,7500,9000,10500,12000,13500,250,2,0,1,0.13,0.13,0.13,0.13,0.13,0.13,0.13,0.13,0.13,0.13,-0.375,-0.375,-0.375,-0.375,-0.375,-0.375,-0.375,-0.375,-0.375,-0.375,-0.375,linear,0.025,FALSE,EQ,H1,10,fixmodel,0.8534
10,1000,0,1500,3000,4500,6000,7500,9000,10500,12000,13500,250,2,0,1,0.13,0.13,0.13,0.13,0.13,0.13,0.13,0.13,0.13,0.13,-0.375,-0.375,-0.375,-0.375,-0.375,-0.375,-0.375,-0.375,-0.375,-0.375,-0.375,linear,0.025,FALSE,EQ,H1,10,fixmodel_cal,0.8536
10,1000,0,1500,3000,4500,6000,7500,9000,10500,12000,13500,250,2,0,1,0.13,0.13,0.13,0.13,0.13,0.13,0.13,0.13,0.13,0.13,-0.375,-0.375,-0.375,-0.375,-0.375,-0.375,-0.375,-0.375,-0.375,-0.375,-0.375,linear,0.025,FALSE,EQ,H1,10,mixmodel,0.6809
10,1000,0,1500,3000,4500,6000,7500,9000,10500,12000,13500,250,2,0,1,0.13,0.13,0.13,0.13,0.13,0.13,0.13,0.13,0.13,0.13,-0.375,-0.375,-0.375,-0.375,-0.375,-0.375,-0.375,-0.375,-0.375,-0.375,-0.375,linear,0.025,FALSE,EQ,H1,10,mixmodel_cal,0.1004
10,1000,0,1500,3000,4500,6000,7500,9000,10500,12000,13500,250,2,0,1,0.13,0.13,0.13,0.13,0.13,0.13,0.13,0.13,0.13,0.13,-0.375,-0.375,-0.375,-0.375,-0.375,-0.375,-0.375,-0.375,-0.375,-0.375,-0.375,linear,0.025,FALSE,EQ,H1,10,sepmodel,0.8268
10,1000,0,2000,4000,6000,8000,10000,12000,14000,16000,18000,250,2,0,1,0.13,0.13,0.13,0.13,0.13,0.13,0.13,0.13,0.13,0.13,-0.375,-0.375,-0.375,-0.375,-0.375,-0.375,-0.375,-0.375,-0.375,-0.375,-0.375,linear,0.025,FALSE,EQ,H1,2,fixmodel,0.8262
10,1000,0,2000,4000,6000,8000,10000,12000,14000,16000,18000,250,2,0,1,0.13,0.13,0.13,0.13,0.13,0.13,0.13,0.13,0.13,0.13,-0.375,-0.375,-0.375,-0.375,-0.375,-0.375,-0.375,-0.375,-0.375,-0.375,-0.375,linear,0.025,FALSE,EQ,H1,2,fixmodel_cal,0.8262
10,1000,0,2000,4000,6000,8000,10000,12000,14000,16000,18000,250,2,0,1,0.13,0.13,0.13,0.13,0.13,0.13,0.13,0.13,0.13,0.13,-0.375,-0.375,-0.375,-0.375,-0.375,-0.375,-0.375,-0.375,-0.375,-0.375,-0.375,linear,0.025,FALSE,EQ,H1,2,mixmodel,0.8408
10,1000,0,2000,4000,6000,8000,10000,12000,14000,16000,18000,250,2,0,1,0.13,0.13,0.13,0.13,0.13,0.13,0.13,0.13,0.13,0.13,-0.375,-0.375,-0.375,-0.375,-0.375,-0.375,-0.375,-0.375,-0.375,-0.375,-0.375,linear,0.025,FALSE,EQ,H1,2,mixmodel_cal,0.8213
10,1000,0,2000,4000,6000,8000,10000,12000,14000,16000,18000,250,2,0,1,0.13,0.13,0.13,0.13,0.13,0.13,0.13,0.13,0.13,0.13,-0.375,-0.375,-0.375,-0.375,-0.375,-0.375,-0.375,-0.375,-0.375,-0.375,-0.375,linear,0.025,FALSE,EQ,H1,2,sepmodel,0.8267
10,1000,0,2000,4000,6000,8000,10000,12000,14000,16000,18000,250,2,0,1,0.13,0.13,0.13,0.13,0.13,0.13,0.13,0.13,0.13,0.13,-0.375,-0.375,-0.375,-0.375,-0.375,-0.375,-0.375,-0.375,-0.375,-0.375,-0.375,linear,0.025,FALSE,EQ,H1,3,fixmodel,0.8269
10,1000,0,2000,4000,6000,8000,10000,12000,14000,16000,18000,250,2,0,1,0.13,0.13,0.13,0.13,0.13,0.13,0.13,0.13,0.13,0.13,-0.375,-0.375,-0.375,-0.375,-0.375,-0.375,-0.375,-0.375,-0.375,-0.375,-0.375,linear,0.025,FALSE,EQ,H1,3,fixmodel_cal,0.8262
10,1000,0,2000,4000,6000,8000,10000,12000,14000,16000,18000,250,2,0,1,0.13,0.13,0.13,0.13,0.13,0.13,0.13,0.13,0.13,0.13,-0.375,-0.375,-0.375,-0.375,-0.375,-0.375,-0.375,-0.375,-0.375,-0.375,-0.375,linear,0.025,FALSE,EQ,H1,3,mixmodel,0.7898
10,1000,0,2000,4000,6000,8000,10000,12000,14000,16000,18000,250,2,0,1,0.13,0.13,0.13,0.13,0.13,0.13,0.13,0.13,0.13,0.13,-0.375,-0.375,-0.375,-0.375,-0.375,-0.375,-0.375,-0.375,-0.375,-0.375,-0.375,linear,0.025,FALSE,EQ,H1,3,mixmodel_cal,0.7308
10,1000,0,2000,4000,6000,8000,10000,12000,14000,16000,18000,250,2,0,1,0.13,0.13,0.13,0.13,0.13,0.13,0.13,0.13,0.13,0.13,-0.375,-0.375,-0.375,-0.375,-0.375,-0.375,-0.375,-0.375,-0.375,-0.375,-0.375,linear,0.025,FALSE,EQ,H1,3,sepmodel,0.8252
10,1000,0,2000,4000,6000,8000,10000,12000,14000,16000,18000,250,2,0,1,0.13,0.13,0.13,0.13,0.13,0.13,0.13,0.13,0.13,0.13,-0.375,-0.375,-0.375,-0.375,-0.375,-0.375,-0.375,-0.375,-0.375,-0.375,-0.375,linear,0.025,FALSE,EQ,H1,4,fixmodel,0.8238
10,1000,0,2000,4000,6000,8000,10000,12000,14000,16000,18000,250,2,0,1,0.13,0.13,0.13,0.13,0.13,0.13,0.13,0.13,0.13,0.13,-0.375,-0.375,-0.375,-0.375,-0.375,-0.375,-0.375,-0.375,-0.375,-0.375,-0.375,linear,0.025,FALSE,EQ,H1,4,fixmodel_cal,0.8241
10,1000,0,2000,4000,6000,8000,10000,12000,14000,16000,18000,250,2,0,1,0.13,0.13,0.13,0.13,0.13,0.13,0.13,0.13,0.13,0.13,-0.375,-0.375,-0.375,-0.375,-0.375,-0.375,-0.375,-0.375,-0.375,-0.375,-0.375,linear,0.025,FALSE,EQ,H1,4,mixmodel,0.7461
10,1000,0,2000,4000,6000,8000,10000,12000,14000,16000,18000,250,2,0,1,0.13,0.13,0.13,0.13,0.13,0.13,0.13,0.13,0.13,0.13,-0.375,-0.375,-0.375,-0.375,-0.375,-0.375,-0.375,-0.375,-0.375,-0.375,-0.375,linear,0.025,FALSE,EQ,H1,4,mixmodel_cal,0.5824
10,1000,0,2000,4000,6000,8000,10000,12000,14000,16000,18000,250,2,0,1,0.13,0.13,0.13,0.13,0.13,0.13,0.13,0.13,0.13,0.13,-0.375,-0.375,-0.375,-0.375,-0.375,-0.375,-0.375,-0.375,-0.375,-0.375,-0.375,linear,0.025,FALSE,EQ,H1,4,sepmodel,0.8219
10,1000,0,2000,4000,6000,8000,10000,12000,14000,16000,18000,250,2,0,1,0.13,0.13,0.13,0.13,0.13,0.13,0.13,0.13,0.13,0.13,-0.375,-0.375,-0.375,-0.375,-0.375,-0.375,-0.375,-0.375,-0.375,-0.375,-0.375,linear,0.025,FALSE,EQ,H1,5,fixmodel,0.8296
10,1000,0,2000,4000,6000,8000,10000,12000,14000,16000,18000,250,2,0,1,0.13,0.13,0.13,0.13,0.13,0.13,0.13,0.13,0.13,0.13,-0.375,-0.375,-0.375,-0.375,-0.375,-0.375,-0.375,-0.375,-0.375,-0.375,-0.375,linear,0.025,FALSE,EQ,H1,5,fixmodel_cal,0.8291
10,1000,0,2000,4000,6000,8000,10000,12000,14000,16000,18000,250,2,0,1,0.13,0.13,0.13,0.13,0.13,0.13,0.13,0.13,0.13,0.13,-0.375,-0.375,-0.375,-0.375,-0.375,-0.375,-0.375,-0.375,-0.375,-0.375,-0.375,linear,0.025,FALSE,EQ,H1,5,mixmodel,0.7421
10,1000,0,2000,4000,6000,8000,10000,12000,14000,16000,18000,250,2,0,1,0.13,0.13,0.13,0.13,0.13,0.13,0.13,0.13,0.13,0.13,-0.375,-0.375,-0.375,-0.375,-0.375,-0.375,-0.375,-0.375,-0.375,-0.375,-0.375,linear,0.025,FALSE,EQ,H1,5,mixmodel_cal,0.4376
10,1000,0,2000,4000,6000,8000,10000,12000,14000,16000,18000,250,2,0,1,0.13,0.13,0.13,0.13,0.13,0.13,0.13,0.13,0.13,0.13,-0.375,-0.375,-0.375,-0.375,-0.375,-0.375,-0.375,-0.375,-0.375,-0.375,-0.375,linear,0.025,FALSE,EQ,H1,5,sepmodel,0.8281
10,1000,0,2000,4000,6000,8000,10000,12000,14000,16000,18000,250,2,0,1,0.13,0.13,0.13,0.13,0.13,0.13,0.13,0.13,0.13,0.13,-0.375,-0.375,-0.375,-0.375,-0.375,-0.375,-0.375,-0.375,-0.375,-0.375,-0.375,linear,0.025,FALSE,EQ,H1,6,fixmodel,0.828
10,1000,0,2000,4000,6000,8000,10000,12000,14000,16000,18000,250,2,0,1,0.13,0.13,0.13,0.13,0.13,0.13,0.13,0.13,0.13,0.13,-0.375,-0.375,-0.375,-0.375,-0.375,-0.375,-0.375,-0.375,-0.375,-0.375,-0.375,linear,0.025,FALSE,EQ,H1,6,fixmodel_cal,0.8281
10,1000,0,2000,4000,6000,8000,10000,12000,14000,16000,18000,250,2,0,1,0.13,0.13,0.13,0.13,0.13,0.13,0.13,0.13,0.13,0.13,-0.375,-0.375,-0.375,-0.375,-0.375,-0.375,-0.375,-0.375,-0.375,-0.375,-0.375,linear,0.025,FALSE,EQ,H1,6,mixmodel,0.7452
10,1000,0,2000,4000,6000,8000,10000,12000,14000,16000,18000,250,2,0,1,0.13,0.13,0.13,0.13,0.13,0.13,0.13,0.13,0.13,0.13,-0.375,-0.375,-0.375,-0.375,-0.375,-0.375,-0.375,-0.375,-0.375,-0.375,-0.375,linear,0.025,FALSE,EQ,H1,6,mixmodel_cal,0.3019
10,1000,0,2000,4000,6000,8000,10000,12000,14000,16000,18000,250,2,0,1,0.13,0.13,0.13,0.13,0.13,0.13,0.13,0.13,0.13,0.13,-0.375,-0.375,-0.375,-0.375,-0.375,-0.375,-0.375,-0.375,-0.375,-0.375,-0.375,linear,0.025,FALSE,EQ,H1,6,sepmodel,0.8286
10,1000,0,2000,4000,6000,8000,10000,12000,14000,16000,18000,250,2,0,1,0.13,0.13,0.13,0.13,0.13,0.13,0.13,0.13,0.13,0.13,-0.375,-0.375,-0.375,-0.375,-0.375,-0.375,-0.375,-0.375,-0.375,-0.375,-0.375,linear,0.025,FALSE,EQ,H1,7,fixmodel,0.8338
10,1000,0,2000,4000,6000,8000,10000,12000,14000,16000,18000,250,2,0,1,0.13,0.13,0.13,0.13,0.13,0.13,0.13,0.13,0.13,0.13,-0.375,-0.375,-0.375,-0.375,-0.375,-0.375,-0.375,-0.375,-0.375,-0.375,-0.375,linear,0.025,FALSE,EQ,H1,7,fixmodel_cal,0.8337
10,1000,0,2000,4000,6000,8000,10000,12000,14000,16000,18000,250,2,0,1,0.13,0.13,0.13,0.13,0.13,0.13,0.13,0.13,0.13,0.13,-0.375,-0.375,-0.375,-0.375,-0.375,-0.375,-0.375,-0.375,-0.375,-0.375,-0.375,linear,0.025,FALSE,EQ,H1,7,mixmodel,0.7628
10,1000,0,2000,4000,6000,8000,10000,12000,14000,16000,18000,250,2,0,1,0.13,0.13,0.13,0.13,0.13,0.13,0.13,0.13,0.13,0.13,-0.375,-0.375,-0.375,-0.375,-0.375,-0.375,-0.375,-0.375,-0.375,-0.375,-0.375,linear,0.025,FALSE,EQ,H1,7,mixmodel_cal,0.2287
10,1000,0,2000,4000,6000,8000,10000,12000,14000,16000,18000,250,2,0,1,0.13,0.13,0.13,0.13,0.13,0.13,0.13,0.13,0.13,0.13,-0.375,-0.375,-0.375,-0.375,-0.375,-0.375,-0.375,-0.375,-0.375,-0.375,-0.375,linear,0.025,FALSE,EQ,H1,7,sepmodel,0.8333
10,1000,0,2000,4000,6000,8000,10000,12000,14000,16000,18000,250,2,0,1,0.13,0.13,0.13,0.13,0.13,0.13,0.13,0.13,0.13,0.13,-0.375,-0.375,-0.375,-0.375,-0.375,-0.375,-0.375,-0.375,-0.375,-0.375,-0.375,linear,0.025,FALSE,EQ,H1,8,fixmodel,0.8244
10,1000,0,2000,4000,6000,8000,10000,12000,14000,16000,18000,250,2,0,1,0.13,0.13,0.13,0.13,0.13,0.13,0.13,0.13,0.13,0.13,-0.375,-0.375,-0.375,-0.375,-0.375,-0.375,-0.375,-0.375,-0.375,-0.375,-0.375,linear,0.025,FALSE,EQ,H1,8,fixmodel_cal,0.8239
10,1000,0,2000,4000,6000,8000,10000,12000,14000,16000,18000,250,2,0,1,0.13,0.13,0.13,0.13,0.13,0.13,0.13,0.13,0.13,0.13,-0.375,-0.375,-0.375,-0.375,-0.375,-0.375,-0.375,-0.375,-0.375,-0.375,-0.375,linear,0.025,FALSE,EQ,H1,8,mixmodel,0.7488
10,1000,0,2000,4000,6000,8000,10000,12000,14000,16000,18000,250,2,0,1,0.13,0.13,0.13,0.13,0.13,0.13,0.13,0.13,0.13,0.13,-0.375,-0.375,-0.375,-0.375,-0.375,-0.375,-0.375,-0.375,-0.375,-0.375,-0.375,linear,0.025,FALSE,EQ,H1,8,mixmodel_cal,0.1785
10,1000,0,2000,4000,6000,8000,10000,12000,14000,16000,18000,250,2,0,1,0.13,0.13,0.13,0.13,0.13,0.13,0.13,0.13,0.13,0.13,-0.375,-0.375,-0.375,-0.375,-0.375,-0.375,-0.375,-0.375,-0.375,-0.375,-0.375,linear,0.025,FALSE,EQ,H1,8,sepmodel,0.823
10,1000,0,2000,4000,6000,8000,10000,12000,14000,16000,18000,250,2,0,1,0.13,0.13,0.13,0.13,0.13,0.13,0.13,0.13,0.13,0.13,-0.375,-0.375,-0.375,-0.375,-0.375,-0.375,-0.375,-0.375,-0.375,-0.375,-0.375,linear,0.025,FALSE,EQ,H1,9,fixmodel,0.8296
10,1000,0,2000,4000,6000,8000,10000,12000,14000,16000,18000,250,2,0,1,0.13,0.13,0.13,0.13,0.13,0.13,0.13,0.13,0.13,0.13,-0.375,-0.375,-0.375,-0.375,-0.375,-0.375,-0.375,-0.375,-0.375,-0.375,-0.375,linear,0.025,FALSE,EQ,H1,9,fixmodel_cal,0.8291
10,1000,0,2000,4000,6000,8000,10000,12000,14000,16000,18000,250,2,0,1,0.13,0.13,0.13,0.13,0.13,0.13,0.13,0.13,0.13,0.13,-0.375,-0.375,-0.375,-0.375,-0.375,-0.375,-0.375,-0.375,-0.375,-0.375,-0.375,linear,0.025,FALSE,EQ,H1,9,mixmodel,0.7611
10,1000,0,2000,4000,6000,8000,10000,12000,14000,16000,18000,250,2,0,1,0.13,0.13,0.13,0.13,0.13,0.13,0.13,0.13,0.13,0.13,-0.375,-0.375,-0.375,-0.375,-0.375,-0.375,-0.375,-0.375,-0.375,-0.375,-0.375,linear,0.025,FALSE,EQ,H1,9,mixmodel_cal,0.1685
10,1000,0,2000,4000,6000,8000,10000,12000,14000,16000,18000,250,2,0,1,0.13,0.13,0.13,0.13,0.13,0.13,0.13,0.13,0.13,0.13,-0.375,-0.375,-0.375,-0.375,-0.375,-0.375,-0.375,-0.375,-0.375,-0.375,-0.375,linear,0.025,FALSE,EQ,H1,9,sepmodel,0.8282
10,1000,0,2000,4000,6000,8000,10000,12000,14000,16000,18000,250,2,0,1,0.13,0.13,0.13,0.13,0.13,0.13,0.13,0.13,0.13,0.13,-0.375,-0.375,-0.375,-0.375,-0.375,-0.375,-0.375,-0.375,-0.375,-0.375,-0.375,linear,0.025,FALSE,EQ,H1,10,fixmodel,0.8281
10,1000,0,2000,4000,6000,8000,10000,12000,14000,16000,18000,250,2,0,1,0.13,0.13,0.13,0.13,0.13,0.13,0.13,0.13,0.13,0.13,-0.375,-0.375,-0.375,-0.375,-0.375,-0.375,-0.375,-0.375,-0.375,-0.375,-0.375,linear,0.025,FALSE,EQ,H1,10,fixmodel_cal,0.8282
10,1000,0,2000,4000,6000,8000,10000,12000,14000,16000,18000,250,2,0,1,0.13,0.13,0.13,0.13,0.13,0.13,0.13,0.13,0.13,0.13,-0.375,-0.375,-0.375,-0.375,-0.375,-0.375,-0.375,-0.375,-0.375,-0.375,-0.375,linear,0.025,FALSE,EQ,H1,10,mixmodel,0.7629
10,1000,0,2000,4000,6000,8000,10000,12000,14000,16000,18000,250,2,0,1,0.13,0.13,0.13,0.13,0.13,0.13,0.13,0.13,0.13,0.13,-0.375,-0.375,-0.375,-0.375,-0.375,-0.375,-0.375,-0.375,-0.375,-0.375,-0.375,linear,0.025,FALSE,EQ,H1,10,mixmodel_cal,0.1656
