pavlakrotka/MASTERARBEIT/simulations_03_2023/results/results_iv_eq_alpha.csv
num_arms,n_arm,d1,d2,d3,d4,d5,d6,d7,period_blocks,mu0,sigma,theta1,theta2,theta3,theta4,theta5,theta6,theta7,lambda0,lambda1,lambda2,lambda3,lambda4,lambda5,lambda6,lambda7,trend,alpha,ncc,unit_size,ci,bs_degree,poly_degree,n_wave,N_peak,timetrend,hypothesis,study_arm,model,reject_h0,bias,MSE,failed,nsim
7,250,0,250,250,500,500,750,750,2,0,1,0,0,0,0,0,0,0,-0.5,-0.5,-0.5,-0.5,-0.5,-0.5,-0.5,-0.5,linear,0.025,TRUE,25,FALSE,1,1,NA,914,EQ,H0,2,fixmodel,0.022,0.0038821082024734846,0.007343757167729305,0,1000
7,250,0,250,250,500,500,750,750,2,0,1,0,0,0,0,0,0,0,-0.5,-0.5,-0.5,-0.5,-0.5,-0.5,-0.5,-0.5,linear,0.025,TRUE,25,FALSE,1,1,NA,914,EQ,H0,2,fixmodel_cal,0.021,0.003805334875495796,0.007386298400708543,0,1000
7,250,0,250,250,500,500,750,750,2,0,1,0,0,0,0,0,0,0,-0.5,-0.5,-0.5,-0.5,-0.5,-0.5,-0.5,-0.5,linear,0.025,TRUE,25,FALSE,1,1,NA,914,EQ,H0,2,poolmodel,0.003,-0.05771515984954749,0.010133307463819515,0,1000
7,250,0,250,250,500,500,750,750,2,0,1,0,0,0,0,0,0,0,-0.5,-0.5,-0.5,-0.5,-0.5,-0.5,-0.5,-0.5,linear,0.025,TRUE,25,FALSE,1,1,NA,914,EQ,H0,2,sepmodel,0.023,0.004856432695387715,0.007965426113191917,0,1000
7,250,0,250,250,500,500,750,750,2,0,1,0,0,0,0,0,0,0,-0.5,-0.5,-0.5,-0.5,-0.5,-0.5,-0.5,-0.5,linear,0.025,TRUE,25,FALSE,1,1,NA,914,EQ,H0,2,splines,0.021,0.0036220112262073485,0.007293357576855556,0,1000
7,250,0,250,250,500,500,750,750,2,0,1,0,0,0,0,0,0,0,-0.5,-0.5,-0.5,-0.5,-0.5,-0.5,-0.5,-0.5,linear,0.025,TRUE,25,FALSE,1,1,NA,914,EQ,H0,2,splines_cal,0.022,0.004022164981776686,0.0073948482278169535,0,1000
7,250,0,250,250,500,500,750,750,2,0,1,0,0,0,0,0,0,0,-0.5,-0.5,-0.5,-0.5,-0.5,-0.5,-0.5,-0.5,linear,0.025,TRUE,25,FALSE,1,1,NA,914,EQ,H0,3,fixmodel,0.019,0.0016392862386924337,0.00713300091731668,0,1000
7,250,0,250,250,500,500,750,750,2,0,1,0,0,0,0,0,0,0,-0.5,-0.5,-0.5,-0.5,-0.5,-0.5,-0.5,-0.5,linear,0.025,TRUE,25,FALSE,1,1,NA,914,EQ,H0,3,fixmodel_cal,0.022,0.001642151622534823,0.0072745221418933645,0,1000
7,250,0,250,250,500,500,750,750,2,0,1,0,0,0,0,0,0,0,-0.5,-0.5,-0.5,-0.5,-0.5,-0.5,-0.5,-0.5,linear,0.025,TRUE,25,FALSE,1,1,NA,914,EQ,H0,3,poolmodel,0,-0.059957981813329085,0.010238041113390535,0,1000
7,250,0,250,250,500,500,750,750,2,0,1,0,0,0,0,0,0,0,-0.5,-0.5,-0.5,-0.5,-0.5,-0.5,-0.5,-0.5,linear,0.025,TRUE,25,FALSE,1,1,NA,914,EQ,H0,3,sepmodel,0.019,0.00261361073160614,0.007716947993317349,0,1000
7,250,0,250,250,500,500,750,750,2,0,1,0,0,0,0,0,0,0,-0.5,-0.5,-0.5,-0.5,-0.5,-0.5,-0.5,-0.5,linear,0.025,TRUE,25,FALSE,1,1,NA,914,EQ,H0,3,splines,0.02,0.0013755995335047661,0.007059843910317248,0,1000
7,250,0,250,250,500,500,750,750,2,0,1,0,0,0,0,0,0,0,-0.5,-0.5,-0.5,-0.5,-0.5,-0.5,-0.5,-0.5,linear,0.025,TRUE,25,FALSE,1,1,NA,914,EQ,H0,3,splines_cal,0.021,0.0015157368446328974,0.007165379654494386,0,1000
7,250,0,250,250,500,500,750,750,2,0,1,0,0,0,0,0,0,0,-0.5,-0.5,-0.5,-0.5,-0.5,-0.5,-0.5,-0.5,linear,0.025,TRUE,25,FALSE,1,1,NA,914,EQ,H0,4,fixmodel,0.027,-8.956007885966305e-4,0.0068341192406629805,0,1000
7,250,0,250,250,500,500,750,750,2,0,1,0,0,0,0,0,0,0,-0.5,-0.5,-0.5,-0.5,-0.5,-0.5,-0.5,-0.5,linear,0.025,TRUE,25,FALSE,1,1,NA,914,EQ,H0,4,fixmodel_cal,0.026,-0.0013269398408146961,0.006872149340448081,0,1000
7,250,0,250,250,500,500,750,750,2,0,1,0,0,0,0,0,0,0,-0.5,-0.5,-0.5,-0.5,-0.5,-0.5,-0.5,-0.5,linear,0.025,TRUE,25,FALSE,1,1,NA,914,EQ,H0,4,poolmodel,0,-0.10956598237321206,0.018113570747441635,0,1000
7,250,0,250,250,500,500,750,750,2,0,1,0,0,0,0,0,0,0,-0.5,-0.5,-0.5,-0.5,-0.5,-0.5,-0.5,-0.5,linear,0.025,TRUE,25,FALSE,1,1,NA,914,EQ,H0,4,sepmodel,0.022,-0.0012243702489069953,0.007648027950597997,0,1000
7,250,0,250,250,500,500,750,750,2,0,1,0,0,0,0,0,0,0,-0.5,-0.5,-0.5,-0.5,-0.5,-0.5,-0.5,-0.5,linear,0.025,TRUE,25,FALSE,1,1,NA,914,EQ,H0,4,splines,0.026,-8.665936127892935e-4,0.006850995611422114,0,1000
7,250,0,250,250,500,500,750,750,2,0,1,0,0,0,0,0,0,0,-0.5,-0.5,-0.5,-0.5,-0.5,-0.5,-0.5,-0.5,linear,0.025,TRUE,25,FALSE,1,1,NA,914,EQ,H0,4,splines_cal,0.026,-0.0012369267862131265,0.0068995948581974656,0,1000
7,250,0,250,250,500,500,750,750,2,0,1,0,0,0,0,0,0,0,-0.5,-0.5,-0.5,-0.5,-0.5,-0.5,-0.5,-0.5,linear,0.025,TRUE,25,FALSE,1,1,NA,914,EQ,H0,5,fixmodel,0.025,-9.906415790053769e-4,0.006753398648303655,0,1000
7,250,0,250,250,500,500,750,750,2,0,1,0,0,0,0,0,0,0,-0.5,-0.5,-0.5,-0.5,-0.5,-0.5,-0.5,-0.5,linear,0.025,TRUE,25,FALSE,1,1,NA,914,EQ,H0,5,fixmodel_cal,0.024,-0.0010104319197661064,0.006723732242502566,0,1000
7,250,0,250,250,500,500,750,750,2,0,1,0,0,0,0,0,0,0,-0.5,-0.5,-0.5,-0.5,-0.5,-0.5,-0.5,-0.5,linear,0.025,TRUE,25,FALSE,1,1,NA,914,EQ,H0,5,poolmodel,0.001,-0.10966102316362081,0.018011829971247038,0,1000
7,250,0,250,250,500,500,750,750,2,0,1,0,0,0,0,0,0,0,-0.5,-0.5,-0.5,-0.5,-0.5,-0.5,-0.5,-0.5,linear,0.025,TRUE,25,FALSE,1,1,NA,914,EQ,H0,5,sepmodel,0.02,-0.0013194110393157708,0.007607170357515158,0,1000
7,250,0,250,250,500,500,750,750,2,0,1,0,0,0,0,0,0,0,-0.5,-0.5,-0.5,-0.5,-0.5,-0.5,-0.5,-0.5,linear,0.025,TRUE,25,FALSE,1,1,NA,914,EQ,H0,5,splines,0.026,-9.644176659279998e-4,0.0067451856606138595,0,1000
7,250,0,250,250,500,500,750,750,2,0,1,0,0,0,0,0,0,0,-0.5,-0.5,-0.5,-0.5,-0.5,-0.5,-0.5,-0.5,linear,0.025,TRUE,25,FALSE,1,1,NA,914,EQ,H0,5,splines_cal,0.026,-0.0010747319719353096,0.006696332419460983,0,1000
7,250,0,250,250,500,500,750,750,2,0,1,0,0,0,0,0,0,0,-0.5,-0.5,-0.5,-0.5,-0.5,-0.5,-0.5,-0.5,linear,0.025,TRUE,25,FALSE,1,1,NA,914,EQ,H0,6,fixmodel,0.016,-8.114479892570916e-4,0.006503483009684862,0,1000
7,250,0,250,250,500,500,750,750,2,0,1,0,0,0,0,0,0,0,-0.5,-0.5,-0.5,-0.5,-0.5,-0.5,-0.5,-0.5,linear,0.025,TRUE,25,FALSE,1,1,NA,914,EQ,H0,6,fixmodel_cal,0.02,-5.170144232203702e-4,0.006602751069583574,0,1000
7,250,0,250,250,500,500,750,750,2,0,1,0,0,0,0,0,0,0,-0.5,-0.5,-0.5,-0.5,-0.5,-0.5,-0.5,-0.5,linear,0.025,TRUE,25,FALSE,1,1,NA,914,EQ,H0,6,poolmodel,0,-0.14172268571093666,0.025927912660126097,0,1000
7,250,0,250,250,500,500,750,750,2,0,1,0,0,0,0,0,0,0,-0.5,-0.5,-0.5,-0.5,-0.5,-0.5,-0.5,-0.5,linear,0.025,TRUE,25,FALSE,1,1,NA,914,EQ,H0,6,sepmodel,0.021,-1.232187952934089e-4,0.0073827010372308575,0,1000
7,250,0,250,250,500,500,750,750,2,0,1,0,0,0,0,0,0,0,-0.5,-0.5,-0.5,-0.5,-0.5,-0.5,-0.5,-0.5,linear,0.025,TRUE,25,FALSE,1,1,NA,914,EQ,H0,6,splines,0.019,-7.908690228235391e-4,0.006521420138374313,0,1000
7,250,0,250,250,500,500,750,750,2,0,1,0,0,0,0,0,0,0,-0.5,-0.5,-0.5,-0.5,-0.5,-0.5,-0.5,-0.5,linear,0.025,TRUE,25,FALSE,1,1,NA,914,EQ,H0,6,splines_cal,0.017,-9.263789189077542e-4,0.006568472466690597,0,1000
7,250,0,250,250,500,500,750,750,2,0,1,0,0,0,0,0,0,0,-0.5,-0.5,-0.5,-0.5,-0.5,-0.5,-0.5,-0.5,linear,0.025,TRUE,25,FALSE,1,1,NA,914,EQ,H0,7,fixmodel,0.027,-0.002608384118496731,0.007015398910368146,0,1000
7,250,0,250,250,500,500,750,750,2,0,1,0,0,0,0,0,0,0,-0.5,-0.5,-0.5,-0.5,-0.5,-0.5,-0.5,-0.5,linear,0.025,TRUE,25,FALSE,1,1,NA,914,EQ,H0,7,fixmodel_cal,0.026,-0.0023784967472756944,0.007055329089117951,0,1000
7,250,0,250,250,500,500,750,750,2,0,1,0,0,0,0,0,0,0,-0.5,-0.5,-0.5,-0.5,-0.5,-0.5,-0.5,-0.5,linear,0.025,TRUE,25,FALSE,1,1,NA,914,EQ,H0,7,poolmodel,0,-0.14351962184017636,0.02681210630818057,0,1000
7,250,0,250,250,500,500,750,750,2,0,1,0,0,0,0,0,0,0,-0.5,-0.5,-0.5,-0.5,-0.5,-0.5,-0.5,-0.5,linear,0.025,TRUE,25,FALSE,1,1,NA,914,EQ,H0,7,sepmodel,0.024,-0.0019201549245331,0.007695394659576637,0,1000
7,250,0,250,250,500,500,750,750,2,0,1,0,0,0,0,0,0,0,-0.5,-0.5,-0.5,-0.5,-0.5,-0.5,-0.5,-0.5,linear,0.025,TRUE,25,FALSE,1,1,NA,914,EQ,H0,7,splines,0.026,-0.002587813336698298,0.007011129066614163,0,1000
7,250,0,250,250,500,500,750,750,2,0,1,0,0,0,0,0,0,0,-0.5,-0.5,-0.5,-0.5,-0.5,-0.5,-0.5,-0.5,linear,0.025,TRUE,25,FALSE,1,1,NA,914,EQ,H0,7,splines_cal,0.026,-0.0027738663514832117,0.007029434035454152,0,1000
7,250,0,250,250,500,500,750,750,2,0,1,0,0,0,0,0,0,0,-0.5,-0.5,-0.5,-0.5,-0.5,-0.5,-0.5,-0.5,linear,0.025,TRUE,25,FALSE,2,2,NA,914,EQ,H0,2,fixmodel,0.032,0.0017346010483620278,0.007685569412418084,0,1000
7,250,0,250,250,500,500,750,750,2,0,1,0,0,0,0,0,0,0,-0.5,-0.5,-0.5,-0.5,-0.5,-0.5,-0.5,-0.5,linear,0.025,TRUE,25,FALSE,2,2,NA,914,EQ,H0,2,fixmodel_cal,0.026,0.0017922368956772648,0.007729342833724791,0,1000
7,250,0,250,250,500,500,750,750,2,0,1,0,0,0,0,0,0,0,-0.5,-0.5,-0.5,-0.5,-0.5,-0.5,-0.5,-0.5,linear,0.025,TRUE,25,FALSE,2,2,NA,914,EQ,H0,2,poolmodel,0.001,-0.05943814123162102,0.010440394394892392,0,1000
7,250,0,250,250,500,500,750,750,2,0,1,0,0,0,0,0,0,0,-0.5,-0.5,-0.5,-0.5,-0.5,-0.5,-0.5,-0.5,linear,0.025,TRUE,25,FALSE,2,2,NA,914,EQ,H0,2,sepmodel,0.033,0.0016651416619940654,0.008264837015526863,0,1000
7,250,0,250,250,500,500,750,750,2,0,1,0,0,0,0,0,0,0,-0.5,-0.5,-0.5,-0.5,-0.5,-0.5,-0.5,-0.5,linear,0.025,TRUE,25,FALSE,2,2,NA,914,EQ,H0,2,splines,0.031,0.001983961644372587,0.007686353912333136,0,1000
7,250,0,250,250,500,500,750,750,2,0,1,0,0,0,0,0,0,0,-0.5,-0.5,-0.5,-0.5,-0.5,-0.5,-0.5,-0.5,linear,0.025,TRUE,25,FALSE,2,2,NA,914,EQ,H0,2,splines_cal,0.03,0.0018922107434252411,0.007722341546452024,0,1000
7,250,0,250,250,500,500,750,750,2,0,1,0,0,0,0,0,0,0,-0.5,-0.5,-0.5,-0.5,-0.5,-0.5,-0.5,-0.5,linear,0.025,TRUE,25,FALSE,2,2,NA,914,EQ,H0,3,fixmodel,0.023,0.0019270661595721787,0.007193351971703516,0,1000
7,250,0,250,250,500,500,750,750,2,0,1,0,0,0,0,0,0,0,-0.5,-0.5,-0.5,-0.5,-0.5,-0.5,-0.5,-0.5,linear,0.025,TRUE,25,FALSE,2,2,NA,914,EQ,H0,3,fixmodel_cal,0.023,0.001813689467760156,0.00720461855402951,0,1000
7,250,0,250,250,500,500,750,750,2,0,1,0,0,0,0,0,0,0,-0.5,-0.5,-0.5,-0.5,-0.5,-0.5,-0.5,-0.5,linear,0.025,TRUE,25,FALSE,2,2,NA,914,EQ,H0,3,poolmodel,0.004,-0.059245676120411345,0.009884917621724719,0,1000
7,250,0,250,250,500,500,750,750,2,0,1,0,0,0,0,0,0,0,-0.5,-0.5,-0.5,-0.5,-0.5,-0.5,-0.5,-0.5,linear,0.025,TRUE,25,FALSE,2,2,NA,914,EQ,H0,3,sepmodel,0.026,0.0018576067732037256,0.007673771140045944,0,1000
7,250,0,250,250,500,500,750,750,2,0,1,0,0,0,0,0,0,0,-0.5,-0.5,-0.5,-0.5,-0.5,-0.5,-0.5,-0.5,linear,0.025,TRUE,25,FALSE,2,2,NA,914,EQ,H0,3,splines,0.022,0.0021779644989591246,0.007072399087084714,0,1000
7,250,0,250,250,500,500,750,750,2,0,1,0,0,0,0,0,0,0,-0.5,-0.5,-0.5,-0.5,-0.5,-0.5,-0.5,-0.5,linear,0.025,TRUE,25,FALSE,2,2,NA,914,EQ,H0,3,splines_cal,0.024,0.0019610412216992125,0.007219131401537434,0,1000
7,250,0,250,250,500,500,750,750,2,0,1,0,0,0,0,0,0,0,-0.5,-0.5,-0.5,-0.5,-0.5,-0.5,-0.5,-0.5,linear,0.025,TRUE,25,FALSE,2,2,NA,914,EQ,H0,4,fixmodel,0.025,8.266889458820878e-5,0.00682709769610879,0,1000
7,250,0,250,250,500,500,750,750,2,0,1,0,0,0,0,0,0,0,-0.5,-0.5,-0.5,-0.5,-0.5,-0.5,-0.5,-0.5,linear,0.025,TRUE,25,FALSE,2,2,NA,914,EQ,H0,4,fixmodel_cal,0.025,2.81781573054899e-4,0.0068734690420780755,0,1000
7,250,0,250,250,500,500,750,750,2,0,1,0,0,0,0,0,0,0,-0.5,-0.5,-0.5,-0.5,-0.5,-0.5,-0.5,-0.5,linear,0.025,TRUE,25,FALSE,2,2,NA,914,EQ,H0,4,poolmodel,0,-0.10930642588001689,0.017836258028390544,0,1000
7,250,0,250,250,500,500,750,750,2,0,1,0,0,0,0,0,0,0,-0.5,-0.5,-0.5,-0.5,-0.5,-0.5,-0.5,-0.5,linear,0.025,TRUE,25,FALSE,2,2,NA,914,EQ,H0,4,sepmodel,0.031,-0.0012455979958135971,0.00778247847204402,0,1000
7,250,0,250,250,500,500,750,750,2,0,1,0,0,0,0,0,0,0,-0.5,-0.5,-0.5,-0.5,-0.5,-0.5,-0.5,-0.5,linear,0.025,TRUE,25,FALSE,2,2,NA,914,EQ,H0,4,splines,0.026,2.975444209711834e-4,0.006798011472052615,0,1000
7,250,0,250,250,500,500,750,750,2,0,1,0,0,0,0,0,0,0,-0.5,-0.5,-0.5,-0.5,-0.5,-0.5,-0.5,-0.5,linear,0.025,TRUE,25,FALSE,2,2,NA,914,EQ,H0,4,splines_cal,0.024,5.680342157999834e-4,0.006798688803163185,0,1000
7,250,0,250,250,500,500,750,750,2,0,1,0,0,0,0,0,0,0,-0.5,-0.5,-0.5,-0.5,-0.5,-0.5,-0.5,-0.5,linear,0.025,TRUE,25,FALSE,2,2,NA,914,EQ,H0,5,fixmodel,0.026,4.969798506776952e-4,0.006932174632292542,0,1000
7,250,0,250,250,500,500,750,750,2,0,1,0,0,0,0,0,0,0,-0.5,-0.5,-0.5,-0.5,-0.5,-0.5,-0.5,-0.5,linear,0.025,TRUE,25,FALSE,2,2,NA,914,EQ,H0,5,fixmodel_cal,0.026,4.3723839327888066e-4,0.007016163013041578,0,1000
7,250,0,250,250,500,500,750,750,2,0,1,0,0,0,0,0,0,0,-0.5,-0.5,-0.5,-0.5,-0.5,-0.5,-0.5,-0.5,linear,0.025,TRUE,25,FALSE,2,2,NA,914,EQ,H0,5,poolmodel,0,-0.10889211492392742,0.018021701392609557,0,1000
7,250,0,250,250,500,500,750,750,2,0,1,0,0,0,0,0,0,0,-0.5,-0.5,-0.5,-0.5,-0.5,-0.5,-0.5,-0.5,linear,0.025,TRUE,25,FALSE,2,2,NA,914,EQ,H0,5,sepmodel,0.019,-8.312870397241609e-4,0.007806356256437055,0,1000
7,250,0,250,250,500,500,750,750,2,0,1,0,0,0,0,0,0,0,-0.5,-0.5,-0.5,-0.5,-0.5,-0.5,-0.5,-0.5,linear,0.025,TRUE,25,FALSE,2,2,NA,914,EQ,H0,5,splines,0.024,7.085486348025392e-4,0.0069167050289261605,0,1000
7,250,0,250,250,500,500,750,750,2,0,1,0,0,0,0,0,0,0,-0.5,-0.5,-0.5,-0.5,-0.5,-0.5,-0.5,-0.5,linear,0.025,TRUE,25,FALSE,2,2,NA,914,EQ,H0,5,splines_cal,0.028,7.382972190121734e-4,0.006968679173459447,0,1000
7,250,0,250,250,500,500,750,750,2,0,1,0,0,0,0,0,0,0,-0.5,-0.5,-0.5,-0.5,-0.5,-0.5,-0.5,-0.5,linear,0.025,TRUE,25,FALSE,2,2,NA,914,EQ,H0,6,fixmodel,0.017,0.001663154196839501,0.00644001398392694,0,1000
7,250,0,250,250,500,500,750,750,2,0,1,0,0,0,0,0,0,0,-0.5,-0.5,-0.5,-0.5,-0.5,-0.5,-0.5,-0.5,linear,0.025,TRUE,25,FALSE,2,2,NA,914,EQ,H0,6,fixmodel_cal,0.02,0.001201953626691933,0.006518404455171463,0,1000
7,250,0,250,250,500,500,750,750,2,0,1,0,0,0,0,0,0,0,-0.5,-0.5,-0.5,-0.5,-0.5,-0.5,-0.5,-0.5,linear,0.025,TRUE,25,FALSE,2,2,NA,914,EQ,H0,6,poolmodel,0,-0.13993650419920126,0.025474084173130657,0,1000
7,250,0,250,250,500,500,750,750,2,0,1,0,0,0,0,0,0,0,-0.5,-0.5,-0.5,-0.5,-0.5,-0.5,-0.5,-0.5,linear,0.025,TRUE,25,FALSE,2,2,NA,914,EQ,H0,6,sepmodel,0.019,0.0010578116870487843,0.007477205713398064,0,1000
7,250,0,250,250,500,500,750,750,2,0,1,0,0,0,0,0,0,0,-0.5,-0.5,-0.5,-0.5,-0.5,-0.5,-0.5,-0.5,linear,0.025,TRUE,25,FALSE,2,2,NA,914,EQ,H0,6,splines,0.021,0.001761085899421583,0.006446460463578027,0,1000
7,250,0,250,250,500,500,750,750,2,0,1,0,0,0,0,0,0,0,-0.5,-0.5,-0.5,-0.5,-0.5,-0.5,-0.5,-0.5,linear,0.025,TRUE,25,FALSE,2,2,NA,914,EQ,H0,6,splines_cal,0.018,0.0016601000438483187,0.006484520536573599,0,1000
7,250,0,250,250,500,500,750,750,2,0,1,0,0,0,0,0,0,0,-0.5,-0.5,-0.5,-0.5,-0.5,-0.5,-0.5,-0.5,linear,0.025,TRUE,25,FALSE,2,2,NA,914,EQ,H0,7,fixmodel,0.018,0.0014882910020142441,0.006577628529509024,0,1000
7,250,0,250,250,500,500,750,750,2,0,1,0,0,0,0,0,0,0,-0.5,-0.5,-0.5,-0.5,-0.5,-0.5,-0.5,-0.5,linear,0.025,TRUE,25,FALSE,2,2,NA,914,EQ,H0,7,fixmodel_cal,0.02,0.0010701289977508173,0.006651080712115474,0,1000
7,250,0,250,250,500,500,750,750,2,0,1,0,0,0,0,0,0,0,-0.5,-0.5,-0.5,-0.5,-0.5,-0.5,-0.5,-0.5,linear,0.025,TRUE,25,FALSE,2,2,NA,914,EQ,H0,7,poolmodel,0,-0.14011136739402674,0.025370154198644797,0,1000
7,250,0,250,250,500,500,750,750,2,0,1,0,0,0,0,0,0,0,-0.5,-0.5,-0.5,-0.5,-0.5,-0.5,-0.5,-0.5,linear,0.025,TRUE,25,FALSE,2,2,NA,914,EQ,H0,7,sepmodel,0.019,8.829484922232911e-4,0.007729733765851501,0,1000
7,250,0,250,250,500,500,750,750,2,0,1,0,0,0,0,0,0,0,-0.5,-0.5,-0.5,-0.5,-0.5,-0.5,-0.5,-0.5,linear,0.025,TRUE,25,FALSE,2,2,NA,914,EQ,H0,7,splines,0.02,0.0015833742315151977,0.00653791789322659,0,1000
7,250,0,250,250,500,500,750,750,2,0,1,0,0,0,0,0,0,0,-0.5,-0.5,-0.5,-0.5,-0.5,-0.5,-0.5,-0.5,linear,0.025,TRUE,25,FALSE,2,2,NA,914,EQ,H0,7,splines_cal,0.018,0.0016349970589368441,0.006628548503453783,0,1000
7,250,0,250,250,500,500,750,750,2,0,1,0,0,0,0,0,0,0,-0.5,-0.5,-0.5,-0.5,-0.5,-0.5,-0.5,-0.5,linear,0.025,TRUE,25,FALSE,3,3,NA,914,EQ,H0,2,fixmodel,0.028,-3.5755506274308835e-4,0.007151391465985123,0,1000
7,250,0,250,250,500,500,750,750,2,0,1,0,0,0,0,0,0,0,-0.5,-0.5,-0.5,-0.5,-0.5,-0.5,-0.5,-0.5,linear,0.025,TRUE,25,FALSE,3,3,NA,914,EQ,H0,2,fixmodel_cal,0.025,-2.0682945123403433e-4,0.007179402998262681,0,1000
7,250,0,250,250,500,500,750,750,2,0,1,0,0,0,0,0,0,0,-0.5,-0.5,-0.5,-0.5,-0.5,-0.5,-0.5,-0.5,linear,0.025,TRUE,25,FALSE,3,3,NA,914,EQ,H0,2,poolmodel,0.004,-0.06271451505850399,0.00996985659012035,0,1000
7,250,0,250,250,500,500,750,750,2,0,1,0,0,0,0,0,0,0,-0.5,-0.5,-0.5,-0.5,-0.5,-0.5,-0.5,-0.5,linear,0.025,TRUE,25,FALSE,3,3,NA,914,EQ,H0,2,sepmodel,0.022,-8.155176282767042e-4,0.007708911241165421,0,1000
7,250,0,250,250,500,500,750,750,2,0,1,0,0,0,0,0,0,0,-0.5,-0.5,-0.5,-0.5,-0.5,-0.5,-0.5,-0.5,linear,0.025,TRUE,25,FALSE,3,3,NA,914,EQ,H0,2,splines,0.029,-3.6098610407556353e-4,0.007109386471523527,0,1000
7,250,0,250,250,500,500,750,750,2,0,1,0,0,0,0,0,0,0,-0.5,-0.5,-0.5,-0.5,-0.5,-0.5,-0.5,-0.5,linear,0.025,TRUE,25,FALSE,3,3,NA,914,EQ,H0,2,splines_cal,0.026,-5.362236765268756e-4,0.007163219841308138,0,1000
7,250,0,250,250,500,500,750,750,2,0,1,0,0,0,0,0,0,0,-0.5,-0.5,-0.5,-0.5,-0.5,-0.5,-0.5,-0.5,linear,0.025,TRUE,25,FALSE,3,3,NA,914,EQ,H0,3,fixmodel,0.021,-4.701399110728389e-5,0.0073995042058974305,0,1000
7,250,0,250,250,500,500,750,750,2,0,1,0,0,0,0,0,0,0,-0.5,-0.5,-0.5,-0.5,-0.5,-0.5,-0.5,-0.5,linear,0.025,TRUE,25,FALSE,3,3,NA,914,EQ,H0,3,fixmodel_cal,0.026,-1.3983377023574854e-4,0.007454409226628808,0,1000
7,250,0,250,250,500,500,750,750,2,0,1,0,0,0,0,0,0,0,-0.5,-0.5,-0.5,-0.5,-0.5,-0.5,-0.5,-0.5,linear,0.025,TRUE,25,FALSE,3,3,NA,914,EQ,H0,3,poolmodel,0.002,-0.0624039739868688,0.010254057446242557,0,1000
7,250,0,250,250,500,500,750,750,2,0,1,0,0,0,0,0,0,0,-0.5,-0.5,-0.5,-0.5,-0.5,-0.5,-0.5,-0.5,linear,0.025,TRUE,25,FALSE,3,3,NA,914,EQ,H0,3,sepmodel,0.022,-5.049765566415129e-4,0.008024133273970021,0,1000
7,250,0,250,250,500,500,750,750,2,0,1,0,0,0,0,0,0,0,-0.5,-0.5,-0.5,-0.5,-0.5,-0.5,-0.5,-0.5,linear,0.025,TRUE,25,FALSE,3,3,NA,914,EQ,H0,3,splines,0.024,-4.5904411797969584e-5,0.007364047376862415,0,1000
7,250,0,250,250,500,500,750,750,2,0,1,0,0,0,0,0,0,0,-0.5,-0.5,-0.5,-0.5,-0.5,-0.5,-0.5,-0.5,linear,0.025,TRUE,25,FALSE,3,3,NA,914,EQ,H0,3,splines_cal,0.021,2.116133643634342e-4,0.007374188781355776,0,1000
7,250,0,250,250,500,500,750,750,2,0,1,0,0,0,0,0,0,0,-0.5,-0.5,-0.5,-0.5,-0.5,-0.5,-0.5,-0.5,linear,0.025,TRUE,25,FALSE,3,3,NA,914,EQ,H0,4,fixmodel,0.024,0.0010376470728402113,0.007235038704900122,0,1000
7,250,0,250,250,500,500,750,750,2,0,1,0,0,0,0,0,0,0,-0.5,-0.5,-0.5,-0.5,-0.5,-0.5,-0.5,-0.5,linear,0.025,TRUE,25,FALSE,3,3,NA,914,EQ,H0,4,fixmodel_cal,0.024,0.001036543048071758,0.007200972654512698,0,1000
7,250,0,250,250,500,500,750,750,2,0,1,0,0,0,0,0,0,0,-0.5,-0.5,-0.5,-0.5,-0.5,-0.5,-0.5,-0.5,linear,0.025,TRUE,25,FALSE,3,3,NA,914,EQ,H0,4,poolmodel,0,-0.10851237094064724,0.01766188964802464,0,1000
7,250,0,250,250,500,500,750,750,2,0,1,0,0,0,0,0,0,0,-0.5,-0.5,-0.5,-0.5,-0.5,-0.5,-0.5,-0.5,linear,0.025,TRUE,25,FALSE,3,3,NA,914,EQ,H0,4,sepmodel,0.028,6.48557319527056e-4,0.008387752592012753,0,1000
7,250,0,250,250,500,500,750,750,2,0,1,0,0,0,0,0,0,0,-0.5,-0.5,-0.5,-0.5,-0.5,-0.5,-0.5,-0.5,linear,0.025,TRUE,25,FALSE,3,3,NA,914,EQ,H0,4,splines,0.027,0.0011159057239899578,0.007145282158420377,0,1000
7,250,0,250,250,500,500,750,750,2,0,1,0,0,0,0,0,0,0,-0.5,-0.5,-0.5,-0.5,-0.5,-0.5,-0.5,-0.5,linear,0.025,TRUE,25,FALSE,3,3,NA,914,EQ,H0,4,splines_cal,0.024,8.196342106906818e-4,0.007143422458107808,0,1000
7,250,0,250,250,500,500,750,750,2,0,1,0,0,0,0,0,0,0,-0.5,-0.5,-0.5,-0.5,-0.5,-0.5,-0.5,-0.5,linear,0.025,TRUE,25,FALSE,3,3,NA,914,EQ,H0,5,fixmodel,0.026,0.001811073190804509,0.006975417034416821,0,1000
7,250,0,250,250,500,500,750,750,2,0,1,0,0,0,0,0,0,0,-0.5,-0.5,-0.5,-0.5,-0.5,-0.5,-0.5,-0.5,linear,0.025,TRUE,25,FALSE,3,3,NA,914,EQ,H0,5,fixmodel_cal,0.028,0.0019270162548990035,0.007008120639053223,0,1000
7,250,0,250,250,500,500,750,750,2,0,1,0,0,0,0,0,0,0,-0.5,-0.5,-0.5,-0.5,-0.5,-0.5,-0.5,-0.5,linear,0.025,TRUE,25,FALSE,3,3,NA,914,EQ,H0,5,poolmodel,0.001,-0.10773894482268287,0.017545501385202236,0,1000
7,250,0,250,250,500,500,750,750,2,0,1,0,0,0,0,0,0,0,-0.5,-0.5,-0.5,-0.5,-0.5,-0.5,-0.5,-0.5,linear,0.025,TRUE,25,FALSE,3,3,NA,914,EQ,H0,5,sepmodel,0.026,0.0014219834374914115,0.00808500675910942,0,1000
7,250,0,250,250,500,500,750,750,2,0,1,0,0,0,0,0,0,0,-0.5,-0.5,-0.5,-0.5,-0.5,-0.5,-0.5,-0.5,linear,0.025,TRUE,25,FALSE,3,3,NA,914,EQ,H0,5,splines,0.027,0.0018879577554275823,0.0069221045589314975,0,1000
7,250,0,250,250,500,500,750,750,2,0,1,0,0,0,0,0,0,0,-0.5,-0.5,-0.5,-0.5,-0.5,-0.5,-0.5,-0.5,linear,0.025,TRUE,25,FALSE,3,3,NA,914,EQ,H0,5,splines_cal,0.027,0.0019162038733200092,0.0069635852700610686,0,1000
7,250,0,250,250,500,500,750,750,2,0,1,0,0,0,0,0,0,0,-0.5,-0.5,-0.5,-0.5,-0.5,-0.5,-0.5,-0.5,linear,0.025,TRUE,25,FALSE,3,3,NA,914,EQ,H0,6,fixmodel,0.02,0.003149646305250467,0.006720464482155813,0,1000
7,250,0,250,250,500,500,750,750,2,0,1,0,0,0,0,0,0,0,-0.5,-0.5,-0.5,-0.5,-0.5,-0.5,-0.5,-0.5,linear,0.025,TRUE,25,FALSE,3,3,NA,914,EQ,H0,6,fixmodel_cal,0.02,0.0032057247730708656,0.006748591012135907,0,1000
7,250,0,250,250,500,500,750,750,2,0,1,0,0,0,0,0,0,0,-0.5,-0.5,-0.5,-0.5,-0.5,-0.5,-0.5,-0.5,linear,0.025,TRUE,25,FALSE,3,3,NA,914,EQ,H0,6,poolmodel,0,-0.13892755468226647,0.024848194022014693,0,1000
7,250,0,250,250,500,500,750,750,2,0,1,0,0,0,0,0,0,0,-0.5,-0.5,-0.5,-0.5,-0.5,-0.5,-0.5,-0.5,linear,0.025,TRUE,25,FALSE,3,3,NA,914,EQ,H0,6,sepmodel,0.025,0.0030892157482851506,0.007913365109569746,0,1000
7,250,0,250,250,500,500,750,750,2,0,1,0,0,0,0,0,0,0,-0.5,-0.5,-0.5,-0.5,-0.5,-0.5,-0.5,-0.5,linear,0.025,TRUE,25,FALSE,3,3,NA,914,EQ,H0,6,splines,0.022,0.0029437996183554163,0.006699481138743052,0,1000
7,250,0,250,250,500,500,750,750,2,0,1,0,0,0,0,0,0,0,-0.5,-0.5,-0.5,-0.5,-0.5,-0.5,-0.5,-0.5,linear,0.025,TRUE,25,FALSE,3,3,NA,914,EQ,H0,6,splines_cal,0.02,0.0028992378395280216,0.006764777464656716,0,1000
7,250,0,250,250,500,500,750,750,2,0,1,0,0,0,0,0,0,0,-0.5,-0.5,-0.5,-0.5,-0.5,-0.5,-0.5,-0.5,linear,0.025,TRUE,25,FALSE,3,3,NA,914,EQ,H0,7,fixmodel,0.027,6.332954007714316e-4,0.006895485597162977,0,1000
7,250,0,250,250,500,500,750,750,2,0,1,0,0,0,0,0,0,0,-0.5,-0.5,-0.5,-0.5,-0.5,-0.5,-0.5,-0.5,linear,0.025,TRUE,25,FALSE,3,3,NA,914,EQ,H0,7,fixmodel_cal,0.026,5.409492457038115e-4,0.006960465297853048,0,1000
7,250,0,250,250,500,500,750,750,2,0,1,0,0,0,0,0,0,0,-0.5,-0.5,-0.5,-0.5,-0.5,-0.5,-0.5,-0.5,linear,0.025,TRUE,25,FALSE,3,3,NA,914,EQ,H0,7,poolmodel,0,-0.14144390558674555,0.025706358224170528,0,1000
7,250,0,250,250,500,500,750,750,2,0,1,0,0,0,0,0,0,0,-0.5,-0.5,-0.5,-0.5,-0.5,-0.5,-0.5,-0.5,linear,0.025,TRUE,25,FALSE,3,3,NA,914,EQ,H0,7,sepmodel,0.021,5.728648438060547e-4,0.00809273306813519,0,1000
7,250,0,250,250,500,500,750,750,2,0,1,0,0,0,0,0,0,0,-0.5,-0.5,-0.5,-0.5,-0.5,-0.5,-0.5,-0.5,linear,0.025,TRUE,25,FALSE,3,3,NA,914,EQ,H0,7,splines,0.026,4.4434768532348735e-4,0.006901646924785417,0,1000
7,250,0,250,250,500,500,750,750,2,0,1,0,0,0,0,0,0,0,-0.5,-0.5,-0.5,-0.5,-0.5,-0.5,-0.5,-0.5,linear,0.025,TRUE,25,FALSE,3,3,NA,914,EQ,H0,7,splines_cal,0.024,5.463977773853476e-4,0.00690250477721475,0,1000
7,250,0,250,250,500,500,750,750,2,0,1,0,0,0,0,0,0,0,-0.375,-0.375,-0.375,-0.375,-0.375,-0.375,-0.375,-0.375,linear,0.025,TRUE,25,FALSE,1,1,NA,914,EQ,H0,2,fixmodel,0.025,-0.007058317549711264,0.007530921583213572,0,1000
7,250,0,250,250,500,500,750,750,2,0,1,0,0,0,0,0,0,0,-0.375,-0.375,-0.375,-0.375,-0.375,-0.375,-0.375,-0.375,linear,0.025,TRUE,25,FALSE,1,1,NA,914,EQ,H0,2,fixmodel_cal,0.025,-0.007078933826919164,0.007513655013696401,0,1000
7,250,0,250,250,500,500,750,750,2,0,1,0,0,0,0,0,0,0,-0.375,-0.375,-0.375,-0.375,-0.375,-0.375,-0.375,-0.375,linear,0.025,TRUE,25,FALSE,1,1,NA,914,EQ,H0,2,poolmodel,0.007,-0.05316100829151426,0.009183470653517305,0,1000
7,250,0,250,250,500,500,750,750,2,0,1,0,0,0,0,0,0,0,-0.375,-0.375,-0.375,-0.375,-0.375,-0.375,-0.375,-0.375,linear,0.025,TRUE,25,FALSE,1,1,NA,914,EQ,H0,2,sepmodel,0.024,-0.007359046648504642,0.008070436945329357,0,1000
7,250,0,250,250,500,500,750,750,2,0,1,0,0,0,0,0,0,0,-0.375,-0.375,-0.375,-0.375,-0.375,-0.375,-0.375,-0.375,linear,0.025,TRUE,25,FALSE,1,1,NA,914,EQ,H0,2,splines,0.025,-0.006810472290582409,0.007370961761971226,0,1000
7,250,0,250,250,500,500,750,750,2,0,1,0,0,0,0,0,0,0,-0.375,-0.375,-0.375,-0.375,-0.375,-0.375,-0.375,-0.375,linear,0.025,TRUE,25,FALSE,1,1,NA,914,EQ,H0,2,splines_cal,0.026,-0.007369903703401572,0.007441162532720151,0,1000
7,250,0,250,250,500,500,750,750,2,0,1,0,0,0,0,0,0,0,-0.375,-0.375,-0.375,-0.375,-0.375,-0.375,-0.375,-0.375,linear,0.025,TRUE,25,FALSE,1,1,NA,914,EQ,H0,3,fixmodel,0.022,-0.003846406796400367,0.006860643371356252,0,1000
7,250,0,250,250,500,500,750,750,2,0,1,0,0,0,0,0,0,0,-0.375,-0.375,-0.375,-0.375,-0.375,-0.375,-0.375,-0.375,linear,0.025,TRUE,25,FALSE,1,1,NA,914,EQ,H0,3,fixmodel_cal,0.022,-0.003846235951822321,0.0069407730746481764,0,1000
7,250,0,250,250,500,500,750,750,2,0,1,0,0,0,0,0,0,0,-0.375,-0.375,-0.375,-0.375,-0.375,-0.375,-0.375,-0.375,linear,0.025,TRUE,25,FALSE,1,1,NA,914,EQ,H0,3,poolmodel,0.005,-0.04994909753820369,0.008449063357837334,0,1000
7,250,0,250,250,500,500,750,750,2,0,1,0,0,0,0,0,0,0,-0.375,-0.375,-0.375,-0.375,-0.375,-0.375,-0.375,-0.375,linear,0.025,TRUE,25,FALSE,1,1,NA,914,EQ,H0,3,sepmodel,0.021,-0.004147135895194069,0.0072613925446865,0,1000
7,250,0,250,250,500,500,750,750,2,0,1,0,0,0,0,0,0,0,-0.375,-0.375,-0.375,-0.375,-0.375,-0.375,-0.375,-0.375,linear,0.025,TRUE,25,FALSE,1,1,NA,914,EQ,H0,3,splines,0.017,-0.0036076408006333626,0.006658009152699609,0,1000
7,250,0,250,250,500,500,750,750,2,0,1,0,0,0,0,0,0,0,-0.375,-0.375,-0.375,-0.375,-0.375,-0.375,-0.375,-0.375,linear,0.025,TRUE,25,FALSE,1,1,NA,914,EQ,H0,3,splines_cal,0.024,-0.0038498251854282056,0.006846512696413759,0,1000
7,250,0,250,250,500,500,750,750,2,0,1,0,0,0,0,0,0,0,-0.375,-0.375,-0.375,-0.375,-0.375,-0.375,-0.375,-0.375,linear,0.025,TRUE,25,FALSE,1,1,NA,914,EQ,H0,4,fixmodel,0.015,-0.0037798480240251583,0.006966102408438262,0,1000
7,250,0,250,250,500,500,750,750,2,0,1,0,0,0,0,0,0,0,-0.375,-0.375,-0.375,-0.375,-0.375,-0.375,-0.375,-0.375,linear,0.025,TRUE,25,FALSE,1,1,NA,914,EQ,H0,4,fixmodel_cal,0.016,-0.004009272922265167,0.00697387262827714,0,1000
7,250,0,250,250,500,500,750,750,2,0,1,0,0,0,0,0,0,0,-0.375,-0.375,-0.375,-0.375,-0.375,-0.375,-0.375,-0.375,linear,0.025,TRUE,25,FALSE,1,1,NA,914,EQ,H0,4,poolmodel,0,-0.08639331879439405,0.01339429607131807,0,1000
7,250,0,250,250,500,500,750,750,2,0,1,0,0,0,0,0,0,0,-0.375,-0.375,-0.375,-0.375,-0.375,-0.375,-0.375,-0.375,linear,0.025,TRUE,25,FALSE,1,1,NA,914,EQ,H0,4,sepmodel,0.019,-0.0038459053406999823,0.007814279007861134,0,1000
7,250,0,250,250,500,500,750,750,2,0,1,0,0,0,0,0,0,0,-0.375,-0.375,-0.375,-0.375,-0.375,-0.375,-0.375,-0.375,linear,0.025,TRUE,25,FALSE,1,1,NA,914,EQ,H0,4,splines,0.014,-0.0038291371264934956,0.006858470995363277,0,1000
7,250,0,250,250,500,500,750,750,2,0,1,0,0,0,0,0,0,0,-0.375,-0.375,-0.375,-0.375,-0.375,-0.375,-0.375,-0.375,linear,0.025,TRUE,25,FALSE,1,1,NA,914,EQ,H0,4,splines_cal,0.016,-0.0037972795919388467,0.006903760005665742,0,1000
7,250,0,250,250,500,500,750,750,2,0,1,0,0,0,0,0,0,0,-0.375,-0.375,-0.375,-0.375,-0.375,-0.375,-0.375,-0.375,linear,0.025,TRUE,25,FALSE,1,1,NA,914,EQ,H0,5,fixmodel,0.019,-0.0021907682912490675,0.007165584736815583,0,1000
7,250,0,250,250,500,500,750,750,2,0,1,0,0,0,0,0,0,0,-0.375,-0.375,-0.375,-0.375,-0.375,-0.375,-0.375,-0.375,linear,0.025,TRUE,25,FALSE,1,1,NA,914,EQ,H0,5,fixmodel_cal,0.022,-0.0022841699803221043,0.007190553901397907,0,1000
7,250,0,250,250,500,500,750,750,2,0,1,0,0,0,0,0,0,0,-0.375,-0.375,-0.375,-0.375,-0.375,-0.375,-0.375,-0.375,linear,0.025,TRUE,25,FALSE,1,1,NA,914,EQ,H0,5,poolmodel,0,-0.08480423906161785,0.013462816188009045,0,1000
7,250,0,250,250,500,500,750,750,2,0,1,0,0,0,0,0,0,0,-0.375,-0.375,-0.375,-0.375,-0.375,-0.375,-0.375,-0.375,linear,0.025,TRUE,25,FALSE,1,1,NA,914,EQ,H0,5,sepmodel,0.016,-0.0022568256079237904,0.008122233264904848,0,1000
7,250,0,250,250,500,500,750,750,2,0,1,0,0,0,0,0,0,0,-0.375,-0.375,-0.375,-0.375,-0.375,-0.375,-0.375,-0.375,linear,0.025,TRUE,25,FALSE,1,1,NA,914,EQ,H0,5,splines,0.02,-0.0022314464946513084,0.007146864244229984,0,1000
7,250,0,250,250,500,500,750,750,2,0,1,0,0,0,0,0,0,0,-0.375,-0.375,-0.375,-0.375,-0.375,-0.375,-0.375,-0.375,linear,0.025,TRUE,25,FALSE,1,1,NA,914,EQ,H0,5,splines_cal,0.021,-0.002320118232326209,0.007199388281946918,0,1000
7,250,0,250,250,500,500,750,750,2,0,1,0,0,0,0,0,0,0,-0.375,-0.375,-0.375,-0.375,-0.375,-0.375,-0.375,-0.375,linear,0.025,TRUE,25,FALSE,1,1,NA,914,EQ,H0,6,fixmodel,0.018,6.230721392463321e-4,0.006470877551119473,0,1000
7,250,0,250,250,500,500,750,750,2,0,1,0,0,0,0,0,0,0,-0.375,-0.375,-0.375,-0.375,-0.375,-0.375,-0.375,-0.375,linear,0.025,TRUE,25,FALSE,1,1,NA,914,EQ,H0,6,fixmodel_cal,0.019,7.551744980382129e-4,0.006476395722013233,0,1000
7,250,0,250,250,500,500,750,750,2,0,1,0,0,0,0,0,0,0,-0.375,-0.375,-0.375,-0.375,-0.375,-0.375,-0.375,-0.375,linear,0.025,TRUE,25,FALSE,1,1,NA,914,EQ,H0,6,poolmodel,0.001,-0.10650986221493387,0.017030521161759928,0,1000
7,250,0,250,250,500,500,750,750,2,0,1,0,0,0,0,0,0,0,-0.375,-0.375,-0.375,-0.375,-0.375,-0.375,-0.375,-0.375,linear,0.025,TRUE,25,FALSE,1,1,NA,914,EQ,H0,6,sepmodel,0.021,2.7474007831115714e-4,0.007416923278453173,0,1000
7,250,0,250,250,500,500,750,750,2,0,1,0,0,0,0,0,0,0,-0.375,-0.375,-0.375,-0.375,-0.375,-0.375,-0.375,-0.375,linear,0.025,TRUE,25,FALSE,1,1,NA,914,EQ,H0,6,splines,0.016,4.563949880195884e-4,0.00648244913122092,0,1000
7,250,0,250,250,500,500,750,750,2,0,1,0,0,0,0,0,0,0,-0.375,-0.375,-0.375,-0.375,-0.375,-0.375,-0.375,-0.375,linear,0.025,TRUE,25,FALSE,1,1,NA,914,EQ,H0,6,splines_cal,0.02,7.375568015707159e-4,0.006479372613837436,0,1000
7,250,0,250,250,500,500,750,750,2,0,1,0,0,0,0,0,0,0,-0.375,-0.375,-0.375,-0.375,-0.375,-0.375,-0.375,-0.375,linear,0.025,TRUE,25,FALSE,1,1,NA,914,EQ,H0,7,fixmodel,0.029,-0.001016928036268951,0.007161976569719461,0,1000
7,250,0,250,250,500,500,750,750,2,0,1,0,0,0,0,0,0,0,-0.375,-0.375,-0.375,-0.375,-0.375,-0.375,-0.375,-0.375,linear,0.025,TRUE,25,FALSE,1,1,NA,914,EQ,H0,7,fixmodel_cal,0.026,-0.0012068620999872571,0.007192820825771717,0,1000
7,250,0,250,250,500,500,750,750,2,0,1,0,0,0,0,0,0,0,-0.375,-0.375,-0.375,-0.375,-0.375,-0.375,-0.375,-0.375,linear,0.025,TRUE,25,FALSE,1,1,NA,914,EQ,H0,7,poolmodel,0.001,-0.1081498623904492,0.01785964803106835,0,1000
7,250,0,250,250,500,500,750,750,2,0,1,0,0,0,0,0,0,0,-0.375,-0.375,-0.375,-0.375,-0.375,-0.375,-0.375,-0.375,linear,0.025,TRUE,25,FALSE,1,1,NA,914,EQ,H0,7,sepmodel,0.027,-0.0013652600972041736,0.008389837776007955,0,1000
7,250,0,250,250,500,500,750,750,2,0,1,0,0,0,0,0,0,0,-0.375,-0.375,-0.375,-0.375,-0.375,-0.375,-0.375,-0.375,linear,0.025,TRUE,25,FALSE,1,1,NA,914,EQ,H0,7,splines,0.029,-0.0011902725589256124,0.007116815128832268,0,1000
7,250,0,250,250,500,500,750,750,2,0,1,0,0,0,0,0,0,0,-0.375,-0.375,-0.375,-0.375,-0.375,-0.375,-0.375,-0.375,linear,0.025,TRUE,25,FALSE,1,1,NA,914,EQ,H0,7,splines_cal,0.031,-0.0010867607991178346,0.0071400406357350526,0,1000
7,250,0,250,250,500,500,750,750,2,0,1,0,0,0,0,0,0,0,-0.375,-0.375,-0.375,-0.375,-0.375,-0.375,-0.375,-0.375,linear,0.025,TRUE,25,FALSE,2,2,NA,914,EQ,H0,2,fixmodel,0.026,-6.554971896808391e-4,0.0073483779363982754,0,1000
7,250,0,250,250,500,500,750,750,2,0,1,0,0,0,0,0,0,0,-0.375,-0.375,-0.375,-0.375,-0.375,-0.375,-0.375,-0.375,linear,0.025,TRUE,25,FALSE,2,2,NA,914,EQ,H0,2,fixmodel_cal,0.025,-5.929119810374272e-4,0.00739397557492762,0,1000
7,250,0,250,250,500,500,750,750,2,0,1,0,0,0,0,0,0,0,-0.375,-0.375,-0.375,-0.375,-0.375,-0.375,-0.375,-0.375,linear,0.025,TRUE,25,FALSE,2,2,NA,914,EQ,H0,2,poolmodel,0.009,-0.04579922781778401,0.008714598999292613,0,1000
7,250,0,250,250,500,500,750,750,2,0,1,0,0,0,0,0,0,0,-0.375,-0.375,-0.375,-0.375,-0.375,-0.375,-0.375,-0.375,linear,0.025,TRUE,25,FALSE,2,2,NA,914,EQ,H0,2,sepmodel,0.023,-0.0012150163264007482,0.008246726193160116,0,1000
7,250,0,250,250,500,500,750,750,2,0,1,0,0,0,0,0,0,0,-0.375,-0.375,-0.375,-0.375,-0.375,-0.375,-0.375,-0.375,linear,0.025,TRUE,25,FALSE,2,2,NA,914,EQ,H0,2,splines,0.025,-6.17660100523021e-4,0.007263945169226215,0,1000
7,250,0,250,250,500,500,750,750,2,0,1,0,0,0,0,0,0,0,-0.375,-0.375,-0.375,-0.375,-0.375,-0.375,-0.375,-0.375,linear,0.025,TRUE,25,FALSE,2,2,NA,914,EQ,H0,2,splines_cal,0.026,-7.637534457183415e-4,0.0073453270462870025,0,1000
7,250,0,250,250,500,500,750,750,2,0,1,0,0,0,0,0,0,0,-0.375,-0.375,-0.375,-0.375,-0.375,-0.375,-0.375,-0.375,linear,0.025,TRUE,25,FALSE,2,2,NA,914,EQ,H0,3,fixmodel,0.03,5.647996850348931e-4,0.007294200226063623,0,1000
7,250,0,250,250,500,500,750,750,2,0,1,0,0,0,0,0,0,0,-0.375,-0.375,-0.375,-0.375,-0.375,-0.375,-0.375,-0.375,linear,0.025,TRUE,25,FALSE,2,2,NA,914,EQ,H0,3,fixmodel_cal,0.029,7.320247890409266e-4,0.007374671818284316,0,1000
7,250,0,250,250,500,500,750,750,2,0,1,0,0,0,0,0,0,0,-0.375,-0.375,-0.375,-0.375,-0.375,-0.375,-0.375,-0.375,linear,0.025,TRUE,25,FALSE,2,2,NA,914,EQ,H0,3,poolmodel,0.008,-0.04457893094306859,0.008923269173909974,0,1000
7,250,0,250,250,500,500,750,750,2,0,1,0,0,0,0,0,0,0,-0.375,-0.375,-0.375,-0.375,-0.375,-0.375,-0.375,-0.375,linear,0.025,TRUE,25,FALSE,2,2,NA,914,EQ,H0,3,sepmodel,0.036,5.280548314706447e-6,0.008026370914779186,0,1000
7,250,0,250,250,500,500,750,750,2,0,1,0,0,0,0,0,0,0,-0.375,-0.375,-0.375,-0.375,-0.375,-0.375,-0.375,-0.375,linear,0.025,TRUE,25,FALSE,2,2,NA,914,EQ,H0,3,splines,0.032,5.990418381198178e-4,0.0072580219517479885,0,1000
7,250,0,250,250,500,500,750,750,2,0,1,0,0,0,0,0,0,0,-0.375,-0.375,-0.375,-0.375,-0.375,-0.375,-0.375,-0.375,linear,0.025,TRUE,25,FALSE,2,2,NA,914,EQ,H0,3,splines_cal,0.028,5.126148270970793e-4,0.0072986345790294225,0,1000
7,250,0,250,250,500,500,750,750,2,0,1,0,0,0,0,0,0,0,-0.375,-0.375,-0.375,-0.375,-0.375,-0.375,-0.375,-0.375,linear,0.025,TRUE,25,FALSE,2,2,NA,914,EQ,H0,4,fixmodel,0.026,0.0011478337288232132,0.007249262215725019,0,1000
7,250,0,250,250,500,500,750,750,2,0,1,0,0,0,0,0,0,0,-0.375,-0.375,-0.375,-0.375,-0.375,-0.375,-0.375,-0.375,linear,0.025,TRUE,25,FALSE,2,2,NA,914,EQ,H0,4,fixmodel_cal,0.024,0.001424596373584936,0.007245437803939615,0,1000
7,250,0,250,250,500,500,750,750,2,0,1,0,0,0,0,0,0,0,-0.375,-0.375,-0.375,-0.375,-0.375,-0.375,-0.375,-0.375,linear,0.025,TRUE,25,FALSE,2,2,NA,914,EQ,H0,4,poolmodel,0.001,-0.07985882810565882,0.012681107647795299,0,1000
7,250,0,250,250,500,500,750,750,2,0,1,0,0,0,0,0,0,0,-0.375,-0.375,-0.375,-0.375,-0.375,-0.375,-0.375,-0.375,linear,0.025,TRUE,25,FALSE,2,2,NA,914,EQ,H0,4,sepmodel,0.027,6.979123296838446e-4,0.008196631355617556,0,1000
7,250,0,250,250,500,500,750,750,2,0,1,0,0,0,0,0,0,0,-0.375,-0.375,-0.375,-0.375,-0.375,-0.375,-0.375,-0.375,linear,0.025,TRUE,25,FALSE,2,2,NA,914,EQ,H0,4,splines,0.029,0.001254712134647652,0.007258952270268986,0,1000
7,250,0,250,250,500,500,750,750,2,0,1,0,0,0,0,0,0,0,-0.375,-0.375,-0.375,-0.375,-0.375,-0.375,-0.375,-0.375,linear,0.025,TRUE,25,FALSE,2,2,NA,914,EQ,H0,4,splines_cal,0.025,0.0011051308656508051,0.0072313413678647565,0,1000
7,250,0,250,250,500,500,750,750,2,0,1,0,0,0,0,0,0,0,-0.375,-0.375,-0.375,-0.375,-0.375,-0.375,-0.375,-0.375,linear,0.025,TRUE,25,FALSE,2,2,NA,914,EQ,H0,5,fixmodel,0.029,1.543468299886937e-4,0.007193993154791404,0,1000
7,250,0,250,250,500,500,750,750,2,0,1,0,0,0,0,0,0,0,-0.375,-0.375,-0.375,-0.375,-0.375,-0.375,-0.375,-0.375,linear,0.025,TRUE,25,FALSE,2,2,NA,914,EQ,H0,5,fixmodel_cal,0.025,2.5385713418251397e-4,0.007202998066199305,0,1000
7,250,0,250,250,500,500,750,750,2,0,1,0,0,0,0,0,0,0,-0.375,-0.375,-0.375,-0.375,-0.375,-0.375,-0.375,-0.375,linear,0.025,TRUE,25,FALSE,2,2,NA,914,EQ,H0,5,poolmodel,0.002,-0.08085231500449337,0.013026631257923848,0,1000
7,250,0,250,250,500,500,750,750,2,0,1,0,0,0,0,0,0,0,-0.375,-0.375,-0.375,-0.375,-0.375,-0.375,-0.375,-0.375,linear,0.025,TRUE,25,FALSE,2,2,NA,914,EQ,H0,5,sepmodel,0.03,-2.9557456915073045e-4,0.008135054690881542,0,1000
7,250,0,250,250,500,500,750,750,2,0,1,0,0,0,0,0,0,0,-0.375,-0.375,-0.375,-0.375,-0.375,-0.375,-0.375,-0.375,linear,0.025,TRUE,25,FALSE,2,2,NA,914,EQ,H0,5,splines,0.031,2.6317556654214776e-4,0.0071789785421856826,0,1000
7,250,0,250,250,500,500,750,750,2,0,1,0,0,0,0,0,0,0,-0.375,-0.375,-0.375,-0.375,-0.375,-0.375,-0.375,-0.375,linear,0.025,TRUE,25,FALSE,2,2,NA,914,EQ,H0,5,splines_cal,0.026,5.096968263505844e-5,0.007139412851043573,0,1000
7,250,0,250,250,500,500,750,750,2,0,1,0,0,0,0,0,0,0,-0.375,-0.375,-0.375,-0.375,-0.375,-0.375,-0.375,-0.375,linear,0.025,TRUE,25,FALSE,2,2,NA,914,EQ,H0,6,fixmodel,0.028,0.0021121589620673375,0.007263199022685402,0,1000
7,250,0,250,250,500,500,750,750,2,0,1,0,0,0,0,0,0,0,-0.375,-0.375,-0.375,-0.375,-0.375,-0.375,-0.375,-0.375,linear,0.025,TRUE,25,FALSE,2,2,NA,914,EQ,H0,6,fixmodel_cal,0.029,0.0020181457867067543,0.007315196676623333,0,1000
7,250,0,250,250,500,500,750,750,2,0,1,0,0,0,0,0,0,0,-0.375,-0.375,-0.375,-0.375,-0.375,-0.375,-0.375,-0.375,linear,0.025,TRUE,25,FALSE,2,2,NA,914,EQ,H0,6,poolmodel,0.001,-0.10288540068462756,0.016918560620298013,0,1000
7,250,0,250,250,500,500,750,750,2,0,1,0,0,0,0,0,0,0,-0.375,-0.375,-0.375,-0.375,-0.375,-0.375,-0.375,-0.375,linear,0.025,TRUE,25,FALSE,2,2,NA,914,EQ,H0,6,sepmodel,0.031,0.0014851586726334287,0.008232525106656056,0,1000
7,250,0,250,250,500,500,750,750,2,0,1,0,0,0,0,0,0,0,-0.375,-0.375,-0.375,-0.375,-0.375,-0.375,-0.375,-0.375,linear,0.025,TRUE,25,FALSE,2,2,NA,914,EQ,H0,6,splines,0.026,0.0022338109371587895,0.0072898570759339755,0,1000
7,250,0,250,250,500,500,750,750,2,0,1,0,0,0,0,0,0,0,-0.375,-0.375,-0.375,-0.375,-0.375,-0.375,-0.375,-0.375,linear,0.025,TRUE,25,FALSE,2,2,NA,914,EQ,H0,6,splines_cal,0.029,0.001899158704280434,0.007263454460209263,0,1000
7,250,0,250,250,500,500,750,750,2,0,1,0,0,0,0,0,0,0,-0.375,-0.375,-0.375,-0.375,-0.375,-0.375,-0.375,-0.375,linear,0.025,TRUE,25,FALSE,2,2,NA,914,EQ,H0,7,fixmodel,0.022,-6.674056338249703e-4,0.006990851385488278,0,1000
7,250,0,250,250,500,500,750,750,2,0,1,0,0,0,0,0,0,0,-0.375,-0.375,-0.375,-0.375,-0.375,-0.375,-0.375,-0.375,linear,0.025,TRUE,25,FALSE,2,2,NA,914,EQ,H0,7,fixmodel_cal,0.023,-6.530961194187789e-4,0.006957699634178979,0,1000
7,250,0,250,250,500,500,750,750,2,0,1,0,0,0,0,0,0,0,-0.375,-0.375,-0.375,-0.375,-0.375,-0.375,-0.375,-0.375,linear,0.025,TRUE,25,FALSE,2,2,NA,914,EQ,H0,7,poolmodel,0.001,-0.10566496528051994,0.017315015433950646,0,1000
7,250,0,250,250,500,500,750,750,2,0,1,0,0,0,0,0,0,0,-0.375,-0.375,-0.375,-0.375,-0.375,-0.375,-0.375,-0.375,linear,0.025,TRUE,25,FALSE,2,2,NA,914,EQ,H0,7,sepmodel,0.022,-0.0012944059232589775,0.007945484813183456,0,1000
7,250,0,250,250,500,500,750,750,2,0,1,0,0,0,0,0,0,0,-0.375,-0.375,-0.375,-0.375,-0.375,-0.375,-0.375,-0.375,linear,0.025,TRUE,25,FALSE,2,2,NA,914,EQ,H0,7,splines,0.023,-5.508475197701487e-4,0.006999584554075876,0,1000
7,250,0,250,250,500,500,750,750,2,0,1,0,0,0,0,0,0,0,-0.375,-0.375,-0.375,-0.375,-0.375,-0.375,-0.375,-0.375,linear,0.025,TRUE,25,FALSE,2,2,NA,914,EQ,H0,7,splines_cal,0.022,-9.627641481096777e-4,0.0069782478921036,0,1000
7,250,0,250,250,500,500,750,750,2,0,1,0,0,0,0,0,0,0,-0.375,-0.375,-0.375,-0.375,-0.375,-0.375,-0.375,-0.375,linear,0.025,TRUE,25,FALSE,3,3,NA,914,EQ,H0,2,fixmodel,0.024,-0.0024893447254166713,0.007875334739865087,0,1000
7,250,0,250,250,500,500,750,750,2,0,1,0,0,0,0,0,0,0,-0.375,-0.375,-0.375,-0.375,-0.375,-0.375,-0.375,-0.375,linear,0.025,TRUE,25,FALSE,3,3,NA,914,EQ,H0,2,fixmodel_cal,0.022,-0.002639319584939692,0.007824440795921263,0,1000
7,250,0,250,250,500,500,750,750,2,0,1,0,0,0,0,0,0,0,-0.375,-0.375,-0.375,-0.375,-0.375,-0.375,-0.375,-0.375,linear,0.025,TRUE,25,FALSE,3,3,NA,914,EQ,H0,2,poolmodel,0.008,-0.04810672033996144,0.009316785098199299,0,1000
7,250,0,250,250,500,500,750,750,2,0,1,0,0,0,0,0,0,0,-0.375,-0.375,-0.375,-0.375,-0.375,-0.375,-0.375,-0.375,linear,0.025,TRUE,25,FALSE,3,3,NA,914,EQ,H0,2,sepmodel,0.027,-0.002476710194825977,0.008474422359209227,0,1000
7,250,0,250,250,500,500,750,750,2,0,1,0,0,0,0,0,0,0,-0.375,-0.375,-0.375,-0.375,-0.375,-0.375,-0.375,-0.375,linear,0.025,TRUE,25,FALSE,3,3,NA,914,EQ,H0,2,splines,0.026,-0.002426883263078709,0.007732390827027486,0,1000
7,250,0,250,250,500,500,750,750,2,0,1,0,0,0,0,0,0,0,-0.375,-0.375,-0.375,-0.375,-0.375,-0.375,-0.375,-0.375,linear,0.025,TRUE,25,FALSE,3,3,NA,914,EQ,H0,2,splines_cal,0.025,-0.002898919183733314,0.007861207051373012,0,1000
7,250,0,250,250,500,500,750,750,2,0,1,0,0,0,0,0,0,0,-0.375,-0.375,-0.375,-0.375,-0.375,-0.375,-0.375,-0.375,linear,0.025,TRUE,25,FALSE,3,3,NA,914,EQ,H0,3,fixmodel,0.016,-0.004493995060826556,0.007292705559847514,0,1000
7,250,0,250,250,500,500,750,750,2,0,1,0,0,0,0,0,0,0,-0.375,-0.375,-0.375,-0.375,-0.375,-0.375,-0.375,-0.375,linear,0.025,TRUE,25,FALSE,3,3,NA,914,EQ,H0,3,fixmodel_cal,0.016,-0.004309420854074927,0.007303399734768398,0,1000
7,250,0,250,250,500,500,750,750,2,0,1,0,0,0,0,0,0,0,-0.375,-0.375,-0.375,-0.375,-0.375,-0.375,-0.375,-0.375,linear,0.025,TRUE,25,FALSE,3,3,NA,914,EQ,H0,3,poolmodel,0.004,-0.05011137067537162,0.009164850572363603,0,1000
7,250,0,250,250,500,500,750,750,2,0,1,0,0,0,0,0,0,0,-0.375,-0.375,-0.375,-0.375,-0.375,-0.375,-0.375,-0.375,linear,0.025,TRUE,25,FALSE,3,3,NA,914,EQ,H0,3,sepmodel,0.018,-0.0044813605302361755,0.007808660961548547,0,1000
7,250,0,250,250,500,500,750,750,2,0,1,0,0,0,0,0,0,0,-0.375,-0.375,-0.375,-0.375,-0.375,-0.375,-0.375,-0.375,linear,0.025,TRUE,25,FALSE,3,3,NA,914,EQ,H0,3,splines,0.016,-0.004431014617007499,0.007252022355293257,0,1000
7,250,0,250,250,500,500,750,750,2,0,1,0,0,0,0,0,0,0,-0.375,-0.375,-0.375,-0.375,-0.375,-0.375,-0.375,-0.375,linear,0.025,TRUE,25,FALSE,3,3,NA,914,EQ,H0,3,splines_cal,0.017,-0.004834913265542969,0.007257736841391417,0,1000
7,250,0,250,250,500,500,750,750,2,0,1,0,0,0,0,0,0,0,-0.375,-0.375,-0.375,-0.375,-0.375,-0.375,-0.375,-0.375,linear,0.025,TRUE,25,FALSE,3,3,NA,914,EQ,H0,4,fixmodel,0.028,-0.002639217117194242,0.007329486880778018,0,1000
7,250,0,250,250,500,500,750,750,2,0,1,0,0,0,0,0,0,0,-0.375,-0.375,-0.375,-0.375,-0.375,-0.375,-0.375,-0.375,linear,0.025,TRUE,25,FALSE,3,3,NA,914,EQ,H0,4,fixmodel_cal,0.029,-0.0028713623936280513,0.007291590474939496,0,1000
7,250,0,250,250,500,500,750,750,2,0,1,0,0,0,0,0,0,0,-0.375,-0.375,-0.375,-0.375,-0.375,-0.375,-0.375,-0.375,linear,0.025,TRUE,25,FALSE,3,3,NA,914,EQ,H0,4,poolmodel,0.002,-0.08391555812876977,0.013334894701706474,0,1000
7,250,0,250,250,500,500,750,750,2,0,1,0,0,0,0,0,0,0,-0.375,-0.375,-0.375,-0.375,-0.375,-0.375,-0.375,-0.375,linear,0.025,TRUE,25,FALSE,3,3,NA,914,EQ,H0,4,sepmodel,0.025,-0.003250295712508505,0.008403665839945684,0,1000
7,250,0,250,250,500,500,750,750,2,0,1,0,0,0,0,0,0,0,-0.375,-0.375,-0.375,-0.375,-0.375,-0.375,-0.375,-0.375,linear,0.025,TRUE,25,FALSE,3,3,NA,914,EQ,H0,4,splines,0.031,-0.0028516673999875526,0.00732482923073505,0,1000
7,250,0,250,250,500,500,750,750,2,0,1,0,0,0,0,0,0,0,-0.375,-0.375,-0.375,-0.375,-0.375,-0.375,-0.375,-0.375,linear,0.025,TRUE,25,FALSE,3,3,NA,914,EQ,H0,4,splines_cal,0.03,-0.0029969600884294724,0.00736181481367162,0,1000
7,250,0,250,250,500,500,750,750,2,0,1,0,0,0,0,0,0,0,-0.375,-0.375,-0.375,-0.375,-0.375,-0.375,-0.375,-0.375,linear,0.025,TRUE,25,FALSE,3,3,NA,914,EQ,H0,5,fixmodel,0.023,-0.004270458215583142,0.007399974143324541,0,1000
7,250,0,250,250,500,500,750,750,2,0,1,0,0,0,0,0,0,0,-0.375,-0.375,-0.375,-0.375,-0.375,-0.375,-0.375,-0.375,linear,0.025,TRUE,25,FALSE,3,3,NA,914,EQ,H0,5,fixmodel_cal,0.024,-0.004573157769824652,0.007407179407595497,0,1000
7,250,0,250,250,500,500,750,750,2,0,1,0,0,0,0,0,0,0,-0.375,-0.375,-0.375,-0.375,-0.375,-0.375,-0.375,-0.375,linear,0.025,TRUE,25,FALSE,3,3,NA,914,EQ,H0,5,poolmodel,0,-0.08554679922715872,0.013925764028532154,0,1000
7,250,0,250,250,500,500,750,750,2,0,1,0,0,0,0,0,0,0,-0.375,-0.375,-0.375,-0.375,-0.375,-0.375,-0.375,-0.375,linear,0.025,TRUE,25,FALSE,3,3,NA,914,EQ,H0,5,sepmodel,0.025,-0.004881536810897462,0.008418086621954365,0,1000
7,250,0,250,250,500,500,750,750,2,0,1,0,0,0,0,0,0,0,-0.375,-0.375,-0.375,-0.375,-0.375,-0.375,-0.375,-0.375,linear,0.025,TRUE,25,FALSE,3,3,NA,914,EQ,H0,5,splines,0.025,-0.004471320693695706,0.007425650249563605,0,1000
7,250,0,250,250,500,500,750,750,2,0,1,0,0,0,0,0,0,0,-0.375,-0.375,-0.375,-0.375,-0.375,-0.375,-0.375,-0.375,linear,0.025,TRUE,25,FALSE,3,3,NA,914,EQ,H0,5,splines_cal,0.025,-0.004477236148014873,0.007460966248880721,0,1000
7,250,0,250,250,500,500,750,750,2,0,1,0,0,0,0,0,0,0,-0.375,-0.375,-0.375,-0.375,-0.375,-0.375,-0.375,-0.375,linear,0.025,TRUE,25,FALSE,3,3,NA,914,EQ,H0,6,fixmodel,0.024,-3.9896091156608343e-4,0.0074701727942708355,0,1000
7,250,0,250,250,500,500,750,750,2,0,1,0,0,0,0,0,0,0,-0.375,-0.375,-0.375,-0.375,-0.375,-0.375,-0.375,-0.375,linear,0.025,TRUE,25,FALSE,3,3,NA,914,EQ,H0,6,fixmodel_cal,0.023,-6.052278881391126e-4,0.007461648930599171,0,1000
7,250,0,250,250,500,500,750,750,2,0,1,0,0,0,0,0,0,0,-0.375,-0.375,-0.375,-0.375,-0.375,-0.375,-0.375,-0.375,linear,0.025,TRUE,25,FALSE,3,3,NA,914,EQ,H0,6,poolmodel,0.001,-0.10567913560336491,0.017630141464521482,0,1000
7,250,0,250,250,500,500,750,750,2,0,1,0,0,0,0,0,0,0,-0.375,-0.375,-0.375,-0.375,-0.375,-0.375,-0.375,-0.375,linear,0.025,TRUE,25,FALSE,3,3,NA,914,EQ,H0,6,sepmodel,0.024,-4.199391786754034e-4,0.008729120927541486,0,1000
7,250,0,250,250,500,500,750,750,2,0,1,0,0,0,0,0,0,0,-0.375,-0.375,-0.375,-0.375,-0.375,-0.375,-0.375,-0.375,linear,0.025,TRUE,25,FALSE,3,3,NA,914,EQ,H0,6,splines,0.023,-4.1623662749935635e-4,0.0074032539101867465,0,1000
7,250,0,250,250,500,500,750,750,2,0,1,0,0,0,0,0,0,0,-0.375,-0.375,-0.375,-0.375,-0.375,-0.375,-0.375,-0.375,linear,0.025,TRUE,25,FALSE,3,3,NA,914,EQ,H0,6,splines_cal,0.024,-4.846126781504295e-4,0.007508807641787453,0,1000
7,250,0,250,250,500,500,750,750,2,0,1,0,0,0,0,0,0,0,-0.375,-0.375,-0.375,-0.375,-0.375,-0.375,-0.375,-0.375,linear,0.025,TRUE,25,FALSE,3,3,NA,914,EQ,H0,7,fixmodel,0.024,-0.0012641180419783332,0.007017558034583561,0,1000
7,250,0,250,250,500,500,750,750,2,0,1,0,0,0,0,0,0,0,-0.375,-0.375,-0.375,-0.375,-0.375,-0.375,-0.375,-0.375,linear,0.025,TRUE,25,FALSE,3,3,NA,914,EQ,H0,7,fixmodel_cal,0.022,-0.0010715288945485346,0.007015270432531328,0,1000
7,250,0,250,250,500,500,750,750,2,0,1,0,0,0,0,0,0,0,-0.375,-0.375,-0.375,-0.375,-0.375,-0.375,-0.375,-0.375,linear,0.025,TRUE,25,FALSE,3,3,NA,914,EQ,H0,7,poolmodel,0,-0.10654429273377725,0.0174653261612301,0,1000
7,250,0,250,250,500,500,750,750,2,0,1,0,0,0,0,0,0,0,-0.375,-0.375,-0.375,-0.375,-0.375,-0.375,-0.375,-0.375,linear,0.025,TRUE,25,FALSE,3,3,NA,914,EQ,H0,7,sepmodel,0.019,-0.0012850963090877598,0.008288513841180878,0,1000
7,250,0,250,250,500,500,750,750,2,0,1,0,0,0,0,0,0,0,-0.375,-0.375,-0.375,-0.375,-0.375,-0.375,-0.375,-0.375,linear,0.025,TRUE,25,FALSE,3,3,NA,914,EQ,H0,7,splines,0.022,-0.0012807506929924874,0.006964905268527094,0,1000
7,250,0,250,250,500,500,750,750,2,0,1,0,0,0,0,0,0,0,-0.375,-0.375,-0.375,-0.375,-0.375,-0.375,-0.375,-0.375,linear,0.025,TRUE,25,FALSE,3,3,NA,914,EQ,H0,7,splines_cal,0.023,-0.001281399161490881,0.007018932657544201,0,1000
7,250,0,250,250,500,500,750,750,2,0,1,0,0,0,0,0,0,0,-0.25,-0.25,-0.25,-0.25,-0.25,-0.25,-0.25,-0.25,linear,0.025,TRUE,25,FALSE,1,1,NA,914,EQ,H0,2,fixmodel,0.028,-0.0025355962429660377,0.007506378045016129,0,1000
7,250,0,250,250,500,500,750,750,2,0,1,0,0,0,0,0,0,0,-0.25,-0.25,-0.25,-0.25,-0.25,-0.25,-0.25,-0.25,linear,0.025,TRUE,25,FALSE,1,1,NA,914,EQ,H0,2,fixmodel_cal,0.028,-0.002758598678881483,0.007533295123099874,0,1000
7,250,0,250,250,500,500,750,750,2,0,1,0,0,0,0,0,0,0,-0.25,-0.25,-0.25,-0.25,-0.25,-0.25,-0.25,-0.25,linear,0.025,TRUE,25,FALSE,1,1,NA,914,EQ,H0,2,poolmodel,0.007,-0.030852484158969042,0.007698001304652083,0,1000
7,250,0,250,250,500,500,750,750,2,0,1,0,0,0,0,0,0,0,-0.25,-0.25,-0.25,-0.25,-0.25,-0.25,-0.25,-0.25,linear,0.025,TRUE,25,FALSE,1,1,NA,914,EQ,H0,2,sepmodel,0.028,-0.0023146227192692857,0.008303091309531616,0,1000
7,250,0,250,250,500,500,750,750,2,0,1,0,0,0,0,0,0,0,-0.25,-0.25,-0.25,-0.25,-0.25,-0.25,-0.25,-0.25,linear,0.025,TRUE,25,FALSE,1,1,NA,914,EQ,H0,2,splines,0.03,-0.002234434962513086,0.007506660801569933,0,1000
7,250,0,250,250,500,500,750,750,2,0,1,0,0,0,0,0,0,0,-0.25,-0.25,-0.25,-0.25,-0.25,-0.25,-0.25,-0.25,linear,0.025,TRUE,25,FALSE,1,1,NA,914,EQ,H0,2,splines_cal,0.026,-0.0026108303404324407,0.007468892875806134,0,1000
7,250,0,250,250,500,500,750,750,2,0,1,0,0,0,0,0,0,0,-0.25,-0.25,-0.25,-0.25,-0.25,-0.25,-0.25,-0.25,linear,0.025,TRUE,25,FALSE,1,1,NA,914,EQ,H0,3,fixmodel,0.022,-0.0048232136362383144,0.007719475069633288,0,1000
7,250,0,250,250,500,500,750,750,2,0,1,0,0,0,0,0,0,0,-0.25,-0.25,-0.25,-0.25,-0.25,-0.25,-0.25,-0.25,linear,0.025,TRUE,25,FALSE,1,1,NA,914,EQ,H0,3,fixmodel_cal,0.02,-0.004758323451904996,0.007774363606104008,0,1000
7,250,0,250,250,500,500,750,750,2,0,1,0,0,0,0,0,0,0,-0.25,-0.25,-0.25,-0.25,-0.25,-0.25,-0.25,-0.25,linear,0.025,TRUE,25,FALSE,1,1,NA,914,EQ,H0,3,poolmodel,0.01,-0.033140101552241535,0.00787862937723837,0,1000
7,250,0,250,250,500,500,750,750,2,0,1,0,0,0,0,0,0,0,-0.25,-0.25,-0.25,-0.25,-0.25,-0.25,-0.25,-0.25,linear,0.025,TRUE,25,FALSE,1,1,NA,914,EQ,H0,3,sepmodel,0.023,-0.0046022401125417585,0.00839815556280486,0,1000
7,250,0,250,250,500,500,750,750,2,0,1,0,0,0,0,0,0,0,-0.25,-0.25,-0.25,-0.25,-0.25,-0.25,-0.25,-0.25,linear,0.025,TRUE,25,FALSE,1,1,NA,914,EQ,H0,3,splines,0.025,-0.004522002816703791,0.007690717079103171,0,1000
7,250,0,250,250,500,500,750,750,2,0,1,0,0,0,0,0,0,0,-0.25,-0.25,-0.25,-0.25,-0.25,-0.25,-0.25,-0.25,linear,0.025,TRUE,25,FALSE,1,1,NA,914,EQ,H0,3,splines_cal,0.023,-0.004836969330573956,0.007709302223879068,0,1000
7,250,0,250,250,500,500,750,750,2,0,1,0,0,0,0,0,0,0,-0.25,-0.25,-0.25,-0.25,-0.25,-0.25,-0.25,-0.25,linear,0.025,TRUE,25,FALSE,1,1,NA,914,EQ,H0,4,fixmodel,0.024,-0.00420252045738575,0.007316403390568704,0,1000
7,250,0,250,250,500,500,750,750,2,0,1,0,0,0,0,0,0,0,-0.25,-0.25,-0.25,-0.25,-0.25,-0.25,-0.25,-0.25,linear,0.025,TRUE,25,FALSE,1,1,NA,914,EQ,H0,4,fixmodel_cal,0.021,-0.00368300609694324,0.007371032279921999,0,1000
7,250,0,250,250,500,500,750,750,2,0,1,0,0,0,0,0,0,0,-0.25,-0.25,-0.25,-0.25,-0.25,-0.25,-0.25,-0.25,linear,0.025,TRUE,25,FALSE,1,1,NA,914,EQ,H0,4,poolmodel,0.004,-0.05675918878872093,0.00964099750950871,0,1000
7,250,0,250,250,500,500,750,750,2,0,1,0,0,0,0,0,0,0,-0.25,-0.25,-0.25,-0.25,-0.25,-0.25,-0.25,-0.25,linear,0.025,TRUE,25,FALSE,1,1,NA,914,EQ,H0,4,sepmodel,0.02,-0.004436838090870113,0.008172136345192482,0,1000
7,250,0,250,250,500,500,750,750,2,0,1,0,0,0,0,0,0,0,-0.25,-0.25,-0.25,-0.25,-0.25,-0.25,-0.25,-0.25,linear,0.025,TRUE,25,FALSE,1,1,NA,914,EQ,H0,4,splines,0.025,-0.004046496750279122,0.007234411464798404,0,1000
7,250,0,250,250,500,500,750,750,2,0,1,0,0,0,0,0,0,0,-0.25,-0.25,-0.25,-0.25,-0.25,-0.25,-0.25,-0.25,linear,0.025,TRUE,25,FALSE,1,1,NA,914,EQ,H0,4,splines_cal,0.025,-0.003809420624918348,0.007366383024598135,0,1000
7,250,0,250,250,500,500,750,750,2,0,1,0,0,0,0,0,0,0,-0.25,-0.25,-0.25,-0.25,-0.25,-0.25,-0.25,-0.25,linear,0.025,TRUE,25,FALSE,1,1,NA,914,EQ,H0,5,fixmodel,0.016,-0.0015012141546780768,0.007012918513170595,0,1000
7,250,0,250,250,500,500,750,750,2,0,1,0,0,0,0,0,0,0,-0.25,-0.25,-0.25,-0.25,-0.25,-0.25,-0.25,-0.25,linear,0.025,TRUE,25,FALSE,1,1,NA,914,EQ,H0,5,fixmodel_cal,0.014,-8.415698232958558e-4,0.0070985933966806105,0,1000
7,250,0,250,250,500,500,750,750,2,0,1,0,0,0,0,0,0,0,-0.25,-0.25,-0.25,-0.25,-0.25,-0.25,-0.25,-0.25,linear,0.025,TRUE,25,FALSE,1,1,NA,914,EQ,H0,5,poolmodel,0.001,-0.05405788248601316,0.009088398267500235,0,1000
7,250,0,250,250,500,500,750,750,2,0,1,0,0,0,0,0,0,0,-0.25,-0.25,-0.25,-0.25,-0.25,-0.25,-0.25,-0.25,linear,0.025,TRUE,25,FALSE,1,1,NA,914,EQ,H0,5,sepmodel,0.02,-0.00173553178816233,0.007994214934142782,0,1000
7,250,0,250,250,500,500,750,750,2,0,1,0,0,0,0,0,0,0,-0.25,-0.25,-0.25,-0.25,-0.25,-0.25,-0.25,-0.25,linear,0.025,TRUE,25,FALSE,1,1,NA,914,EQ,H0,5,splines,0.015,-0.0013399303523405322,0.0070036246615412644,0,1000
7,250,0,250,250,500,500,750,750,2,0,1,0,0,0,0,0,0,0,-0.25,-0.25,-0.25,-0.25,-0.25,-0.25,-0.25,-0.25,linear,0.025,TRUE,25,FALSE,1,1,NA,914,EQ,H0,5,splines_cal,0.017,-0.0010320486452074628,0.007034362493167086,0,1000
7,250,0,250,250,500,500,750,750,2,0,1,0,0,0,0,0,0,0,-0.25,-0.25,-0.25,-0.25,-0.25,-0.25,-0.25,-0.25,linear,0.025,TRUE,25,FALSE,1,1,NA,914,EQ,H0,6,fixmodel,0.026,-6.858425628016332e-4,0.007316110903734052,0,1000
7,250,0,250,250,500,500,750,750,2,0,1,0,0,0,0,0,0,0,-0.25,-0.25,-0.25,-0.25,-0.25,-0.25,-0.25,-0.25,linear,0.025,TRUE,25,FALSE,1,1,NA,914,EQ,H0,6,fixmodel_cal,0.021,-8.114850027953129e-4,0.0073488199341378525,0,1000
7,250,0,250,250,500,500,750,750,2,0,1,0,0,0,0,0,0,0,-0.25,-0.25,-0.25,-0.25,-0.25,-0.25,-0.25,-0.25,linear,0.025,TRUE,25,FALSE,1,1,NA,914,EQ,H0,6,poolmodel,0.001,-0.07046686676103048,0.011439085094120905,0,1000
7,250,0,250,250,500,500,750,750,2,0,1,0,0,0,0,0,0,0,-0.25,-0.25,-0.25,-0.25,-0.25,-0.25,-0.25,-0.25,linear,0.025,TRUE,25,FALSE,1,1,NA,914,EQ,H0,6,sepmodel,0.024,2.1283809230408402e-4,0.00839934513929815,0,1000
7,250,0,250,250,500,500,750,750,2,0,1,0,0,0,0,0,0,0,-0.25,-0.25,-0.25,-0.25,-0.25,-0.25,-0.25,-0.25,linear,0.025,TRUE,25,FALSE,1,1,NA,914,EQ,H0,6,splines,0.026,-7.855270783059562e-4,0.007327189490171938,0,1000
7,250,0,250,250,500,500,750,750,2,0,1,0,0,0,0,0,0,0,-0.25,-0.25,-0.25,-0.25,-0.25,-0.25,-0.25,-0.25,linear,0.025,TRUE,25,FALSE,1,1,NA,914,EQ,H0,6,splines_cal,0.027,-6.412154826360728e-4,0.007310438961503137,0,1000
7,250,0,250,250,500,500,750,750,2,0,1,0,0,0,0,0,0,0,-0.25,-0.25,-0.25,-0.25,-0.25,-0.25,-0.25,-0.25,linear,0.025,TRUE,25,FALSE,1,1,NA,914,EQ,H0,7,fixmodel,0.024,0.002680789164219788,0.006464341900876813,0,1000
7,250,0,250,250,500,500,750,750,2,0,1,0,0,0,0,0,0,0,-0.25,-0.25,-0.25,-0.25,-0.25,-0.25,-0.25,-0.25,linear,0.025,TRUE,25,FALSE,1,1,NA,914,EQ,H0,7,fixmodel_cal,0.026,0.0026967755487939432,0.0065720334386135115,0,1000
7,250,0,250,250,500,500,750,750,2,0,1,0,0,0,0,0,0,0,-0.25,-0.25,-0.25,-0.25,-0.25,-0.25,-0.25,-0.25,linear,0.025,TRUE,25,FALSE,1,1,NA,914,EQ,H0,7,poolmodel,0.003,-0.06710023503400908,0.010159472772722387,0,1000
7,250,0,250,250,500,500,750,750,2,0,1,0,0,0,0,0,0,0,-0.25,-0.25,-0.25,-0.25,-0.25,-0.25,-0.25,-0.25,linear,0.025,TRUE,25,FALSE,1,1,NA,914,EQ,H0,7,sepmodel,0.024,0.0035794698193254977,0.007467773894841247,0,1000
7,250,0,250,250,500,500,750,750,2,0,1,0,0,0,0,0,0,0,-0.25,-0.25,-0.25,-0.25,-0.25,-0.25,-0.25,-0.25,linear,0.025,TRUE,25,FALSE,1,1,NA,914,EQ,H0,7,splines,0.024,0.002574889735360392,0.006458202997454633,0,1000
7,250,0,250,250,500,500,750,750,2,0,1,0,0,0,0,0,0,0,-0.25,-0.25,-0.25,-0.25,-0.25,-0.25,-0.25,-0.25,linear,0.025,TRUE,25,FALSE,1,1,NA,914,EQ,H0,7,splines_cal,0.025,0.0028810032950188596,0.006476418268145964,0,1000
7,250,0,250,250,500,500,750,750,2,0,1,0,0,0,0,0,0,0,-0.25,-0.25,-0.25,-0.25,-0.25,-0.25,-0.25,-0.25,linear,0.025,TRUE,25,FALSE,2,2,NA,914,EQ,H0,2,fixmodel,0.021,-0.0014557498558596025,0.006769014259206901,0,1000
7,250,0,250,250,500,500,750,750,2,0,1,0,0,0,0,0,0,0,-0.25,-0.25,-0.25,-0.25,-0.25,-0.25,-0.25,-0.25,linear,0.025,TRUE,25,FALSE,2,2,NA,914,EQ,H0,2,fixmodel_cal,0.023,-0.0016959509120324733,0.006824450740358467,0,1000
7,250,0,250,250,500,500,750,750,2,0,1,0,0,0,0,0,0,0,-0.25,-0.25,-0.25,-0.25,-0.25,-0.25,-0.25,-0.25,linear,0.025,TRUE,25,FALSE,2,2,NA,914,EQ,H0,2,poolmodel,0.009,-0.03127777137501286,0.0069035660218474074,0,1000
7,250,0,250,250,500,500,750,750,2,0,1,0,0,0,0,0,0,0,-0.25,-0.25,-0.25,-0.25,-0.25,-0.25,-0.25,-0.25,linear,0.025,TRUE,25,FALSE,2,2,NA,914,EQ,H0,2,sepmodel,0.022,-9.151773209235726e-4,0.007280265022047605,0,1000
7,250,0,250,250,500,500,750,750,2,0,1,0,0,0,0,0,0,0,-0.25,-0.25,-0.25,-0.25,-0.25,-0.25,-0.25,-0.25,linear,0.025,TRUE,25,FALSE,2,2,NA,914,EQ,H0,2,splines,0.02,-0.0010314741603830685,0.006696478186710533,0,1000
7,250,0,250,250,500,500,750,750,2,0,1,0,0,0,0,0,0,0,-0.25,-0.25,-0.25,-0.25,-0.25,-0.25,-0.25,-0.25,linear,0.025,TRUE,25,FALSE,2,2,NA,914,EQ,H0,2,splines_cal,0.019,-0.0013837012197379425,0.006735702769496615,0,1000
7,250,0,250,250,500,500,750,750,2,0,1,0,0,0,0,0,0,0,-0.25,-0.25,-0.25,-0.25,-0.25,-0.25,-0.25,-0.25,linear,0.025,TRUE,25,FALSE,2,2,NA,914,EQ,H0,3,fixmodel,0.03,-2.933125547179433e-4,0.00805689319805146,0,1000
7,250,0,250,250,500,500,750,750,2,0,1,0,0,0,0,0,0,0,-0.25,-0.25,-0.25,-0.25,-0.25,-0.25,-0.25,-0.25,linear,0.025,TRUE,25,FALSE,2,2,NA,914,EQ,H0,3,fixmodel_cal,0.031,-3.220451716321154e-4,0.008118695771182892,0,1000
7,250,0,250,250,500,500,750,750,2,0,1,0,0,0,0,0,0,0,-0.25,-0.25,-0.25,-0.25,-0.25,-0.25,-0.25,-0.25,linear,0.025,TRUE,25,FALSE,2,2,NA,914,EQ,H0,3,poolmodel,0.009,-0.03011533407387137,0.008135647314785995,0,1000
7,250,0,250,250,500,500,750,750,2,0,1,0,0,0,0,0,0,0,-0.25,-0.25,-0.25,-0.25,-0.25,-0.25,-0.25,-0.25,linear,0.025,TRUE,25,FALSE,2,2,NA,914,EQ,H0,3,sepmodel,0.029,2.472599802179325e-4,0.008551219081197029,0,1000
7,250,0,250,250,500,500,750,750,2,0,1,0,0,0,0,0,0,0,-0.25,-0.25,-0.25,-0.25,-0.25,-0.25,-0.25,-0.25,linear,0.025,TRUE,25,FALSE,2,2,NA,914,EQ,H0,3,splines,0.032,1.2656664146439237e-4,0.00794278819859072,0,1000
7,250,0,250,250,500,500,750,750,2,0,1,0,0,0,0,0,0,0,-0.25,-0.25,-0.25,-0.25,-0.25,-0.25,-0.25,-0.25,linear,0.025,TRUE,25,FALSE,2,2,NA,914,EQ,H0,3,splines_cal,0.03,-9.534296145453197e-5,0.008065843368869915,0,1000
7,250,0,250,250,500,500,750,750,2,0,1,0,0,0,0,0,0,0,-0.25,-0.25,-0.25,-0.25,-0.25,-0.25,-0.25,-0.25,linear,0.025,TRUE,25,FALSE,2,2,NA,914,EQ,H0,4,fixmodel,0.029,0.0036521970555321946,0.007347272282525739,0,1000
7,250,0,250,250,500,500,750,750,2,0,1,0,0,0,0,0,0,0,-0.25,-0.25,-0.25,-0.25,-0.25,-0.25,-0.25,-0.25,linear,0.025,TRUE,25,FALSE,2,2,NA,914,EQ,H0,4,fixmodel_cal,0.033,0.0032948327742185913,0.00733258553289767,0,1000
7,250,0,250,250,500,500,750,750,2,0,1,0,0,0,0,0,0,0,-0.25,-0.25,-0.25,-0.25,-0.25,-0.25,-0.25,-0.25,linear,0.025,TRUE,25,FALSE,2,2,NA,914,EQ,H0,4,poolmodel,0.006,-0.050467141686115456,0.008756162992543986,0,1000
7,250,0,250,250,500,500,750,750,2,0,1,0,0,0,0,0,0,0,-0.25,-0.25,-0.25,-0.25,-0.25,-0.25,-0.25,-0.25,linear,0.025,TRUE,25,FALSE,2,2,NA,914,EQ,H0,4,sepmodel,0.033,0.0034396188388951736,0.00803515600973186,0,1000
7,250,0,250,250,500,500,750,750,2,0,1,0,0,0,0,0,0,0,-0.25,-0.25,-0.25,-0.25,-0.25,-0.25,-0.25,-0.25,linear,0.025,TRUE,25,FALSE,2,2,NA,914,EQ,H0,4,splines,0.03,0.004166428946578138,0.007312436967662405,0,1000
7,250,0,250,250,500,500,750,750,2,0,1,0,0,0,0,0,0,0,-0.25,-0.25,-0.25,-0.25,-0.25,-0.25,-0.25,-0.25,linear,0.025,TRUE,25,FALSE,2,2,NA,914,EQ,H0,4,splines_cal,0.031,0.003154546500297834,0.007299532113439531,0,1000
7,250,0,250,250,500,500,750,750,2,0,1,0,0,0,0,0,0,0,-0.25,-0.25,-0.25,-0.25,-0.25,-0.25,-0.25,-0.25,linear,0.025,TRUE,25,FALSE,2,2,NA,914,EQ,H0,5,fixmodel,0.021,-5.368529323030394e-4,0.0067323166569367545,0,1000
7,250,0,250,250,500,500,750,750,2,0,1,0,0,0,0,0,0,0,-0.25,-0.25,-0.25,-0.25,-0.25,-0.25,-0.25,-0.25,linear,0.025,TRUE,25,FALSE,2,2,NA,914,EQ,H0,5,fixmodel_cal,0.017,-0.0013724033087424712,0.006814071764689694,0,1000
7,250,0,250,250,500,500,750,750,2,0,1,0,0,0,0,0,0,0,-0.25,-0.25,-0.25,-0.25,-0.25,-0.25,-0.25,-0.25,linear,0.025,TRUE,25,FALSE,2,2,NA,914,EQ,H0,5,poolmodel,0,-0.054656191673950597,0.008733904554254832,0,1000
7,250,0,250,250,500,500,750,750,2,0,1,0,0,0,0,0,0,0,-0.25,-0.25,-0.25,-0.25,-0.25,-0.25,-0.25,-0.25,linear,0.025,TRUE,25,FALSE,2,2,NA,914,EQ,H0,5,sepmodel,0.018,-7.494311489400003e-4,0.007537604428731687,0,1000
7,250,0,250,250,500,500,750,750,2,0,1,0,0,0,0,0,0,0,-0.25,-0.25,-0.25,-0.25,-0.25,-0.25,-0.25,-0.25,linear,0.025,TRUE,25,FALSE,2,2,NA,914,EQ,H0,5,splines,0.021,-2.4015882733718396e-5,0.006698872185836903,0,1000
7,250,0,250,250,500,500,750,750,2,0,1,0,0,0,0,0,0,0,-0.25,-0.25,-0.25,-0.25,-0.25,-0.25,-0.25,-0.25,linear,0.025,TRUE,25,FALSE,2,2,NA,914,EQ,H0,5,splines_cal,0.019,-0.001262831628402554,0.006781900954403779,0,1000
7,250,0,250,250,500,500,750,750,2,0,1,0,0,0,0,0,0,0,-0.25,-0.25,-0.25,-0.25,-0.25,-0.25,-0.25,-0.25,linear,0.025,TRUE,25,FALSE,2,2,NA,914,EQ,H0,6,fixmodel,0.02,-7.895356133357867e-4,0.007174338476508852,0,1000
7,250,0,250,250,500,500,750,750,2,0,1,0,0,0,0,0,0,0,-0.25,-0.25,-0.25,-0.25,-0.25,-0.25,-0.25,-0.25,linear,0.025,TRUE,25,FALSE,2,2,NA,914,EQ,H0,6,fixmodel_cal,0.02,-7.724117183045957e-4,0.007247215046948751,0,1000
7,250,0,250,250,500,500,750,750,2,0,1,0,0,0,0,0,0,0,-0.25,-0.25,-0.25,-0.25,-0.25,-0.25,-0.25,-0.25,linear,0.025,TRUE,25,FALSE,2,2,NA,914,EQ,H0,6,poolmodel,0,-0.0715465060329752,0.011216739914345268,0,1000
7,250,0,250,250,500,500,750,750,2,0,1,0,0,0,0,0,0,0,-0.25,-0.25,-0.25,-0.25,-0.25,-0.25,-0.25,-0.25,linear,0.025,TRUE,25,FALSE,2,2,NA,914,EQ,H0,6,sepmodel,0.025,-0.0014367520826184714,0.007999952590367022,0,1000
7,250,0,250,250,500,500,750,750,2,0,1,0,0,0,0,0,0,0,-0.25,-0.25,-0.25,-0.25,-0.25,-0.25,-0.25,-0.25,linear,0.025,TRUE,25,FALSE,2,2,NA,914,EQ,H0,6,splines,0.019,-6.028397094078519e-4,0.007095128853626192,0,1000
7,250,0,250,250,500,500,750,750,2,0,1,0,0,0,0,0,0,0,-0.25,-0.25,-0.25,-0.25,-0.25,-0.25,-0.25,-0.25,linear,0.025,TRUE,25,FALSE,2,2,NA,914,EQ,H0,6,splines_cal,0.018,-6.657059916739337e-4,0.007187605175119167,0,1000
7,250,0,250,250,500,500,750,750,2,0,1,0,0,0,0,0,0,0,-0.25,-0.25,-0.25,-0.25,-0.25,-0.25,-0.25,-0.25,linear,0.025,TRUE,25,FALSE,2,2,NA,914,EQ,H0,7,fixmodel,0.04,0.004029236840403092,0.007845501620448565,0,1000
7,250,0,250,250,500,500,750,750,2,0,1,0,0,0,0,0,0,0,-0.25,-0.25,-0.25,-0.25,-0.25,-0.25,-0.25,-0.25,linear,0.025,TRUE,25,FALSE,2,2,NA,914,EQ,H0,7,fixmodel_cal,0.043,0.0041002729231776665,0.00793586511873771,0,1000
7,250,0,250,250,500,500,750,750,2,0,1,0,0,0,0,0,0,0,-0.25,-0.25,-0.25,-0.25,-0.25,-0.25,-0.25,-0.25,linear,0.025,TRUE,25,FALSE,2,2,NA,914,EQ,H0,7,poolmodel,0.006,-0.06672773357923643,0.011041943698544752,0,1000
7,250,0,250,250,500,500,750,750,2,0,1,0,0,0,0,0,0,0,-0.25,-0.25,-0.25,-0.25,-0.25,-0.25,-0.25,-0.25,linear,0.025,TRUE,25,FALSE,2,2,NA,914,EQ,H0,7,sepmodel,0.036,0.0033820203711203197,0.008940734072803692,0,1000
7,250,0,250,250,500,500,750,750,2,0,1,0,0,0,0,0,0,0,-0.25,-0.25,-0.25,-0.25,-0.25,-0.25,-0.25,-0.25,linear,0.025,TRUE,25,FALSE,2,2,NA,914,EQ,H0,7,splines,0.04,0.004222273334248489,0.00778850695328658,0,1000
7,250,0,250,250,500,500,750,750,2,0,1,0,0,0,0,0,0,0,-0.25,-0.25,-0.25,-0.25,-0.25,-0.25,-0.25,-0.25,linear,0.025,TRUE,25,FALSE,2,2,NA,914,EQ,H0,7,splines_cal,0.043,0.004120447700220315,0.007875713106455256,0,1000
7,250,0,250,250,500,500,750,750,2,0,1,0,0,0,0,0,0,0,-0.25,-0.25,-0.25,-0.25,-0.25,-0.25,-0.25,-0.25,linear,0.025,TRUE,25,FALSE,3,3,NA,914,EQ,H0,2,fixmodel,0.02,-4.996172145746894e-4,0.007108663047134734,0,1000
7,250,0,250,250,500,500,750,750,2,0,1,0,0,0,0,0,0,0,-0.25,-0.25,-0.25,-0.25,-0.25,-0.25,-0.25,-0.25,linear,0.025,TRUE,25,FALSE,3,3,NA,914,EQ,H0,2,fixmodel_cal,0.022,-5.821640568324571e-4,0.007105950397401819,0,1000
7,250,0,250,250,500,500,750,750,2,0,1,0,0,0,0,0,0,0,-0.25,-0.25,-0.25,-0.25,-0.25,-0.25,-0.25,-0.25,linear,0.025,TRUE,25,FALSE,3,3,NA,914,EQ,H0,2,poolmodel,0.008,-0.031352232775253015,0.007700541596465879,0,1000
7,250,0,250,250,500,500,750,750,2,0,1,0,0,0,0,0,0,0,-0.25,-0.25,-0.25,-0.25,-0.25,-0.25,-0.25,-0.25,linear,0.025,TRUE,25,FALSE,3,3,NA,914,EQ,H0,2,sepmodel,0.023,3.009591857913546e-4,0.007656249918969044,0,1000
7,250,0,250,250,500,500,750,750,2,0,1,0,0,0,0,0,0,0,-0.25,-0.25,-0.25,-0.25,-0.25,-0.25,-0.25,-0.25,linear,0.025,TRUE,25,FALSE,3,3,NA,914,EQ,H0,2,splines,0.025,-5.754337902817494e-4,0.007051117126681616,0,1000
7,250,0,250,250,500,500,750,750,2,0,1,0,0,0,0,0,0,0,-0.25,-0.25,-0.25,-0.25,-0.25,-0.25,-0.25,-0.25,linear,0.025,TRUE,25,FALSE,3,3,NA,914,EQ,H0,2,splines_cal,0.023,-3.1734150319866927e-4,0.007118112903815997,0,1000
7,250,0,250,250,500,500,750,750,2,0,1,0,0,0,0,0,0,0,-0.25,-0.25,-0.25,-0.25,-0.25,-0.25,-0.25,-0.25,linear,0.025,TRUE,25,FALSE,3,3,NA,914,EQ,H0,3,fixmodel,0.02,-2.4983371631284046e-5,0.007098688822081252,0,1000
7,250,0,250,250,500,500,750,750,2,0,1,0,0,0,0,0,0,0,-0.25,-0.25,-0.25,-0.25,-0.25,-0.25,-0.25,-0.25,linear,0.025,TRUE,25,FALSE,3,3,NA,914,EQ,H0,3,fixmodel_cal,0.02,2.699177102405789e-4,0.007083772040497092,0,1000
7,250,0,250,250,500,500,750,750,2,0,1,0,0,0,0,0,0,0,-0.25,-0.25,-0.25,-0.25,-0.25,-0.25,-0.25,-0.25,linear,0.025,TRUE,25,FALSE,3,3,NA,914,EQ,H0,3,poolmodel,0.01,-0.03087759893230986,0.0072304897526830085,0,1000
7,250,0,250,250,500,500,750,750,2,0,1,0,0,0,0,0,0,0,-0.25,-0.25,-0.25,-0.25,-0.25,-0.25,-0.25,-0.25,linear,0.025,TRUE,25,FALSE,3,3,NA,914,EQ,H0,3,sepmodel,0.021,7.755930287345011e-4,0.007814279256563004,0,1000
7,250,0,250,250,500,500,750,750,2,0,1,0,0,0,0,0,0,0,-0.25,-0.25,-0.25,-0.25,-0.25,-0.25,-0.25,-0.25,linear,0.025,TRUE,25,FALSE,3,3,NA,914,EQ,H0,3,splines,0.02,-1.0794370591746311e-4,0.00697866748060378,0,1000
7,250,0,250,250,500,500,750,750,2,0,1,0,0,0,0,0,0,0,-0.25,-0.25,-0.25,-0.25,-0.25,-0.25,-0.25,-0.25,linear,0.025,TRUE,25,FALSE,3,3,NA,914,EQ,H0,3,splines_cal,0.02,-1.3826707293017125e-5,0.007072579059183958,0,1000
7,250,0,250,250,500,500,750,750,2,0,1,0,0,0,0,0,0,0,-0.25,-0.25,-0.25,-0.25,-0.25,-0.25,-0.25,-0.25,linear,0.025,TRUE,25,FALSE,3,3,NA,914,EQ,H0,4,fixmodel,0.029,6.992114490388807e-4,0.0072675974946926625,0,1000
7,250,0,250,250,500,500,750,750,2,0,1,0,0,0,0,0,0,0,-0.25,-0.25,-0.25,-0.25,-0.25,-0.25,-0.25,-0.25,linear,0.025,TRUE,25,FALSE,3,3,NA,914,EQ,H0,4,fixmodel_cal,0.03,5.782482660186818e-4,0.0072243499318085,0,1000
7,250,0,250,250,500,500,750,750,2,0,1,0,0,0,0,0,0,0,-0.25,-0.25,-0.25,-0.25,-0.25,-0.25,-0.25,-0.25,linear,0.025,TRUE,25,FALSE,3,3,NA,914,EQ,H0,4,poolmodel,0.006,-0.0539709610089153,0.009351112806862244,0,1000
7,250,0,250,250,500,500,750,750,2,0,1,0,0,0,0,0,0,0,-0.25,-0.25,-0.25,-0.25,-0.25,-0.25,-0.25,-0.25,linear,0.025,TRUE,25,FALSE,3,3,NA,914,EQ,H0,4,sepmodel,0.031,0.0012877134413977625,0.008181549467900584,0,1000
7,250,0,250,250,500,500,750,750,2,0,1,0,0,0,0,0,0,0,-0.25,-0.25,-0.25,-0.25,-0.25,-0.25,-0.25,-0.25,linear,0.025,TRUE,25,FALSE,3,3,NA,914,EQ,H0,4,splines,0.027,8.235391790191978e-4,0.007225511194515865,0,1000
7,250,0,250,250,500,500,750,750,2,0,1,0,0,0,0,0,0,0,-0.25,-0.25,-0.25,-0.25,-0.25,-0.25,-0.25,-0.25,linear,0.025,TRUE,25,FALSE,3,3,NA,914,EQ,H0,4,splines_cal,0.032,6.514216760358893e-4,0.007231034504315474,0,1000
7,250,0,250,250,500,500,750,750,2,0,1,0,0,0,0,0,0,0,-0.25,-0.25,-0.25,-0.25,-0.25,-0.25,-0.25,-0.25,linear,0.025,TRUE,25,FALSE,3,3,NA,914,EQ,H0,5,fixmodel,0.02,-0.003795598123504795,0.007611568824671112,0,1000
7,250,0,250,250,500,500,750,750,2,0,1,0,0,0,0,0,0,0,-0.25,-0.25,-0.25,-0.25,-0.25,-0.25,-0.25,-0.25,linear,0.025,TRUE,25,FALSE,3,3,NA,914,EQ,H0,5,fixmodel_cal,0.021,-0.003324581673705771,0.007561876797873315,0,1000
7,250,0,250,250,500,500,750,750,2,0,1,0,0,0,0,0,0,0,-0.25,-0.25,-0.25,-0.25,-0.25,-0.25,-0.25,-0.25,linear,0.025,TRUE,25,FALSE,3,3,NA,914,EQ,H0,5,poolmodel,0.005,-0.058465770581458965,0.010197368326065085,0,1000
7,250,0,250,250,500,500,750,750,2,0,1,0,0,0,0,0,0,0,-0.25,-0.25,-0.25,-0.25,-0.25,-0.25,-0.25,-0.25,linear,0.025,TRUE,25,FALSE,3,3,NA,914,EQ,H0,5,sepmodel,0.023,-0.0032070961311459196,0.008619313701507487,0,1000
7,250,0,250,250,500,500,750,750,2,0,1,0,0,0,0,0,0,0,-0.25,-0.25,-0.25,-0.25,-0.25,-0.25,-0.25,-0.25,linear,0.025,TRUE,25,FALSE,3,3,NA,914,EQ,H0,5,splines,0.019,-0.0036722968941415176,0.0075783569967135,0,1000
7,250,0,250,250,500,500,750,750,2,0,1,0,0,0,0,0,0,0,-0.25,-0.25,-0.25,-0.25,-0.25,-0.25,-0.25,-0.25,linear,0.025,TRUE,25,FALSE,3,3,NA,914,EQ,H0,5,splines_cal,0.02,-0.0037785312296755007,0.007585462946270766,0,1000
7,250,0,250,250,500,500,750,750,2,0,1,0,0,0,0,0,0,0,-0.25,-0.25,-0.25,-0.25,-0.25,-0.25,-0.25,-0.25,linear,0.025,TRUE,25,FALSE,3,3,NA,914,EQ,H0,6,fixmodel,0.02,-0.0029682204925095632,0.006965858997416533,0,1000
7,250,0,250,250,500,500,750,750,2,0,1,0,0,0,0,0,0,0,-0.25,-0.25,-0.25,-0.25,-0.25,-0.25,-0.25,-0.25,linear,0.025,TRUE,25,FALSE,3,3,NA,914,EQ,H0,6,fixmodel_cal,0.022,-0.003173491220729002,0.007035893706750743,0,1000
7,250,0,250,250,500,500,750,750,2,0,1,0,0,0,0,0,0,0,-0.25,-0.25,-0.25,-0.25,-0.25,-0.25,-0.25,-0.25,linear,0.025,TRUE,25,FALSE,3,3,NA,914,EQ,H0,6,poolmodel,0,-0.07356441716766185,0.011539031714519797,0,1000
7,250,0,250,250,500,500,750,750,2,0,1,0,0,0,0,0,0,0,-0.25,-0.25,-0.25,-0.25,-0.25,-0.25,-0.25,-0.25,linear,0.025,TRUE,25,FALSE,3,3,NA,914,EQ,H0,6,sepmodel,0.021,-0.00211094007228044,0.008158755681326558,0,1000
7,250,0,250,250,500,500,750,750,2,0,1,0,0,0,0,0,0,0,-0.25,-0.25,-0.25,-0.25,-0.25,-0.25,-0.25,-0.25,linear,0.025,TRUE,25,FALSE,3,3,NA,914,EQ,H0,6,splines,0.019,-0.003030480908531033,0.006876193863081704,0,1000
7,250,0,250,250,500,500,750,750,2,0,1,0,0,0,0,0,0,0,-0.25,-0.25,-0.25,-0.25,-0.25,-0.25,-0.25,-0.25,linear,0.025,TRUE,25,FALSE,3,3,NA,914,EQ,H0,6,splines_cal,0.018,-0.0031725304074606817,0.007014816397085324,0,1000
7,250,0,250,250,500,500,750,750,2,0,1,0,0,0,0,0,0,0,-0.25,-0.25,-0.25,-0.25,-0.25,-0.25,-0.25,-0.25,linear,0.025,TRUE,25,FALSE,3,3,NA,914,EQ,H0,7,fixmodel,0.019,-0.004222025010047838,0.007088986441557479,0,1000
7,250,0,250,250,500,500,750,750,2,0,1,0,0,0,0,0,0,0,-0.25,-0.25,-0.25,-0.25,-0.25,-0.25,-0.25,-0.25,linear,0.025,TRUE,25,FALSE,3,3,NA,914,EQ,H0,7,fixmodel_cal,0.019,-0.004241366868165078,0.007163937620052027,0,1000
7,250,0,250,250,500,500,750,750,2,0,1,0,0,0,0,0,0,0,-0.25,-0.25,-0.25,-0.25,-0.25,-0.25,-0.25,-0.25,linear,0.025,TRUE,25,FALSE,3,3,NA,914,EQ,H0,7,poolmodel,0.004,-0.07481822168520012,0.011850575243207439,0,1000
7,250,0,250,250,500,500,750,750,2,0,1,0,0,0,0,0,0,0,-0.25,-0.25,-0.25,-0.25,-0.25,-0.25,-0.25,-0.25,linear,0.025,TRUE,25,FALSE,3,3,NA,914,EQ,H0,7,sepmodel,0.018,-0.003364744589818694,0.00818069307169243,0,1000
7,250,0,250,250,500,500,750,750,2,0,1,0,0,0,0,0,0,0,-0.25,-0.25,-0.25,-0.25,-0.25,-0.25,-0.25,-0.25,linear,0.025,TRUE,25,FALSE,3,3,NA,914,EQ,H0,7,splines,0.02,-0.004283869583813652,0.007044731980444437,0,1000
7,250,0,250,250,500,500,750,750,2,0,1,0,0,0,0,0,0,0,-0.25,-0.25,-0.25,-0.25,-0.25,-0.25,-0.25,-0.25,linear,0.025,TRUE,25,FALSE,3,3,NA,914,EQ,H0,7,splines_cal,0.018,-0.004330600424401626,0.0071187263383940234,0,1000
7,250,0,250,250,500,500,750,750,2,0,1,0,0,0,0,0,0,0,-0.125,-0.125,-0.125,-0.125,-0.125,-0.125,-0.125,-0.125,linear,0.025,TRUE,25,FALSE,1,1,NA,914,EQ,H0,2,fixmodel,0.026,-5.816753687446423e-4,0.006933408136208246,0,1000
7,250,0,250,250,500,500,750,750,2,0,1,0,0,0,0,0,0,0,-0.125,-0.125,-0.125,-0.125,-0.125,-0.125,-0.125,-0.125,linear,0.025,TRUE,25,FALSE,1,1,NA,914,EQ,H0,2,fixmodel_cal,0.028,-6.040042557943023e-4,0.007017473346019819,0,1000
7,250,0,250,250,500,500,750,750,2,0,1,0,0,0,0,0,0,0,-0.125,-0.125,-0.125,-0.125,-0.125,-0.125,-0.125,-0.125,linear,0.025,TRUE,25,FALSE,1,1,NA,914,EQ,H0,2,poolmodel,0.015,-0.015536883409065484,0.00667086074535741,0,1000
7,250,0,250,250,500,500,750,750,2,0,1,0,0,0,0,0,0,0,-0.125,-0.125,-0.125,-0.125,-0.125,-0.125,-0.125,-0.125,linear,0.025,TRUE,25,FALSE,1,1,NA,914,EQ,H0,2,sepmodel,0.022,6.11592609395517e-4,0.0073820372997406986,0,1000
7,250,0,250,250,500,500,750,750,2,0,1,0,0,0,0,0,0,0,-0.125,-0.125,-0.125,-0.125,-0.125,-0.125,-0.125,-0.125,linear,0.025,TRUE,25,FALSE,1,1,NA,914,EQ,H0,2,splines,0.026,-4.19004329675995e-4,0.006825101892881495,0,1000
7,250,0,250,250,500,500,750,750,2,0,1,0,0,0,0,0,0,0,-0.125,-0.125,-0.125,-0.125,-0.125,-0.125,-0.125,-0.125,linear,0.025,TRUE,25,FALSE,1,1,NA,914,EQ,H0,2,splines_cal,0.026,-3.2441233767405603e-4,0.0069938796617949025,0,1000
7,250,0,250,250,500,500,750,750,2,0,1,0,0,0,0,0,0,0,-0.125,-0.125,-0.125,-0.125,-0.125,-0.125,-0.125,-0.125,linear,0.025,TRUE,25,FALSE,1,1,NA,914,EQ,H0,3,fixmodel,0.027,2.057833350251015e-4,0.0071088572942965,0,1000
7,250,0,250,250,500,500,750,750,2,0,1,0,0,0,0,0,0,0,-0.125,-0.125,-0.125,-0.125,-0.125,-0.125,-0.125,-0.125,linear,0.025,TRUE,25,FALSE,1,1,NA,914,EQ,H0,3,fixmodel_cal,0.029,4.15214255325777e-5,0.007130908417745911,0,1000
7,250,0,250,250,500,500,750,750,2,0,1,0,0,0,0,0,0,0,-0.125,-0.125,-0.125,-0.125,-0.125,-0.125,-0.125,-0.125,linear,0.025,TRUE,25,FALSE,1,1,NA,914,EQ,H0,3,poolmodel,0.022,-0.014749424705295838,0.006717025471949991,0,1000
7,250,0,250,250,500,500,750,750,2,0,1,0,0,0,0,0,0,0,-0.125,-0.125,-0.125,-0.125,-0.125,-0.125,-0.125,-0.125,linear,0.025,TRUE,25,FALSE,1,1,NA,914,EQ,H0,3,sepmodel,0.03,0.0013990513131651502,0.007702066296316684,0,1000
7,250,0,250,250,500,500,750,750,2,0,1,0,0,0,0,0,0,0,-0.125,-0.125,-0.125,-0.125,-0.125,-0.125,-0.125,-0.125,linear,0.025,TRUE,25,FALSE,1,1,NA,914,EQ,H0,3,splines,0.032,3.635756737571864e-4,0.0070585110949419085,0,1000
7,250,0,250,250,500,500,750,750,2,0,1,0,0,0,0,0,0,0,-0.125,-0.125,-0.125,-0.125,-0.125,-0.125,-0.125,-0.125,linear,0.025,TRUE,25,FALSE,1,1,NA,914,EQ,H0,3,splines_cal,0.026,4.067165882015016e-5,0.0070861181433140505,0,1000
7,250,0,250,250,500,500,750,750,2,0,1,0,0,0,0,0,0,0,-0.125,-0.125,-0.125,-0.125,-0.125,-0.125,-0.125,-0.125,linear,0.025,TRUE,25,FALSE,1,1,NA,914,EQ,H0,4,fixmodel,0.02,-0.00355614639902326,0.006691743541612227,0,1000
7,250,0,250,250,500,500,750,750,2,0,1,0,0,0,0,0,0,0,-0.125,-0.125,-0.125,-0.125,-0.125,-0.125,-0.125,-0.125,linear,0.025,TRUE,25,FALSE,1,1,NA,914,EQ,H0,4,fixmodel_cal,0.019,-0.003693794388678991,0.006676147059387832,0,1000
7,250,0,250,250,500,500,750,750,2,0,1,0,0,0,0,0,0,0,-0.125,-0.125,-0.125,-0.125,-0.125,-0.125,-0.125,-0.125,linear,0.025,TRUE,25,FALSE,1,1,NA,914,EQ,H0,4,poolmodel,0.012,-0.03054182064846086,0.006977999224827511,0,1000
7,250,0,250,250,500,500,750,750,2,0,1,0,0,0,0,0,0,0,-0.125,-0.125,-0.125,-0.125,-0.125,-0.125,-0.125,-0.125,linear,0.025,TRUE,25,FALSE,1,1,NA,914,EQ,H0,4,sepmodel,0.021,-0.0035250922817443775,0.007596862703293161,0,1000
7,250,0,250,250,500,500,750,750,2,0,1,0,0,0,0,0,0,0,-0.125,-0.125,-0.125,-0.125,-0.125,-0.125,-0.125,-0.125,linear,0.025,TRUE,25,FALSE,1,1,NA,914,EQ,H0,4,splines,0.019,-0.0036221974351654026,0.0066560985591661076,0,1000
7,250,0,250,250,500,500,750,750,2,0,1,0,0,0,0,0,0,0,-0.125,-0.125,-0.125,-0.125,-0.125,-0.125,-0.125,-0.125,linear,0.025,TRUE,25,FALSE,1,1,NA,914,EQ,H0,4,splines_cal,0.02,-0.003458061490733175,0.006675654142866095,0,1000
7,250,0,250,250,500,500,750,750,2,0,1,0,0,0,0,0,0,0,-0.125,-0.125,-0.125,-0.125,-0.125,-0.125,-0.125,-0.125,linear,0.025,TRUE,25,FALSE,1,1,NA,914,EQ,H0,5,fixmodel,0.023,1.888778315886275e-5,0.007208102584882117,0,1000
7,250,0,250,250,500,500,750,750,2,0,1,0,0,0,0,0,0,0,-0.125,-0.125,-0.125,-0.125,-0.125,-0.125,-0.125,-0.125,linear,0.025,TRUE,25,FALSE,1,1,NA,914,EQ,H0,5,fixmodel_cal,0.024,1.755592632922072e-4,0.007221318301934187,0,1000
7,250,0,250,250,500,500,750,750,2,0,1,0,0,0,0,0,0,0,-0.125,-0.125,-0.125,-0.125,-0.125,-0.125,-0.125,-0.125,linear,0.025,TRUE,25,FALSE,1,1,NA,914,EQ,H0,5,poolmodel,0.012,-0.02696678646627882,0.007250422607898945,0,1000
7,250,0,250,250,500,500,750,750,2,0,1,0,0,0,0,0,0,0,-0.125,-0.125,-0.125,-0.125,-0.125,-0.125,-0.125,-0.125,linear,0.025,TRUE,25,FALSE,1,1,NA,914,EQ,H0,5,sepmodel,0.026,4.994190043765462e-5,0.008032759557874577,0,1000
7,250,0,250,250,500,500,750,750,2,0,1,0,0,0,0,0,0,0,-0.125,-0.125,-0.125,-0.125,-0.125,-0.125,-0.125,-0.125,linear,0.025,TRUE,25,FALSE,1,1,NA,914,EQ,H0,5,splines,0.028,-4.500520074045237e-5,0.007217749623334576,0,1000
7,250,0,250,250,500,500,750,750,2,0,1,0,0,0,0,0,0,0,-0.125,-0.125,-0.125,-0.125,-0.125,-0.125,-0.125,-0.125,linear,0.025,TRUE,25,FALSE,1,1,NA,914,EQ,H0,5,splines_cal,0.029,2.644190801889283e-4,0.007178257118393436,0,1000
7,250,0,250,250,500,500,750,750,2,0,1,0,0,0,0,0,0,0,-0.125,-0.125,-0.125,-0.125,-0.125,-0.125,-0.125,-0.125,linear,0.025,TRUE,25,FALSE,1,1,NA,914,EQ,H0,6,fixmodel,0.035,-1.4133886531730015e-4,0.007276346587612559,0,1000
7,250,0,250,250,500,500,750,750,2,0,1,0,0,0,0,0,0,0,-0.125,-0.125,-0.125,-0.125,-0.125,-0.125,-0.125,-0.125,linear,0.025,TRUE,25,FALSE,1,1,NA,914,EQ,H0,6,fixmodel_cal,0.031,2.1974161251009226e-5,0.007320997023620327,0,1000
7,250,0,250,250,500,500,750,750,2,0,1,0,0,0,0,0,0,0,-0.125,-0.125,-0.125,-0.125,-0.125,-0.125,-0.125,-0.125,linear,0.025,TRUE,25,FALSE,1,1,NA,914,EQ,H0,6,poolmodel,0.012,-0.03540349176968512,0.007443899692564209,0,1000
7,250,0,250,250,500,500,750,750,2,0,1,0,0,0,0,0,0,0,-0.125,-0.125,-0.125,-0.125,-0.125,-0.125,-0.125,-0.125,linear,0.025,TRUE,25,FALSE,1,1,NA,914,EQ,H0,6,sepmodel,0.033,3.240320202694132e-4,0.008144346776580567,0,1000
7,250,0,250,250,500,500,750,750,2,0,1,0,0,0,0,0,0,0,-0.125,-0.125,-0.125,-0.125,-0.125,-0.125,-0.125,-0.125,linear,0.025,TRUE,25,FALSE,1,1,NA,914,EQ,H0,6,splines,0.031,-5.369534996346993e-5,0.007248883212273724,0,1000
7,250,0,250,250,500,500,750,750,2,0,1,0,0,0,0,0,0,0,-0.125,-0.125,-0.125,-0.125,-0.125,-0.125,-0.125,-0.125,linear,0.025,TRUE,25,FALSE,1,1,NA,914,EQ,H0,6,splines_cal,0.031,-1.7660405075921896e-5,0.007289265238927704,0,1000
7,250,0,250,250,500,500,750,750,2,0,1,0,0,0,0,0,0,0,-0.125,-0.125,-0.125,-0.125,-0.125,-0.125,-0.125,-0.125,linear,0.025,TRUE,25,FALSE,1,1,NA,914,EQ,H0,7,fixmodel,0.026,7.656983067257803e-4,0.00737981602753502,0,1000
7,250,0,250,250,500,500,750,750,2,0,1,0,0,0,0,0,0,0,-0.125,-0.125,-0.125,-0.125,-0.125,-0.125,-0.125,-0.125,linear,0.025,TRUE,25,FALSE,1,1,NA,914,EQ,H0,7,fixmodel_cal,0.029,9.600513098976334e-4,0.00744498203402279,0,1000
7,250,0,250,250,500,500,750,750,2,0,1,0,0,0,0,0,0,0,-0.125,-0.125,-0.125,-0.125,-0.125,-0.125,-0.125,-0.125,linear,0.025,TRUE,25,FALSE,1,1,NA,914,EQ,H0,7,poolmodel,0.007,-0.03449645459764207,0.0074060783010634935,0,1000
7,250,0,250,250,500,500,750,750,2,0,1,0,0,0,0,0,0,0,-0.125,-0.125,-0.125,-0.125,-0.125,-0.125,-0.125,-0.125,linear,0.025,TRUE,25,FALSE,1,1,NA,914,EQ,H0,7,sepmodel,0.032,0.0012310691923124513,0.008392928196094386,0,1000
7,250,0,250,250,500,500,750,750,2,0,1,0,0,0,0,0,0,0,-0.125,-0.125,-0.125,-0.125,-0.125,-0.125,-0.125,-0.125,linear,0.025,TRUE,25,FALSE,1,1,NA,914,EQ,H0,7,splines,0.029,8.55136032083072e-4,0.007343692536490039,0,1000
7,250,0,250,250,500,500,750,750,2,0,1,0,0,0,0,0,0,0,-0.125,-0.125,-0.125,-0.125,-0.125,-0.125,-0.125,-0.125,linear,0.025,TRUE,25,FALSE,1,1,NA,914,EQ,H0,7,splines_cal,0.03,9.372320436244018e-4,0.007405433569630444,0,1000
7,250,0,250,250,500,500,750,750,2,0,1,0,0,0,0,0,0,0,-0.125,-0.125,-0.125,-0.125,-0.125,-0.125,-0.125,-0.125,linear,0.025,TRUE,25,FALSE,2,2,NA,914,EQ,H0,2,fixmodel,0.019,0.001468487036306744,0.006749431133745573,0,1000
7,250,0,250,250,500,500,750,750,2,0,1,0,0,0,0,0,0,0,-0.125,-0.125,-0.125,-0.125,-0.125,-0.125,-0.125,-0.125,linear,0.025,TRUE,25,FALSE,2,2,NA,914,EQ,H0,2,fixmodel_cal,0.019,0.001410093158702239,0.006695216913146849,0,1000
7,250,0,250,250,500,500,750,750,2,0,1,0,0,0,0,0,0,0,-0.125,-0.125,-0.125,-0.125,-0.125,-0.125,-0.125,-0.125,linear,0.025,TRUE,25,FALSE,2,2,NA,914,EQ,H0,2,poolmodel,0.013,-0.013785924399643034,0.006325820872259154,0,1000
7,250,0,250,250,500,500,750,750,2,0,1,0,0,0,0,0,0,0,-0.125,-0.125,-0.125,-0.125,-0.125,-0.125,-0.125,-0.125,linear,0.025,TRUE,25,FALSE,2,2,NA,914,EQ,H0,2,sepmodel,0.019,0.0014196975684157135,0.007114068824590081,0,1000
7,250,0,250,250,500,500,750,750,2,0,1,0,0,0,0,0,0,0,-0.125,-0.125,-0.125,-0.125,-0.125,-0.125,-0.125,-0.125,linear,0.025,TRUE,25,FALSE,2,2,NA,914,EQ,H0,2,splines,0.024,0.0018457955335806652,0.006679186822171629,0,1000
7,250,0,250,250,500,500,750,750,2,0,1,0,0,0,0,0,0,0,-0.125,-0.125,-0.125,-0.125,-0.125,-0.125,-0.125,-0.125,linear,0.025,TRUE,25,FALSE,2,2,NA,914,EQ,H0,2,splines_cal,0.02,0.0017288838799742832,0.006623198936071367,0,1000
7,250,0,250,250,500,500,750,750,2,0,1,0,0,0,0,0,0,0,-0.125,-0.125,-0.125,-0.125,-0.125,-0.125,-0.125,-0.125,linear,0.025,TRUE,25,FALSE,2,2,NA,914,EQ,H0,3,fixmodel,0.022,6.665893223584292e-4,0.007082486071123956,0,1000
7,250,0,250,250,500,500,750,750,2,0,1,0,0,0,0,0,0,0,-0.125,-0.125,-0.125,-0.125,-0.125,-0.125,-0.125,-0.125,linear,0.025,TRUE,25,FALSE,2,2,NA,914,EQ,H0,3,fixmodel_cal,0.021,5.67874463101706e-4,0.00709690563780332,0,1000
7,250,0,250,250,500,500,750,750,2,0,1,0,0,0,0,0,0,0,-0.125,-0.125,-0.125,-0.125,-0.125,-0.125,-0.125,-0.125,linear,0.025,TRUE,25,FALSE,2,2,NA,914,EQ,H0,3,poolmodel,0.009,-0.014587822113591385,0.006556913647885514,0,1000
7,250,0,250,250,500,500,750,750,2,0,1,0,0,0,0,0,0,0,-0.125,-0.125,-0.125,-0.125,-0.125,-0.125,-0.125,-0.125,linear,0.025,TRUE,25,FALSE,2,2,NA,914,EQ,H0,3,sepmodel,0.021,6.177998544673502e-4,0.007483723457133579,0,1000
7,250,0,250,250,500,500,750,750,2,0,1,0,0,0,0,0,0,0,-0.125,-0.125,-0.125,-0.125,-0.125,-0.125,-0.125,-0.125,linear,0.025,TRUE,25,FALSE,2,2,NA,914,EQ,H0,3,splines,0.02,0.0010397212670616674,0.0069308560064110375,0,1000
7,250,0,250,250,500,500,750,750,2,0,1,0,0,0,0,0,0,0,-0.125,-0.125,-0.125,-0.125,-0.125,-0.125,-0.125,-0.125,linear,0.025,TRUE,25,FALSE,2,2,NA,914,EQ,H0,3,splines_cal,0.02,7.835436692411361e-4,0.007009190463460985,0,1000
7,250,0,250,250,500,500,750,750,2,0,1,0,0,0,0,0,0,0,-0.125,-0.125,-0.125,-0.125,-0.125,-0.125,-0.125,-0.125,linear,0.025,TRUE,25,FALSE,2,2,NA,914,EQ,H0,4,fixmodel,0.022,-0.0010655279610301955,0.006825570704358402,0,1000
7,250,0,250,250,500,500,750,750,2,0,1,0,0,0,0,0,0,0,-0.125,-0.125,-0.125,-0.125,-0.125,-0.125,-0.125,-0.125,linear,0.025,TRUE,25,FALSE,2,2,NA,914,EQ,H0,4,fixmodel_cal,0.022,-9.006310892175984e-4,0.006912819670204522,0,1000
7,250,0,250,250,500,500,750,750,2,0,1,0,0,0,0,0,0,0,-0.125,-0.125,-0.125,-0.125,-0.125,-0.125,-0.125,-0.125,linear,0.025,TRUE,25,FALSE,2,2,NA,914,EQ,H0,4,poolmodel,0.008,-0.028211579691994785,0.006775368077877055,0,1000
7,250,0,250,250,500,500,750,750,2,0,1,0,0,0,0,0,0,0,-0.125,-0.125,-0.125,-0.125,-0.125,-0.125,-0.125,-0.125,linear,0.025,TRUE,25,FALSE,2,2,NA,914,EQ,H0,4,sepmodel,0.021,-0.0012276449521913008,0.007630012351068169,0,1000
7,250,0,250,250,500,500,750,750,2,0,1,0,0,0,0,0,0,0,-0.125,-0.125,-0.125,-0.125,-0.125,-0.125,-0.125,-0.125,linear,0.025,TRUE,25,FALSE,2,2,NA,914,EQ,H0,4,splines,0.023,-9.381051768268657e-4,0.006815429281778824,0,1000
7,250,0,250,250,500,500,750,750,2,0,1,0,0,0,0,0,0,0,-0.125,-0.125,-0.125,-0.125,-0.125,-0.125,-0.125,-0.125,linear,0.025,TRUE,25,FALSE,2,2,NA,914,EQ,H0,4,splines_cal,0.025,-3.515612176365437e-4,0.006824841576028012,0,1000
7,250,0,250,250,500,500,750,750,2,0,1,0,0,0,0,0,0,0,-0.125,-0.125,-0.125,-0.125,-0.125,-0.125,-0.125,-0.125,linear,0.025,TRUE,25,FALSE,2,2,NA,914,EQ,H0,5,fixmodel,0.028,0.0012110961910668109,0.007030893882627163,0,1000
7,250,0,250,250,500,500,750,750,2,0,1,0,0,0,0,0,0,0,-0.125,-0.125,-0.125,-0.125,-0.125,-0.125,-0.125,-0.125,linear,0.025,TRUE,25,FALSE,2,2,NA,914,EQ,H0,5,fixmodel_cal,0.029,0.0012520824469815102,0.00709622276653606,0,1000
7,250,0,250,250,500,500,750,750,2,0,1,0,0,0,0,0,0,0,-0.125,-0.125,-0.125,-0.125,-0.125,-0.125,-0.125,-0.125,linear,0.025,TRUE,25,FALSE,2,2,NA,914,EQ,H0,5,poolmodel,0.006,-0.025934955539897775,0.006744913321513608,0,1000
7,250,0,250,250,500,500,750,750,2,0,1,0,0,0,0,0,0,0,-0.125,-0.125,-0.125,-0.125,-0.125,-0.125,-0.125,-0.125,linear,0.025,TRUE,25,FALSE,2,2,NA,914,EQ,H0,5,sepmodel,0.024,0.0010489791999057298,0.007750009246912873,0,1000
7,250,0,250,250,500,500,750,750,2,0,1,0,0,0,0,0,0,0,-0.125,-0.125,-0.125,-0.125,-0.125,-0.125,-0.125,-0.125,linear,0.025,TRUE,25,FALSE,2,2,NA,914,EQ,H0,5,splines,0.029,0.0013506861634018806,0.0070667160185910495,0,1000
7,250,0,250,250,500,500,750,750,2,0,1,0,0,0,0,0,0,0,-0.125,-0.125,-0.125,-0.125,-0.125,-0.125,-0.125,-0.125,linear,0.025,TRUE,25,FALSE,2,2,NA,914,EQ,H0,5,splines_cal,0.03,0.0016651979217650005,0.007088405430618585,0,1000
7,250,0,250,250,500,500,750,750,2,0,1,0,0,0,0,0,0,0,-0.125,-0.125,-0.125,-0.125,-0.125,-0.125,-0.125,-0.125,linear,0.025,TRUE,25,FALSE,2,2,NA,914,EQ,H0,6,fixmodel,0.03,0.004495351956673271,0.007320630902724007,0,1000
7,250,0,250,250,500,500,750,750,2,0,1,0,0,0,0,0,0,0,-0.125,-0.125,-0.125,-0.125,-0.125,-0.125,-0.125,-0.125,linear,0.025,TRUE,25,FALSE,2,2,NA,914,EQ,H0,6,fixmodel_cal,0.03,0.0043750863285373694,0.007404223278585808,0,1000
7,250,0,250,250,500,500,750,750,2,0,1,0,0,0,0,0,0,0,-0.125,-0.125,-0.125,-0.125,-0.125,-0.125,-0.125,-0.125,linear,0.025,TRUE,25,FALSE,2,2,NA,914,EQ,H0,6,poolmodel,0.009,-0.030511793780059727,0.006970316488695061,0,1000
7,250,0,250,250,500,500,750,750,2,0,1,0,0,0,0,0,0,0,-0.125,-0.125,-0.125,-0.125,-0.125,-0.125,-0.125,-0.125,linear,0.025,TRUE,25,FALSE,2,2,NA,914,EQ,H0,6,sepmodel,0.028,0.004060497550356964,0.008266353624143982,0,1000
7,250,0,250,250,500,500,750,750,2,0,1,0,0,0,0,0,0,0,-0.125,-0.125,-0.125,-0.125,-0.125,-0.125,-0.125,-0.125,linear,0.025,TRUE,25,FALSE,2,2,NA,914,EQ,H0,6,splines,0.031,0.00465938646948021,0.0073532602713256845,0,1000
7,250,0,250,250,500,500,750,750,2,0,1,0,0,0,0,0,0,0,-0.125,-0.125,-0.125,-0.125,-0.125,-0.125,-0.125,-0.125,linear,0.025,TRUE,25,FALSE,2,2,NA,914,EQ,H0,6,splines_cal,0.03,0.004482284369992698,0.007369174650278585,0,1000
7,250,0,250,250,500,500,750,750,2,0,1,0,0,0,0,0,0,0,-0.125,-0.125,-0.125,-0.125,-0.125,-0.125,-0.125,-0.125,linear,0.025,TRUE,25,FALSE,2,2,NA,914,EQ,H0,7,fixmodel,0.03,9.885372959096746e-4,0.007443934642734168,0,1000
7,250,0,250,250,500,500,750,750,2,0,1,0,0,0,0,0,0,0,-0.125,-0.125,-0.125,-0.125,-0.125,-0.125,-0.125,-0.125,linear,0.025,TRUE,25,FALSE,2,2,NA,914,EQ,H0,7,fixmodel_cal,0.03,8.10645566841486e-4,0.007558337396106189,0,1000
7,250,0,250,250,500,500,750,750,2,0,1,0,0,0,0,0,0,0,-0.125,-0.125,-0.125,-0.125,-0.125,-0.125,-0.125,-0.125,linear,0.025,TRUE,25,FALSE,2,2,NA,914,EQ,H0,7,poolmodel,0.012,-0.0340186084408233,0.007183275740242377,0,1000
7,250,0,250,250,500,500,750,750,2,0,1,0,0,0,0,0,0,0,-0.125,-0.125,-0.125,-0.125,-0.125,-0.125,-0.125,-0.125,linear,0.025,TRUE,25,FALSE,2,2,NA,914,EQ,H0,7,sepmodel,0.024,5.536828895933969e-4,0.008334495854010516,0,1000
7,250,0,250,250,500,500,750,750,2,0,1,0,0,0,0,0,0,0,-0.125,-0.125,-0.125,-0.125,-0.125,-0.125,-0.125,-0.125,linear,0.025,TRUE,25,FALSE,2,2,NA,914,EQ,H0,7,splines,0.031,0.0011491581404622856,0.007404246914476353,0,1000
7,250,0,250,250,500,500,750,750,2,0,1,0,0,0,0,0,0,0,-0.125,-0.125,-0.125,-0.125,-0.125,-0.125,-0.125,-0.125,linear,0.025,TRUE,25,FALSE,2,2,NA,914,EQ,H0,7,splines_cal,0.031,8.298926170146312e-4,0.007440555058477641,0,1000
7,250,0,250,250,500,500,750,750,2,0,1,0,0,0,0,0,0,0,-0.125,-0.125,-0.125,-0.125,-0.125,-0.125,-0.125,-0.125,linear,0.025,TRUE,25,FALSE,3,3,NA,914,EQ,H0,2,fixmodel,0.018,-0.002751423500033509,0.007353524143639942,0,1000
7,250,0,250,250,500,500,750,750,2,0,1,0,0,0,0,0,0,0,-0.125,-0.125,-0.125,-0.125,-0.125,-0.125,-0.125,-0.125,linear,0.025,TRUE,25,FALSE,3,3,NA,914,EQ,H0,2,fixmodel_cal,0.022,-0.002666651798951399,0.007348857298084633,0,1000
7,250,0,250,250,500,500,750,750,2,0,1,0,0,0,0,0,0,0,-0.125,-0.125,-0.125,-0.125,-0.125,-0.125,-0.125,-0.125,linear,0.025,TRUE,25,FALSE,3,3,NA,914,EQ,H0,2,poolmodel,0.01,-0.01890213066547915,0.006840354239831389,0,1000
7,250,0,250,250,500,500,750,750,2,0,1,0,0,0,0,0,0,0,-0.125,-0.125,-0.125,-0.125,-0.125,-0.125,-0.125,-0.125,linear,0.025,TRUE,25,FALSE,3,3,NA,914,EQ,H0,2,sepmodel,0.025,-0.002453903142613647,0.008048962159870807,0,1000
7,250,0,250,250,500,500,750,750,2,0,1,0,0,0,0,0,0,0,-0.125,-0.125,-0.125,-0.125,-0.125,-0.125,-0.125,-0.125,linear,0.025,TRUE,25,FALSE,3,3,NA,914,EQ,H0,2,splines,0.021,-0.002393503095446903,0.007268939083819755,0,1000
7,250,0,250,250,500,500,750,750,2,0,1,0,0,0,0,0,0,0,-0.125,-0.125,-0.125,-0.125,-0.125,-0.125,-0.125,-0.125,linear,0.025,TRUE,25,FALSE,3,3,NA,914,EQ,H0,2,splines_cal,0.02,-0.002890810647099176,0.007342126742865626,0,1000
7,250,0,250,250,500,500,750,750,2,0,1,0,0,0,0,0,0,0,-0.125,-0.125,-0.125,-0.125,-0.125,-0.125,-0.125,-0.125,linear,0.025,TRUE,25,FALSE,3,3,NA,914,EQ,H0,3,fixmodel,0.022,0.00334542548979898,0.007420548393180159,0,1000
7,250,0,250,250,500,500,750,750,2,0,1,0,0,0,0,0,0,0,-0.125,-0.125,-0.125,-0.125,-0.125,-0.125,-0.125,-0.125,linear,0.025,TRUE,25,FALSE,3,3,NA,914,EQ,H0,3,fixmodel_cal,0.024,0.00307088770488026,0.0074489451933514896,0,1000
7,250,0,250,250,500,500,750,750,2,0,1,0,0,0,0,0,0,0,-0.125,-0.125,-0.125,-0.125,-0.125,-0.125,-0.125,-0.125,linear,0.025,TRUE,25,FALSE,3,3,NA,914,EQ,H0,3,poolmodel,0.016,-0.012805281675646886,0.0067097854224001646,0,1000
7,250,0,250,250,500,500,750,750,2,0,1,0,0,0,0,0,0,0,-0.125,-0.125,-0.125,-0.125,-0.125,-0.125,-0.125,-0.125,linear,0.025,TRUE,25,FALSE,3,3,NA,914,EQ,H0,3,sepmodel,0.028,0.003642945847218616,0.008335047512765193,0,1000
7,250,0,250,250,500,500,750,750,2,0,1,0,0,0,0,0,0,0,-0.125,-0.125,-0.125,-0.125,-0.125,-0.125,-0.125,-0.125,linear,0.025,TRUE,25,FALSE,3,3,NA,914,EQ,H0,3,splines,0.022,0.0036966626727755717,0.007242354542742158,0,1000
7,250,0,250,250,500,500,750,750,2,0,1,0,0,0,0,0,0,0,-0.125,-0.125,-0.125,-0.125,-0.125,-0.125,-0.125,-0.125,linear,0.025,TRUE,25,FALSE,3,3,NA,914,EQ,H0,3,splines_cal,0.024,0.003257373764602867,0.007431446432513398,0,1000
7,250,0,250,250,500,500,750,750,2,0,1,0,0,0,0,0,0,0,-0.125,-0.125,-0.125,-0.125,-0.125,-0.125,-0.125,-0.125,linear,0.025,TRUE,25,FALSE,3,3,NA,914,EQ,H0,4,fixmodel,0.029,0.0024374940573415062,0.007420603091516112,0,1000
7,250,0,250,250,500,500,750,750,2,0,1,0,0,0,0,0,0,0,-0.125,-0.125,-0.125,-0.125,-0.125,-0.125,-0.125,-0.125,linear,0.025,TRUE,25,FALSE,3,3,NA,914,EQ,H0,4,fixmodel_cal,0.029,0.0027222550313869827,0.007453854282163008,0,1000
7,250,0,250,250,500,500,750,750,2,0,1,0,0,0,0,0,0,0,-0.125,-0.125,-0.125,-0.125,-0.125,-0.125,-0.125,-0.125,linear,0.025,TRUE,25,FALSE,3,3,NA,914,EQ,H0,4,poolmodel,0.012,-0.024592401609172098,0.007047141447362415,0,1000
7,250,0,250,250,500,500,750,750,2,0,1,0,0,0,0,0,0,0,-0.125,-0.125,-0.125,-0.125,-0.125,-0.125,-0.125,-0.125,linear,0.025,TRUE,25,FALSE,3,3,NA,914,EQ,H0,4,sepmodel,0.03,0.0025564716087560606,0.008578883120056086,0,1000
7,250,0,250,250,500,500,750,750,2,0,1,0,0,0,0,0,0,0,-0.125,-0.125,-0.125,-0.125,-0.125,-0.125,-0.125,-0.125,linear,0.025,TRUE,25,FALSE,3,3,NA,914,EQ,H0,4,splines,0.027,0.0031082802241718306,0.007342838466914807,0,1000
7,250,0,250,250,500,500,750,750,2,0,1,0,0,0,0,0,0,0,-0.125,-0.125,-0.125,-0.125,-0.125,-0.125,-0.125,-0.125,linear,0.025,TRUE,25,FALSE,3,3,NA,914,EQ,H0,4,splines_cal,0.03,0.0025998203402077917,0.007423494898345409,0,1000
7,250,0,250,250,500,500,750,750,2,0,1,0,0,0,0,0,0,0,-0.125,-0.125,-0.125,-0.125,-0.125,-0.125,-0.125,-0.125,linear,0.025,TRUE,25,FALSE,3,3,NA,914,EQ,H0,5,fixmodel,0.031,-3.7516694733435665e-4,0.0076031698038885156,0,1000
7,250,0,250,250,500,500,750,750,2,0,1,0,0,0,0,0,0,0,-0.125,-0.125,-0.125,-0.125,-0.125,-0.125,-0.125,-0.125,linear,0.025,TRUE,25,FALSE,3,3,NA,914,EQ,H0,5,fixmodel_cal,0.03,3.541310656789347e-4,0.007583295189246773,0,1000
7,250,0,250,250,500,500,750,750,2,0,1,0,0,0,0,0,0,0,-0.125,-0.125,-0.125,-0.125,-0.125,-0.125,-0.125,-0.125,linear,0.025,TRUE,25,FALSE,3,3,NA,914,EQ,H0,5,poolmodel,0.015,-0.027405062613847973,0.0074902815783706835,0,1000
7,250,0,250,250,500,500,750,750,2,0,1,0,0,0,0,0,0,0,-0.125,-0.125,-0.125,-0.125,-0.125,-0.125,-0.125,-0.125,linear,0.025,TRUE,25,FALSE,3,3,NA,914,EQ,H0,5,sepmodel,0.031,-2.561893959198106e-4,0.008708616485460771,0,1000
7,250,0,250,250,500,500,750,750,2,0,1,0,0,0,0,0,0,0,-0.125,-0.125,-0.125,-0.125,-0.125,-0.125,-0.125,-0.125,linear,0.025,TRUE,25,FALSE,3,3,NA,914,EQ,H0,5,splines,0.032,3.026228311412423e-4,0.0076074011585447006,0,1000
7,250,0,250,250,500,500,750,750,2,0,1,0,0,0,0,0,0,0,-0.125,-0.125,-0.125,-0.125,-0.125,-0.125,-0.125,-0.125,linear,0.025,TRUE,25,FALSE,3,3,NA,914,EQ,H0,5,splines_cal,0.03,-2.9093853659152856e-4,0.0075672655526792774,0,1000
7,250,0,250,250,500,500,750,750,2,0,1,0,0,0,0,0,0,0,-0.125,-0.125,-0.125,-0.125,-0.125,-0.125,-0.125,-0.125,linear,0.025,TRUE,25,FALSE,3,3,NA,914,EQ,H0,6,fixmodel,0.028,0.0018116327045256259,0.007058973939122053,0,1000
7,250,0,250,250,500,500,750,750,2,0,1,0,0,0,0,0,0,0,-0.125,-0.125,-0.125,-0.125,-0.125,-0.125,-0.125,-0.125,linear,0.025,TRUE,25,FALSE,3,3,NA,914,EQ,H0,6,fixmodel_cal,0.027,0.0018738194476169332,0.007135805553054157,0,1000
7,250,0,250,250,500,500,750,750,2,0,1,0,0,0,0,0,0,0,-0.125,-0.125,-0.125,-0.125,-0.125,-0.125,-0.125,-0.125,linear,0.025,TRUE,25,FALSE,3,3,NA,914,EQ,H0,6,poolmodel,0.006,-0.03365000130291747,0.007206397210305207,0,1000
7,250,0,250,250,500,500,750,750,2,0,1,0,0,0,0,0,0,0,-0.125,-0.125,-0.125,-0.125,-0.125,-0.125,-0.125,-0.125,linear,0.025,TRUE,25,FALSE,3,3,NA,914,EQ,H0,6,sepmodel,0.03,0.00248574802569755,0.008382914029218416,0,1000
7,250,0,250,250,500,500,750,750,2,0,1,0,0,0,0,0,0,0,-0.125,-0.125,-0.125,-0.125,-0.125,-0.125,-0.125,-0.125,linear,0.025,TRUE,25,FALSE,3,3,NA,914,EQ,H0,6,splines,0.024,0.0019006354286343237,0.007028592317248508,0,1000
7,250,0,250,250,500,500,750,750,2,0,1,0,0,0,0,0,0,0,-0.125,-0.125,-0.125,-0.125,-0.125,-0.125,-0.125,-0.125,linear,0.025,TRUE,25,FALSE,3,3,NA,914,EQ,H0,6,splines_cal,0.027,0.001763609298050479,0.007086636606105361,0,1000
7,250,0,250,250,500,500,750,750,2,0,1,0,0,0,0,0,0,0,-0.125,-0.125,-0.125,-0.125,-0.125,-0.125,-0.125,-0.125,linear,0.025,TRUE,25,FALSE,3,3,NA,914,EQ,H0,7,fixmodel,0.029,-0.0018053525682217549,0.007501363850649261,0,1000
7,250,0,250,250,500,500,750,750,2,0,1,0,0,0,0,0,0,0,-0.125,-0.125,-0.125,-0.125,-0.125,-0.125,-0.125,-0.125,linear,0.025,TRUE,25,FALSE,3,3,NA,914,EQ,H0,7,fixmodel_cal,0.03,-0.0018454927450138026,0.007604800661847896,0,1000
7,250,0,250,250,500,500,750,750,2,0,1,0,0,0,0,0,0,0,-0.125,-0.125,-0.125,-0.125,-0.125,-0.125,-0.125,-0.125,linear,0.025,TRUE,25,FALSE,3,3,NA,914,EQ,H0,7,poolmodel,0.011,-0.037266986575664844,0.007830267871221592,0,1000
7,250,0,250,250,500,500,750,750,2,0,1,0,0,0,0,0,0,0,-0.125,-0.125,-0.125,-0.125,-0.125,-0.125,-0.125,-0.125,linear,0.025,TRUE,25,FALSE,3,3,NA,914,EQ,H0,7,sepmodel,0.03,-0.0011312372470498131,0.008820104133623477,0,1000
7,250,0,250,250,500,500,750,750,2,0,1,0,0,0,0,0,0,0,-0.125,-0.125,-0.125,-0.125,-0.125,-0.125,-0.125,-0.125,linear,0.025,TRUE,25,FALSE,3,3,NA,914,EQ,H0,7,splines,0.029,-0.0017218811058641718,0.007475601528152673,0,1000
7,250,0,250,250,500,500,750,750,2,0,1,0,0,0,0,0,0,0,-0.125,-0.125,-0.125,-0.125,-0.125,-0.125,-0.125,-0.125,linear,0.025,TRUE,25,FALSE,3,3,NA,914,EQ,H0,7,splines_cal,0.029,-0.0019110833530972687,0.00753410840513861,0,1000
7,250,0,250,250,500,500,750,750,2,0,1,0,0,0,0,0,0,0,0,0,0,0,0,0,0,0,linear,0.025,TRUE,25,FALSE,1,1,NA,914,EQ,H0,2,fixmodel,0.023,-0.001334401728560377,0.007540497264368834,0,1000
7,250,0,250,250,500,500,750,750,2,0,1,0,0,0,0,0,0,0,0,0,0,0,0,0,0,0,linear,0.025,TRUE,25,FALSE,1,1,NA,914,EQ,H0,2,fixmodel_cal,0.024,-0.0015963832337127612,0.00749701347300524,0,1000
7,250,0,250,250,500,500,750,750,2,0,1,0,0,0,0,0,0,0,0,0,0,0,0,0,0,0,linear,0.025,TRUE,25,FALSE,1,1,NA,914,EQ,H0,2,poolmodel,0.018,-7.492177388921221e-4,0.006487544751704703,0,1000
7,250,0,250,250,500,500,750,750,2,0,1,0,0,0,0,0,0,0,0,0,0,0,0,0,0,0,linear,0.025,TRUE,25,FALSE,1,1,NA,914,EQ,H0,2,sepmodel,0.023,7.532914628466931e-4,0.007982373669684488,0,1000
7,250,0,250,250,500,500,750,750,2,0,1,0,0,0,0,0,0,0,0,0,0,0,0,0,0,0,linear,0.025,TRUE,25,FALSE,1,1,NA,914,EQ,H0,2,splines,0.021,-0.0010131129389407136,0.007321750131879548,0,1000
7,250,0,250,250,500,500,750,750,2,0,1,0,0,0,0,0,0,0,0,0,0,0,0,0,0,0,linear,0.025,TRUE,25,FALSE,1,1,NA,914,EQ,H0,2,splines_cal,0.024,-0.0016322749964130861,0.007479621421682611,0,1000
7,250,0,250,250,500,500,750,750,2,0,1,0,0,0,0,0,0,0,0,0,0,0,0,0,0,0,linear,0.025,TRUE,25,FALSE,1,1,NA,914,EQ,H0,3,fixmodel,0.017,0.0021825313472186203,0.007064245044415999,0,1000
7,250,0,250,250,500,500,750,750,2,0,1,0,0,0,0,0,0,0,0,0,0,0,0,0,0,0,linear,0.025,TRUE,25,FALSE,1,1,NA,914,EQ,H0,3,fixmodel_cal,0.017,0.001946385821263186,0.006992415379863018,0,1000
7,250,0,250,250,500,500,750,750,2,0,1,0,0,0,0,0,0,0,0,0,0,0,0,0,0,0,linear,0.025,TRUE,25,FALSE,1,1,NA,914,EQ,H0,3,poolmodel,0.027,0.0027677153368868405,0.006216842292747027,0,1000
7,250,0,250,250,500,500,750,750,2,0,1,0,0,0,0,0,0,0,0,0,0,0,0,0,0,0,linear,0.025,TRUE,25,FALSE,1,1,NA,914,EQ,H0,3,sepmodel,0.027,0.00427022453862564,0.007596392431554023,0,1000
7,250,0,250,250,500,500,750,750,2,0,1,0,0,0,0,0,0,0,0,0,0,0,0,0,0,0,linear,0.025,TRUE,25,FALSE,1,1,NA,914,EQ,H0,3,splines,0.021,0.0025001619247990298,0.006932503537582831,0,1000
7,250,0,250,250,500,500,750,750,2,0,1,0,0,0,0,0,0,0,0,0,0,0,0,0,0,0,linear,0.025,TRUE,25,FALSE,1,1,NA,914,EQ,H0,3,splines_cal,0.017,0.0016929150803619679,0.0069761934871193755,0,1000
7,250,0,250,250,500,500,750,750,2,0,1,0,0,0,0,0,0,0,0,0,0,0,0,0,0,0,linear,0.025,TRUE,25,FALSE,1,1,NA,914,EQ,H0,4,fixmodel,0.024,-0.003632793531238043,0.0067917668320768365,0,1000
7,250,0,250,250,500,500,750,750,2,0,1,0,0,0,0,0,0,0,0,0,0,0,0,0,0,0,linear,0.025,TRUE,25,FALSE,1,1,NA,914,EQ,H0,4,fixmodel_cal,0.023,-0.0036372015893237296,0.006768381152029929,0,1000
7,250,0,250,250,500,500,750,750,2,0,1,0,0,0,0,0,0,0,0,0,0,0,0,0,0,0,linear,0.025,TRUE,25,FALSE,1,1,NA,914,EQ,H0,4,poolmodel,0.023,-0.0028889888603274845,0.005963315778434369,0,1000
7,250,0,250,250,500,500,750,750,2,0,1,0,0,0,0,0,0,0,0,0,0,0,0,0,0,0,linear,0.025,TRUE,25,FALSE,1,1,NA,914,EQ,H0,4,sepmodel,0.029,-0.0020341547494045127,0.007727242980337398,0,1000
7,250,0,250,250,500,500,750,750,2,0,1,0,0,0,0,0,0,0,0,0,0,0,0,0,0,0,linear,0.025,TRUE,25,FALSE,1,1,NA,914,EQ,H0,4,splines,0.023,-0.003661944334623978,0.006703763980853649,0,1000
7,250,0,250,250,500,500,750,750,2,0,1,0,0,0,0,0,0,0,0,0,0,0,0,0,0,0,linear,0.025,TRUE,25,FALSE,1,1,NA,914,EQ,H0,4,splines_cal,0.026,-0.003777258585277065,0.006770980546822654,0,1000
7,250,0,250,250,500,500,750,750,2,0,1,0,0,0,0,0,0,0,0,0,0,0,0,0,0,0,linear,0.025,TRUE,25,FALSE,1,1,NA,914,EQ,H0,5,fixmodel,0.023,-0.004071509698710688,0.007166089464714529,0,1000
7,250,0,250,250,500,500,750,750,2,0,1,0,0,0,0,0,0,0,0,0,0,0,0,0,0,0,linear,0.025,TRUE,25,FALSE,1,1,NA,914,EQ,H0,5,fixmodel_cal,0.026,-0.004253196213827383,0.007185971815455554,0,1000
7,250,0,250,250,500,500,750,750,2,0,1,0,0,0,0,0,0,0,0,0,0,0,0,0,0,0,linear,0.025,TRUE,25,FALSE,1,1,NA,914,EQ,H0,5,poolmodel,0.018,-0.003327705027800138,0.006155667235226661,0,1000
7,250,0,250,250,500,500,750,750,2,0,1,0,0,0,0,0,0,0,0,0,0,0,0,0,0,0,linear,0.025,TRUE,25,FALSE,1,1,NA,914,EQ,H0,5,sepmodel,0.024,-0.0024728709168771973,0.008171399928352011,0,1000
7,250,0,250,250,500,500,750,750,2,0,1,0,0,0,0,0,0,0,0,0,0,0,0,0,0,0,linear,0.025,TRUE,25,FALSE,1,1,NA,914,EQ,H0,5,splines,0.021,-0.004101354903337847,0.0071644426100010376,0,1000
7,250,0,250,250,500,500,750,750,2,0,1,0,0,0,0,0,0,0,0,0,0,0,0,0,0,0,linear,0.025,TRUE,25,FALSE,1,1,NA,914,EQ,H0,5,splines_cal,0.025,-0.00414158048018997,0.00722079395232366,0,1000
7,250,0,250,250,500,500,750,750,2,0,1,0,0,0,0,0,0,0,0,0,0,0,0,0,0,0,linear,0.025,TRUE,25,FALSE,1,1,NA,914,EQ,H0,6,fixmodel,0.02,-0.0025036602160947077,0.007443015082032566,0,1000
7,250,0,250,250,500,500,750,750,2,0,1,0,0,0,0,0,0,0,0,0,0,0,0,0,0,0,linear,0.025,TRUE,25,FALSE,1,1,NA,914,EQ,H0,6,fixmodel_cal,0.023,-0.002524225706462926,0.007469981437496993,0,1000
7,250,0,250,250,500,500,750,750,2,0,1,0,0,0,0,0,0,0,0,0,0,0,0,0,0,0,linear,0.025,TRUE,25,FALSE,1,1,NA,914,EQ,H0,6,poolmodel,0.019,-0.0017673719803696767,0.006027583062558861,0,1000
7,250,0,250,250,500,500,750,750,2,0,1,0,0,0,0,0,0,0,0,0,0,0,0,0,0,0,linear,0.025,TRUE,25,FALSE,1,1,NA,914,EQ,H0,6,sepmodel,0.024,-5.345109213328738e-4,0.008508742783094558,0,1000
7,250,0,250,250,500,500,750,750,2,0,1,0,0,0,0,0,0,0,0,0,0,0,0,0,0,0,linear,0.025,TRUE,25,FALSE,1,1,NA,914,EQ,H0,6,splines,0.021,-0.002448496272543979,0.007335886180109367,0,1000
7,250,0,250,250,500,500,750,750,2,0,1,0,0,0,0,0,0,0,0,0,0,0,0,0,0,0,linear,0.025,TRUE,25,FALSE,1,1,NA,914,EQ,H0,6,splines_cal,0.021,-0.0026005105006142886,0.00747450857750232,0,1000
7,250,0,250,250,500,500,750,750,2,0,1,0,0,0,0,0,0,0,0,0,0,0,0,0,0,0,linear,0.025,TRUE,25,FALSE,1,1,NA,914,EQ,H0,7,fixmodel,0.025,-0.0038049318383525134,0.0075440477938711155,0,1000
7,250,0,250,250,500,500,750,750,2,0,1,0,0,0,0,0,0,0,0,0,0,0,0,0,0,0,linear,0.025,TRUE,25,FALSE,1,1,NA,914,EQ,H0,7,fixmodel_cal,0.024,-0.003885840159235254,0.007559714294712602,0,1000
7,250,0,250,250,500,500,750,750,2,0,1,0,0,0,0,0,0,0,0,0,0,0,0,0,0,0,linear,0.025,TRUE,25,FALSE,1,1,NA,914,EQ,H0,7,poolmodel,0.024,-0.00306864360262746,0.006345180154217447,0,1000
7,250,0,250,250,500,500,750,750,2,0,1,0,0,0,0,0,0,0,0,0,0,0,0,0,0,0,linear,0.025,TRUE,25,FALSE,1,1,NA,914,EQ,H0,7,sepmodel,0.027,-0.0018357825435906605,0.008485635117150066,0,1000
7,250,0,250,250,500,500,750,750,2,0,1,0,0,0,0,0,0,0,0,0,0,0,0,0,0,0,linear,0.025,TRUE,25,FALSE,1,1,NA,914,EQ,H0,7,splines,0.025,-0.0037467749414004125,0.007445285503223925,0,1000
7,250,0,250,250,500,500,750,750,2,0,1,0,0,0,0,0,0,0,0,0,0,0,0,0,0,0,linear,0.025,TRUE,25,FALSE,1,1,NA,914,EQ,H0,7,splines_cal,0.027,-0.003648428519029783,0.007551754592838865,0,1000
7,250,0,250,250,500,500,750,750,2,0,1,0,0,0,0,0,0,0,0,0,0,0,0,0,0,0,linear,0.025,TRUE,25,FALSE,2,2,NA,914,EQ,H0,2,fixmodel,0.033,-0.0028722595596080767,0.008235017334521708,0,1000
7,250,0,250,250,500,500,750,750,2,0,1,0,0,0,0,0,0,0,0,0,0,0,0,0,0,0,linear,0.025,TRUE,25,FALSE,2,2,NA,914,EQ,H0,2,fixmodel_cal,0.031,-0.0026389993710354185,0.008221108886174153,0,1000
7,250,0,250,250,500,500,750,750,2,0,1,0,0,0,0,0,0,0,0,0,0,0,0,0,0,0,linear,0.025,TRUE,25,FALSE,2,2,NA,914,EQ,H0,2,poolmodel,0.031,-0.0025785792887519686,0.007157053394968327,0,1000
7,250,0,250,250,500,500,750,750,2,0,1,0,0,0,0,0,0,0,0,0,0,0,0,0,0,0,linear,0.025,TRUE,25,FALSE,2,2,NA,914,EQ,H0,2,sepmodel,0.031,-0.002585434185544428,0.00874092829879998,0,1000
7,250,0,250,250,500,500,750,750,2,0,1,0,0,0,0,0,0,0,0,0,0,0,0,0,0,0,linear,0.025,TRUE,25,FALSE,2,2,NA,914,EQ,H0,2,splines,0.032,-0.002969038084644783,0.007973616776030663,0,1000
