pavlakrotka/MASTERARBEIT/simulations_03_2023/results/sim_results_Ch4.csv
num_arms,n_arm,d1,d2,d3,d4,d5,d6,d7,period_blocks,mu0,sigma,theta1,theta2,theta3,theta4,theta5,theta6,theta7,lambda0,lambda1,lambda2,lambda3,lambda4,lambda5,lambda6,lambda7,trend,alpha,ncc,unit_size,bs_degree,study_arm,model,reject_h0,bias,MSE,failed,nsim
7,250,0,250,250,500,500,750,750,2,0,1,0,0,0,0,0,0,0,-0.15,-0.15,-0.15,-0.15,-0.15,-0.15,-0.15,-0.15,linear,0.025,TRUE,25,3,2,fixmodel,0.0238,-0.0010354952778542142,0.00745966023084315,0,10000
7,250,0,250,250,500,500,750,750,2,0,1,0,0,0,0,0,0,0,-0.15,-0.15,-0.15,-0.15,-0.15,-0.15,-0.15,-0.15,linear,0.025,TRUE,25,3,2,poolmodel,0.0126,-0.019607201052138937,0.007075252815213207,0,10000
7,250,0,250,250,500,500,750,750,2,0,1,0,0,0,0,0,0,0,-0.15,-0.15,-0.15,-0.15,-0.15,-0.15,-0.15,-0.15,linear,0.025,TRUE,25,3,2,sepmodel,0.0242,-7.428815173825861e-4,0.007979700859988292,0,10000
7,250,0,250,250,500,500,750,750,2,0,1,0,0,0,0,0,0,0,-0.15,-0.15,-0.15,-0.15,-0.15,-0.15,-0.15,-0.15,linear,0.025,TRUE,25,3,2,splines,0.024,-0.0010088989866147851,0.007368550512301518,0,10000
7,250,0,250,250,500,500,750,750,2,0,1,0,0,0,0,0,0,0,-0.15,-0.15,-0.15,-0.15,-0.15,-0.15,-0.15,-0.15,linear,0.025,TRUE,25,3,2,splines_cal,0.0243,-0.0010576117383164618,0.007420602371542299,0,10000
7,250,0,250,250,500,500,750,750,2,0,1,0,0,0,0,0,0,0,-0.15,-0.15,-0.15,-0.15,-0.15,-0.15,-0.15,-0.15,linear,0.025,TRUE,25,3,3,fixmodel,0.0252,-8.381849076268816e-4,0.007478900085964883,0,10000
7,250,0,250,250,500,500,750,750,2,0,1,0,0,0,0,0,0,0,-0.15,-0.15,-0.15,-0.15,-0.15,-0.15,-0.15,-0.15,linear,0.025,TRUE,25,3,3,poolmodel,0.0147,-0.019409890681911776,0.007101593477764511,0,10000
7,250,0,250,250,500,500,750,750,2,0,1,0,0,0,0,0,0,0,-0.15,-0.15,-0.15,-0.15,-0.15,-0.15,-0.15,-0.15,linear,0.025,TRUE,25,3,3,sepmodel,0.0258,-5.455711471554161e-4,0.008017406493530766,0,10000
7,250,0,250,250,500,500,750,750,2,0,1,0,0,0,0,0,0,0,-0.15,-0.15,-0.15,-0.15,-0.15,-0.15,-0.15,-0.15,linear,0.025,TRUE,25,3,3,splines,0.0247,-8.116352624602259e-4,0.007376258360966809,0,10000
7,250,0,250,250,500,500,750,750,2,0,1,0,0,0,0,0,0,0,-0.15,-0.15,-0.15,-0.15,-0.15,-0.15,-0.15,-0.15,linear,0.025,TRUE,25,3,3,splines_cal,0.0262,-7.970521572226707e-4,0.007456862993045863,0,10000
7,250,0,250,250,500,500,750,750,2,0,1,0,0,0,0,0,0,0,-0.15,-0.15,-0.15,-0.15,-0.15,-0.15,-0.15,-0.15,linear,0.025,TRUE,25,3,4,fixmodel,0.0258,9.558843967911322e-4,0.007310428213880653,0,10000
7,250,0,250,250,500,500,750,750,2,0,1,0,0,0,0,0,0,0,-0.15,-0.15,-0.15,-0.15,-0.15,-0.15,-0.15,-0.15,linear,0.025,TRUE,25,3,4,poolmodel,0.0097,-0.031807611415733884,0.007442515950249885,0,10000
7,250,0,250,250,500,500,750,750,2,0,1,0,0,0,0,0,0,0,-0.15,-0.15,-0.15,-0.15,-0.15,-0.15,-0.15,-0.15,linear,0.025,TRUE,25,3,4,sepmodel,0.0248,8.886758040391792e-4,0.008037748915190527,0,10000
7,250,0,250,250,500,500,750,750,2,0,1,0,0,0,0,0,0,0,-0.15,-0.15,-0.15,-0.15,-0.15,-0.15,-0.15,-0.15,linear,0.025,TRUE,25,3,4,splines,0.0259,0.0010105915930924574,0.0072501338790917575,0,10000
7,250,0,250,250,500,500,750,750,2,0,1,0,0,0,0,0,0,0,-0.15,-0.15,-0.15,-0.15,-0.15,-0.15,-0.15,-0.15,linear,0.025,TRUE,25,3,4,splines_cal,0.0252,9.116589749722593e-4,0.007298752437146509,0,10000
7,250,0,250,250,500,500,750,750,2,0,1,0,0,0,0,0,0,0,-0.15,-0.15,-0.15,-0.15,-0.15,-0.15,-0.15,-0.15,linear,0.025,TRUE,25,3,5,fixmodel,0.0242,-1.0202242192682269e-5,0.007115326720873694,0,10000
7,250,0,250,250,500,500,750,750,2,0,1,0,0,0,0,0,0,0,-0.15,-0.15,-0.15,-0.15,-0.15,-0.15,-0.15,-0.15,linear,0.025,TRUE,25,3,5,poolmodel,0.0088,-0.03277369805471769,0.007367091202126401,0,10000
7,250,0,250,250,500,500,750,750,2,0,1,0,0,0,0,0,0,0,-0.15,-0.15,-0.15,-0.15,-0.15,-0.15,-0.15,-0.15,linear,0.025,TRUE,25,3,5,sepmodel,0.0238,-7.741083494463213e-5,0.008000340526862043,0,10000
7,250,0,250,250,500,500,750,750,2,0,1,0,0,0,0,0,0,0,-0.15,-0.15,-0.15,-0.15,-0.15,-0.15,-0.15,-0.15,linear,0.025,TRUE,25,3,5,splines,0.024,4.4508449243515335e-5,0.007066443226982339,0,10000
7,250,0,250,250,500,500,750,750,2,0,1,0,0,0,0,0,0,0,-0.15,-0.15,-0.15,-0.15,-0.15,-0.15,-0.15,-0.15,linear,0.025,TRUE,25,3,5,splines_cal,0.0248,9.694470822374224e-5,0.007095278812668828,0,10000
7,250,0,250,250,500,500,750,750,2,0,1,0,0,0,0,0,0,0,-0.15,-0.15,-0.15,-0.15,-0.15,-0.15,-0.15,-0.15,linear,0.025,TRUE,25,3,6,fixmodel,0.0274,9.224259575081908e-5,0.007116436428296536,0,10000
7,250,0,250,250,500,500,750,750,2,0,1,0,0,0,0,0,0,0,-0.15,-0.15,-0.15,-0.15,-0.15,-0.15,-0.15,-0.15,linear,0.025,TRUE,25,3,6,poolmodel,0.0069,-0.04240191109988862,0.007923728250519005,0,10000
7,250,0,250,250,500,500,750,750,2,0,1,0,0,0,0,0,0,0,-0.15,-0.15,-0.15,-0.15,-0.15,-0.15,-0.15,-0.15,linear,0.025,TRUE,25,3,6,sepmodel,0.0276,2.3799154537938684e-4,0.00803783762611766,0,10000
7,250,0,250,250,500,500,750,750,2,0,1,0,0,0,0,0,0,0,-0.15,-0.15,-0.15,-0.15,-0.15,-0.15,-0.15,-0.15,linear,0.025,TRUE,25,3,6,splines,0.0264,7.269508334528382e-5,0.00705984071386702,0,10000
7,250,0,250,250,500,500,750,750,2,0,1,0,0,0,0,0,0,0,-0.15,-0.15,-0.15,-0.15,-0.15,-0.15,-0.15,-0.15,linear,0.025,TRUE,25,3,6,splines_cal,0.0275,4.78469635412676e-5,0.007131237806549248,0,10000
7,250,0,250,250,500,500,750,750,2,0,1,0,0,0,0,0,0,0,-0.15,-0.15,-0.15,-0.15,-0.15,-0.15,-0.15,-0.15,linear,0.025,TRUE,25,3,7,fixmodel,0.0234,6.243125687305488e-5,0.007070018832528902,0,10000
7,250,0,250,250,500,500,750,750,2,0,1,0,0,0,0,0,0,0,-0.15,-0.15,-0.15,-0.15,-0.15,-0.15,-0.15,-0.15,linear,0.025,TRUE,25,3,7,poolmodel,0.007,-0.042431722438766396,0.00793550898349068,0,10000
7,250,0,250,250,500,500,750,750,2,0,1,0,0,0,0,0,0,0,-0.15,-0.15,-0.15,-0.15,-0.15,-0.15,-0.15,-0.15,linear,0.025,TRUE,25,3,7,sepmodel,0.022,2.0818020650159848e-4,0.007996837270957367,0,10000
7,250,0,250,250,500,500,750,750,2,0,1,0,0,0,0,0,0,0,-0.15,-0.15,-0.15,-0.15,-0.15,-0.15,-0.15,-0.15,linear,0.025,TRUE,25,3,7,splines,0.0229,4.3157725791872654e-5,0.007007833376364851,0,10000
7,250,0,250,250,500,500,750,750,2,0,1,0,0,0,0,0,0,0,-0.15,-0.15,-0.15,-0.15,-0.15,-0.15,-0.15,-0.15,linear,0.025,TRUE,25,3,7,splines_cal,0.0227,6.46173256411124e-5,0.007069645642507612,0,10000
7,250,0,250,250,500,500,750,750,2,0,1,0,0,0,0,0,0,0,-0.11249999999999999,-0.11249999999999999,-0.11249999999999999,-0.11249999999999999,-0.11249999999999999,-0.11249999999999999,-0.11249999999999999,-0.11249999999999999,linear,0.025,TRUE,25,3,2,fixmodel,0.0238,-8.21792874418714e-4,0.0072573328207350156,0,10000
7,250,0,250,250,500,500,750,750,2,0,1,0,0,0,0,0,0,0,-0.11249999999999999,-0.11249999999999999,-0.11249999999999999,-0.11249999999999999,-0.11249999999999999,-0.11249999999999999,-0.11249999999999999,-0.11249999999999999,linear,0.025,TRUE,25,3,2,poolmodel,0.0145,-0.015069481012334792,0.006675047450981634,0,10000
7,250,0,250,250,500,500,750,750,2,0,1,0,0,0,0,0,0,0,-0.11249999999999999,-0.11249999999999999,-0.11249999999999999,-0.11249999999999999,-0.11249999999999999,-0.11249999999999999,-0.11249999999999999,-0.11249999999999999,linear,0.025,TRUE,25,3,2,sepmodel,0.0219,-0.0010068257528436139,0.007764614851503835,0,10000
7,250,0,250,250,500,500,750,750,2,0,1,0,0,0,0,0,0,0,-0.11249999999999999,-0.11249999999999999,-0.11249999999999999,-0.11249999999999999,-0.11249999999999999,-0.11249999999999999,-0.11249999999999999,-0.11249999999999999,linear,0.025,TRUE,25,3,2,splines,0.0232,-9.35953599418978e-4,0.0071541542097689394,0,10000
7,250,0,250,250,500,500,750,750,2,0,1,0,0,0,0,0,0,0,-0.11249999999999999,-0.11249999999999999,-0.11249999999999999,-0.11249999999999999,-0.11249999999999999,-0.11249999999999999,-0.11249999999999999,-0.11249999999999999,linear,0.025,TRUE,25,3,2,splines_cal,0.0235,-6.224267562418749e-4,0.0072366634763371225,0,10000
7,250,0,250,250,500,500,750,750,2,0,1,0,0,0,0,0,0,0,-0.11249999999999999,-0.11249999999999999,-0.11249999999999999,-0.11249999999999999,-0.11249999999999999,-0.11249999999999999,-0.11249999999999999,-0.11249999999999999,linear,0.025,TRUE,25,3,3,fixmodel,0.0219,-2.557116547208215e-4,0.007323603846238512,0,10000
7,250,0,250,250,500,500,750,750,2,0,1,0,0,0,0,0,0,0,-0.11249999999999999,-0.11249999999999999,-0.11249999999999999,-0.11249999999999999,-0.11249999999999999,-0.11249999999999999,-0.11249999999999999,-0.11249999999999999,linear,0.025,TRUE,25,3,3,poolmodel,0.0149,-0.014503399792636977,0.006723028666591021,0,10000
7,250,0,250,250,500,500,750,750,2,0,1,0,0,0,0,0,0,0,-0.11249999999999999,-0.11249999999999999,-0.11249999999999999,-0.11249999999999999,-0.11249999999999999,-0.11249999999999999,-0.11249999999999999,-0.11249999999999999,linear,0.025,TRUE,25,3,3,sepmodel,0.0232,-4.4074453314579197e-4,0.007814828315990886,0,10000
7,250,0,250,250,500,500,750,750,2,0,1,0,0,0,0,0,0,0,-0.11249999999999999,-0.11249999999999999,-0.11249999999999999,-0.11249999999999999,-0.11249999999999999,-0.11249999999999999,-0.11249999999999999,-0.11249999999999999,linear,0.025,TRUE,25,3,3,splines,0.0225,-3.698407023059763e-4,0.007217734607705256,0,10000
7,250,0,250,250,500,500,750,750,2,0,1,0,0,0,0,0,0,0,-0.11249999999999999,-0.11249999999999999,-0.11249999999999999,-0.11249999999999999,-0.11249999999999999,-0.11249999999999999,-0.11249999999999999,-0.11249999999999999,linear,0.025,TRUE,25,3,3,splines_cal,0.0216,-1.1877312913594594e-4,0.007287658669338619,0,10000
7,250,0,250,250,500,500,750,750,2,0,1,0,0,0,0,0,0,0,-0.11249999999999999,-0.11249999999999999,-0.11249999999999999,-0.11249999999999999,-0.11249999999999999,-0.11249999999999999,-0.11249999999999999,-0.11249999999999999,linear,0.025,TRUE,25,3,4,fixmodel,0.0236,8.315075569934235e-4,0.007122559343755692,0,10000
7,250,0,250,250,500,500,750,750,2,0,1,0,0,0,0,0,0,0,-0.11249999999999999,-0.11249999999999999,-0.11249999999999999,-0.11249999999999999,-0.11249999999999999,-0.11249999999999999,-0.11249999999999999,-0.11249999999999999,linear,0.025,TRUE,25,3,4,poolmodel,0.0109,-0.024230856052820892,0.006795968551085615,0,10000
7,250,0,250,250,500,500,750,750,2,0,1,0,0,0,0,0,0,0,-0.11249999999999999,-0.11249999999999999,-0.11249999999999999,-0.11249999999999999,-0.11249999999999999,-0.11249999999999999,-0.11249999999999999,-0.11249999999999999,linear,0.025,TRUE,25,3,4,sepmodel,0.0248,0.0014027470775641623,0.007868580119075975,0,10000
7,250,0,250,250,500,500,750,750,2,0,1,0,0,0,0,0,0,0,-0.11249999999999999,-0.11249999999999999,-0.11249999999999999,-0.11249999999999999,-0.11249999999999999,-0.11249999999999999,-0.11249999999999999,-0.11249999999999999,linear,0.025,TRUE,25,3,4,splines,0.0231,7.930590859014953e-4,0.007067198320289674,0,10000
7,250,0,250,250,500,500,750,750,2,0,1,0,0,0,0,0,0,0,-0.11249999999999999,-0.11249999999999999,-0.11249999999999999,-0.11249999999999999,-0.11249999999999999,-0.11249999999999999,-0.11249999999999999,-0.11249999999999999,linear,0.025,TRUE,25,3,4,splines_cal,0.0243,9.872633084306297e-4,0.0070923060205352806,0,10000
7,250,0,250,250,500,500,750,750,2,0,1,0,0,0,0,0,0,0,-0.11249999999999999,-0.11249999999999999,-0.11249999999999999,-0.11249999999999999,-0.11249999999999999,-0.11249999999999999,-0.11249999999999999,-0.11249999999999999,linear,0.025,TRUE,25,3,5,fixmodel,0.025,2.7293165030619346e-4,0.007125694547183679,0,10000
7,250,0,250,250,500,500,750,750,2,0,1,0,0,0,0,0,0,0,-0.11249999999999999,-0.11249999999999999,-0.11249999999999999,-0.11249999999999999,-0.11249999999999999,-0.11249999999999999,-0.11249999999999999,-0.11249999999999999,linear,0.025,TRUE,25,3,5,poolmodel,0.0108,-0.024789431959508113,0.006839669203130842,0,10000
7,250,0,250,250,500,500,750,750,2,0,1,0,0,0,0,0,0,0,-0.11249999999999999,-0.11249999999999999,-0.11249999999999999,-0.11249999999999999,-0.11249999999999999,-0.11249999999999999,-0.11249999999999999,-0.11249999999999999,linear,0.025,TRUE,25,3,5,sepmodel,0.0233,8.441711708769393e-4,0.007846699453154086,0,10000
7,250,0,250,250,500,500,750,750,2,0,1,0,0,0,0,0,0,0,-0.11249999999999999,-0.11249999999999999,-0.11249999999999999,-0.11249999999999999,-0.11249999999999999,-0.11249999999999999,-0.11249999999999999,-0.11249999999999999,linear,0.025,TRUE,25,3,5,splines,0.0252,2.3665791355031627e-4,0.007063321857973119,0,10000
7,250,0,250,250,500,500,750,750,2,0,1,0,0,0,0,0,0,0,-0.11249999999999999,-0.11249999999999999,-0.11249999999999999,-0.11249999999999999,-0.11249999999999999,-0.11249999999999999,-0.11249999999999999,-0.11249999999999999,linear,0.025,TRUE,25,3,5,splines_cal,0.0251,3.337594701609914e-4,0.007105584734780729,0,10000
7,250,0,250,250,500,500,750,750,2,0,1,0,0,0,0,0,0,0,-0.11249999999999999,-0.11249999999999999,-0.11249999999999999,-0.11249999999999999,-0.11249999999999999,-0.11249999999999999,-0.11249999999999999,-0.11249999999999999,linear,0.025,TRUE,25,3,6,fixmodel,0.0219,-8.098006551182211e-4,0.006996529307845331,0,10000
7,250,0,250,250,500,500,750,750,2,0,1,0,0,0,0,0,0,0,-0.11249999999999999,-0.11249999999999999,-0.11249999999999999,-0.11249999999999999,-0.11249999999999999,-0.11249999999999999,-0.11249999999999999,-0.11249999999999999,linear,0.025,TRUE,25,3,6,poolmodel,0.0076,-0.03288070446954096,0.007141293773134432,0,10000
7,250,0,250,250,500,500,750,750,2,0,1,0,0,0,0,0,0,0,-0.11249999999999999,-0.11249999999999999,-0.11249999999999999,-0.11249999999999999,-0.11249999999999999,-0.11249999999999999,-0.11249999999999999,-0.11249999999999999,linear,0.025,TRUE,25,3,6,sepmodel,0.0244,5.724332798859297e-5,0.007947508741974231,0,10000
7,250,0,250,250,500,500,750,750,2,0,1,0,0,0,0,0,0,0,-0.11249999999999999,-0.11249999999999999,-0.11249999999999999,-0.11249999999999999,-0.11249999999999999,-0.11249999999999999,-0.11249999999999999,-0.11249999999999999,linear,0.025,TRUE,25,3,6,splines,0.0219,-8.521276585852311e-4,0.006975062040439437,0,10000
7,250,0,250,250,500,500,750,750,2,0,1,0,0,0,0,0,0,0,-0.11249999999999999,-0.11249999999999999,-0.11249999999999999,-0.11249999999999999,-0.11249999999999999,-0.11249999999999999,-0.11249999999999999,-0.11249999999999999,linear,0.025,TRUE,25,3,6,splines_cal,0.0222,-7.881625312869843e-4,0.007021059680392893,0,10000
7,250,0,250,250,500,500,750,750,2,0,1,0,0,0,0,0,0,0,-0.11249999999999999,-0.11249999999999999,-0.11249999999999999,-0.11249999999999999,-0.11249999999999999,-0.11249999999999999,-0.11249999999999999,-0.11249999999999999,linear,0.025,TRUE,25,3,7,fixmodel,0.0228,-0.001275440453013198,0.006890809119001869,0,10000
7,250,0,250,250,500,500,750,750,2,0,1,0,0,0,0,0,0,0,-0.11249999999999999,-0.11249999999999999,-0.11249999999999999,-0.11249999999999999,-0.11249999999999999,-0.11249999999999999,-0.11249999999999999,-0.11249999999999999,linear,0.025,TRUE,25,3,7,poolmodel,0.0078,-0.03334634426743597,0.007118213134088167,0,10000
7,250,0,250,250,500,500,750,750,2,0,1,0,0,0,0,0,0,0,-0.11249999999999999,-0.11249999999999999,-0.11249999999999999,-0.11249999999999999,-0.11249999999999999,-0.11249999999999999,-0.11249999999999999,-0.11249999999999999,linear,0.025,TRUE,25,3,7,sepmodel,0.0229,-4.08396469906419e-4,0.007890466253396811,0,10000
7,250,0,250,250,500,500,750,750,2,0,1,0,0,0,0,0,0,0,-0.11249999999999999,-0.11249999999999999,-0.11249999999999999,-0.11249999999999999,-0.11249999999999999,-0.11249999999999999,-0.11249999999999999,-0.11249999999999999,linear,0.025,TRUE,25,3,7,splines,0.0229,-0.0013195992835184443,0.006866844908035298,0,10000
7,250,0,250,250,500,500,750,750,2,0,1,0,0,0,0,0,0,0,-0.11249999999999999,-0.11249999999999999,-0.11249999999999999,-0.11249999999999999,-0.11249999999999999,-0.11249999999999999,-0.11249999999999999,-0.11249999999999999,linear,0.025,TRUE,25,3,7,splines_cal,0.0224,-0.0012560983133051969,0.006895681984215312,0,10000
7,250,0,250,250,500,500,750,750,2,0,1,0,0,0,0,0,0,0,-0.075,-0.075,-0.075,-0.075,-0.075,-0.075,-0.075,-0.075,linear,0.025,TRUE,25,3,2,fixmodel,0.0225,4.268040076732263e-4,0.007315165013601918,0,10000
7,250,0,250,250,500,500,750,750,2,0,1,0,0,0,0,0,0,0,-0.075,-0.075,-0.075,-0.075,-0.075,-0.075,-0.075,-0.075,linear,0.025,TRUE,25,3,2,poolmodel,0.0185,-0.009285186675614248,0.006682571675142686,0,10000
7,250,0,250,250,500,500,750,750,2,0,1,0,0,0,0,0,0,0,-0.075,-0.075,-0.075,-0.075,-0.075,-0.075,-0.075,-0.075,linear,0.025,TRUE,25,3,2,sepmodel,0.0224,6.428599586241384e-4,0.007927868373160002,0,10000
7,250,0,250,250,500,500,750,750,2,0,1,0,0,0,0,0,0,0,-0.075,-0.075,-0.075,-0.075,-0.075,-0.075,-0.075,-0.075,linear,0.025,TRUE,25,3,2,splines,0.0235,3.005471082784821e-4,0.007237667631638918,0,10000
7,250,0,250,250,500,500,750,750,2,0,1,0,0,0,0,0,0,0,-0.075,-0.075,-0.075,-0.075,-0.075,-0.075,-0.075,-0.075,linear,0.025,TRUE,25,3,2,splines_cal,0.0232,3.5088519050505905e-4,0.007312614785073413,0,10000
7,250,0,250,250,500,500,750,750,2,0,1,0,0,0,0,0,0,0,-0.075,-0.075,-0.075,-0.075,-0.075,-0.075,-0.075,-0.075,linear,0.025,TRUE,25,3,3,fixmodel,0.0271,-8.05225014339291e-5,0.007422445077491423,0,10000
7,250,0,250,250,500,500,750,750,2,0,1,0,0,0,0,0,0,0,-0.075,-0.075,-0.075,-0.075,-0.075,-0.075,-0.075,-0.075,linear,0.025,TRUE,25,3,3,poolmodel,0.0179,-0.009792513184721506,0.006676710611805919,0,10000
7,250,0,250,250,500,500,750,750,2,0,1,0,0,0,0,0,0,0,-0.075,-0.075,-0.075,-0.075,-0.075,-0.075,-0.075,-0.075,linear,0.025,TRUE,25,3,3,sepmodel,0.0279,1.3553344951687635e-4,0.007957993989302057,0,10000
7,250,0,250,250,500,500,750,750,2,0,1,0,0,0,0,0,0,0,-0.075,-0.075,-0.075,-0.075,-0.075,-0.075,-0.075,-0.075,linear,0.025,TRUE,25,3,3,splines,0.0274,-2.0722745683897565e-4,0.0073241836709321915,0,10000
7,250,0,250,250,500,500,750,750,2,0,1,0,0,0,0,0,0,0,-0.075,-0.075,-0.075,-0.075,-0.075,-0.075,-0.075,-0.075,linear,0.025,TRUE,25,3,3,splines_cal,0.0266,-1.7452979685678052e-4,0.007386016543390009,0,10000
7,250,0,250,250,500,500,750,750,2,0,1,0,0,0,0,0,0,0,-0.075,-0.075,-0.075,-0.075,-0.075,-0.075,-0.075,-0.075,linear,0.025,TRUE,25,3,4,fixmodel,0.024,0.001502644893046587,0.007133175167386499,0,10000
7,250,0,250,250,500,500,750,750,2,0,1,0,0,0,0,0,0,0,-0.075,-0.075,-0.075,-0.075,-0.075,-0.075,-0.075,-0.075,linear,0.025,TRUE,25,3,4,poolmodel,0.0147,-0.015206017534629496,0.006461422041087759,0,10000
7,250,0,250,250,500,500,750,750,2,0,1,0,0,0,0,0,0,0,-0.075,-0.075,-0.075,-0.075,-0.075,-0.075,-0.075,-0.075,linear,0.025,TRUE,25,3,4,sepmodel,0.0246,0.002268432850156006,0.008020770364280963,0,10000
7,250,0,250,250,500,500,750,750,2,0,1,0,0,0,0,0,0,0,-0.075,-0.075,-0.075,-0.075,-0.075,-0.075,-0.075,-0.075,linear,0.025,TRUE,25,3,4,splines,0.0229,0.0014585085949971985,0.007074006186056891,0,10000
7,250,0,250,250,500,500,750,750,2,0,1,0,0,0,0,0,0,0,-0.075,-0.075,-0.075,-0.075,-0.075,-0.075,-0.075,-0.075,linear,0.025,TRUE,25,3,4,splines_cal,0.0236,0.001325800593107016,0.0071139431094471425,0,10000
7,250,0,250,250,500,500,750,750,2,0,1,0,0,0,0,0,0,0,-0.075,-0.075,-0.075,-0.075,-0.075,-0.075,-0.075,-0.075,linear,0.025,TRUE,25,3,5,fixmodel,0.0245,-3.6114878099416885e-4,0.0070549305543476815,0,10000
7,250,0,250,250,500,500,750,750,2,0,1,0,0,0,0,0,0,0,-0.075,-0.075,-0.075,-0.075,-0.075,-0.075,-0.075,-0.075,linear,0.025,TRUE,25,3,5,poolmodel,0.0142,-0.017069811208670235,0.006443046566758767,0,10000
7,250,0,250,250,500,500,750,750,2,0,1,0,0,0,0,0,0,0,-0.075,-0.075,-0.075,-0.075,-0.075,-0.075,-0.075,-0.075,linear,0.025,TRUE,25,3,5,sepmodel,0.0269,4.046391761152696e-4,0.007891113809482271,0,10000
7,250,0,250,250,500,500,750,750,2,0,1,0,0,0,0,0,0,0,-0.075,-0.075,-0.075,-0.075,-0.075,-0.075,-0.075,-0.075,linear,0.025,TRUE,25,3,5,splines,0.0235,-4.059564358077507e-4,0.006989883912408889,0,10000
7,250,0,250,250,500,500,750,750,2,0,1,0,0,0,0,0,0,0,-0.075,-0.075,-0.075,-0.075,-0.075,-0.075,-0.075,-0.075,linear,0.025,TRUE,25,3,5,splines_cal,0.0241,-5.619293849980556e-4,0.0070378921319997805,0,10000
7,250,0,250,250,500,500,750,750,2,0,1,0,0,0,0,0,0,0,-0.075,-0.075,-0.075,-0.075,-0.075,-0.075,-0.075,-0.075,linear,0.025,TRUE,25,3,6,fixmodel,0.0265,-7.644912501531245e-5,0.00699286123387202,0,10000
7,250,0,250,250,500,500,750,750,2,0,1,0,0,0,0,0,0,0,-0.075,-0.075,-0.075,-0.075,-0.075,-0.075,-0.075,-0.075,linear,0.025,TRUE,25,3,6,poolmodel,0.0134,-0.02180519215531451,0.006492623173680961,0,10000
7,250,0,250,250,500,500,750,750,2,0,1,0,0,0,0,0,0,0,-0.075,-0.075,-0.075,-0.075,-0.075,-0.075,-0.075,-0.075,linear,0.025,TRUE,25,3,6,sepmodel,0.0277,3.533509160198504e-4,0.008037944944049634,0,10000
7,250,0,250,250,500,500,750,750,2,0,1,0,0,0,0,0,0,0,-0.075,-0.075,-0.075,-0.075,-0.075,-0.075,-0.075,-0.075,linear,0.025,TRUE,25,3,6,splines,0.0269,-1.4264004598398756e-4,0.006952801928816365,0,10000
7,250,0,250,250,500,500,750,750,2,0,1,0,0,0,0,0,0,0,-0.075,-0.075,-0.075,-0.075,-0.075,-0.075,-0.075,-0.075,linear,0.025,TRUE,25,3,6,splines_cal,0.0268,-1.546683501115442e-4,0.007003097899725692,0,10000
7,250,0,250,250,500,500,750,750,2,0,1,0,0,0,0,0,0,0,-0.075,-0.075,-0.075,-0.075,-0.075,-0.075,-0.075,-0.075,linear,0.025,TRUE,25,3,7,fixmodel,0.0261,4.504772157815502e-4,0.006984929602723915,0,10000
7,250,0,250,250,500,500,750,750,2,0,1,0,0,0,0,0,0,0,-0.075,-0.075,-0.075,-0.075,-0.075,-0.075,-0.075,-0.075,linear,0.025,TRUE,25,3,7,poolmodel,0.0125,-0.02127826581451766,0.006545082658533385,0,10000
7,250,0,250,250,500,500,750,750,2,0,1,0,0,0,0,0,0,0,-0.075,-0.075,-0.075,-0.075,-0.075,-0.075,-0.075,-0.075,linear,0.025,TRUE,25,3,7,sepmodel,0.0263,8.802772568167051e-4,0.008011035790445546,0,10000
7,250,0,250,250,500,500,750,750,2,0,1,0,0,0,0,0,0,0,-0.075,-0.075,-0.075,-0.075,-0.075,-0.075,-0.075,-0.075,linear,0.025,TRUE,25,3,7,splines,0.0259,3.8155635646584254e-4,0.006943767685065117,0,10000
7,250,0,250,250,500,500,750,750,2,0,1,0,0,0,0,0,0,0,-0.075,-0.075,-0.075,-0.075,-0.075,-0.075,-0.075,-0.075,linear,0.025,TRUE,25,3,7,splines_cal,0.0252,3.5673920374721996e-4,0.006991356814876221,0,10000
7,250,0,250,250,500,500,750,750,2,0,1,0,0,0,0,0,0,0,-0.037500000000000006,-0.037500000000000006,-0.037500000000000006,-0.037500000000000006,-0.037500000000000006,-0.037500000000000006,-0.037500000000000006,-0.037500000000000006,linear,0.025,TRUE,25,3,2,fixmodel,0.0261,5.557903184091434e-4,0.007381016825540354,0,10000
7,250,0,250,250,500,500,750,750,2,0,1,0,0,0,0,0,0,0,-0.037500000000000006,-0.037500000000000006,-0.037500000000000006,-0.037500000000000006,-0.037500000000000006,-0.037500000000000006,-0.037500000000000006,-0.037500000000000006,linear,0.025,TRUE,25,3,2,poolmodel,0.0236,-0.004373203491634276,0.006655017651713774,0,10000
7,250,0,250,250,500,500,750,750,2,0,1,0,0,0,0,0,0,0,-0.037500000000000006,-0.037500000000000006,-0.037500000000000006,-0.037500000000000006,-0.037500000000000006,-0.037500000000000006,-0.037500000000000006,-0.037500000000000006,linear,0.025,TRUE,25,3,2,sepmodel,0.0272,3.201438672142918e-4,0.007908782169810027,0,10000
7,250,0,250,250,500,500,750,750,2,0,1,0,0,0,0,0,0,0,-0.037500000000000006,-0.037500000000000006,-0.037500000000000006,-0.037500000000000006,-0.037500000000000006,-0.037500000000000006,-0.037500000000000006,-0.037500000000000006,linear,0.025,TRUE,25,3,2,splines,0.0254,3.586673233100146e-4,0.007313773116316144,0,10000
7,250,0,250,250,500,500,750,750,2,0,1,0,0,0,0,0,0,0,-0.037500000000000006,-0.037500000000000006,-0.037500000000000006,-0.037500000000000006,-0.037500000000000006,-0.037500000000000006,-0.037500000000000006,-0.037500000000000006,linear,0.025,TRUE,25,3,2,splines_cal,0.0255,4.869017271905587e-4,0.00738516425791578,0,10000
7,250,0,250,250,500,500,750,750,2,0,1,0,0,0,0,0,0,0,-0.037500000000000006,-0.037500000000000006,-0.037500000000000006,-0.037500000000000006,-0.037500000000000006,-0.037500000000000006,-0.037500000000000006,-0.037500000000000006,linear,0.025,TRUE,25,3,3,fixmodel,0.0227,7.698442653516154e-4,0.0073836458894473616,0,10000
7,250,0,250,250,500,500,750,750,2,0,1,0,0,0,0,0,0,0,-0.037500000000000006,-0.037500000000000006,-0.037500000000000006,-0.037500000000000006,-0.037500000000000006,-0.037500000000000006,-0.037500000000000006,-0.037500000000000006,linear,0.025,TRUE,25,3,3,poolmodel,0.0198,-0.004159149544691858,0.006675619927847914,0,10000
7,250,0,250,250,500,500,750,750,2,0,1,0,0,0,0,0,0,0,-0.037500000000000006,-0.037500000000000006,-0.037500000000000006,-0.037500000000000006,-0.037500000000000006,-0.037500000000000006,-0.037500000000000006,-0.037500000000000006,linear,0.025,TRUE,25,3,3,sepmodel,0.0236,5.341978141567203e-4,0.007929697110309523,0,10000
7,250,0,250,250,500,500,750,750,2,0,1,0,0,0,0,0,0,0,-0.037500000000000006,-0.037500000000000006,-0.037500000000000006,-0.037500000000000006,-0.037500000000000006,-0.037500000000000006,-0.037500000000000006,-0.037500000000000006,linear,0.025,TRUE,25,3,3,splines,0.0229,5.73394124665649e-4,0.007299143228813918,0,10000
7,250,0,250,250,500,500,750,750,2,0,1,0,0,0,0,0,0,0,-0.037500000000000006,-0.037500000000000006,-0.037500000000000006,-0.037500000000000006,-0.037500000000000006,-0.037500000000000006,-0.037500000000000006,-0.037500000000000006,linear,0.025,TRUE,25,3,3,splines_cal,0.0233,6.583086216319935e-4,0.007369891850788361,0,10000
7,250,0,250,250,500,500,750,750,2,0,1,0,0,0,0,0,0,0,-0.037500000000000006,-0.037500000000000006,-0.037500000000000006,-0.037500000000000006,-0.037500000000000006,-0.037500000000000006,-0.037500000000000006,-0.037500000000000006,linear,0.025,TRUE,25,3,4,fixmodel,0.0249,-2.5915444768138897e-4,0.007080781369417948,0,10000
7,250,0,250,250,500,500,750,750,2,0,1,0,0,0,0,0,0,0,-0.037500000000000006,-0.037500000000000006,-0.037500000000000006,-0.037500000000000006,-0.037500000000000006,-0.037500000000000006,-0.037500000000000006,-0.037500000000000006,linear,0.025,TRUE,25,3,4,poolmodel,0.0198,-0.008618683156959923,0.006290049410684669,0,10000
7,250,0,250,250,500,500,750,750,2,0,1,0,0,0,0,0,0,0,-0.037500000000000006,-0.037500000000000006,-0.037500000000000006,-0.037500000000000006,-0.037500000000000006,-0.037500000000000006,-0.037500000000000006,-0.037500000000000006,linear,0.025,TRUE,25,3,4,sepmodel,0.0239,-5.409412633148259e-4,0.007911318763616216,0,10000
7,250,0,250,250,500,500,750,750,2,0,1,0,0,0,0,0,0,0,-0.037500000000000006,-0.037500000000000006,-0.037500000000000006,-0.037500000000000006,-0.037500000000000006,-0.037500000000000006,-0.037500000000000006,-0.037500000000000006,linear,0.025,TRUE,25,3,4,splines,0.0246,-3.7020828972978125e-4,0.007024094988644878,0,10000
7,250,0,250,250,500,500,750,750,2,0,1,0,0,0,0,0,0,0,-0.037500000000000006,-0.037500000000000006,-0.037500000000000006,-0.037500000000000006,-0.037500000000000006,-0.037500000000000006,-0.037500000000000006,-0.037500000000000006,linear,0.025,TRUE,25,3,4,splines_cal,0.0259,-2.460177502808037e-4,0.007078020142147039,0,10000
7,250,0,250,250,500,500,750,750,2,0,1,0,0,0,0,0,0,0,-0.037500000000000006,-0.037500000000000006,-0.037500000000000006,-0.037500000000000006,-0.037500000000000006,-0.037500000000000006,-0.037500000000000006,-0.037500000000000006,linear,0.025,TRUE,25,3,5,fixmodel,0.0261,0.001057995080082191,0.007131919137135636,0,10000
7,250,0,250,250,500,500,750,750,2,0,1,0,0,0,0,0,0,0,-0.037500000000000006,-0.037500000000000006,-0.037500000000000006,-0.037500000000000006,-0.037500000000000006,-0.037500000000000006,-0.037500000000000006,-0.037500000000000006,linear,0.025,TRUE,25,3,5,poolmodel,0.0203,-0.007301533629196336,0.006285443819974205,0,10000
7,250,0,250,250,500,500,750,750,2,0,1,0,0,0,0,0,0,0,-0.037500000000000006,-0.037500000000000006,-0.037500000000000006,-0.037500000000000006,-0.037500000000000006,-0.037500000000000006,-0.037500000000000006,-0.037500000000000006,linear,0.025,TRUE,25,3,5,sepmodel,0.0244,7.762082644487628e-4,0.007948677762533631,0,10000
7,250,0,250,250,500,500,750,750,2,0,1,0,0,0,0,0,0,0,-0.037500000000000006,-0.037500000000000006,-0.037500000000000006,-0.037500000000000006,-0.037500000000000006,-0.037500000000000006,-0.037500000000000006,-0.037500000000000006,linear,0.025,TRUE,25,3,5,splines,0.0256,9.480314840348314e-4,0.00709034378938727,0,10000
7,250,0,250,250,500,500,750,750,2,0,1,0,0,0,0,0,0,0,-0.037500000000000006,-0.037500000000000006,-0.037500000000000006,-0.037500000000000006,-0.037500000000000006,-0.037500000000000006,-0.037500000000000006,-0.037500000000000006,linear,0.025,TRUE,25,3,5,splines_cal,0.0259,8.96303371879031e-4,0.007123443905087094,0,10000
7,250,0,250,250,500,500,750,750,2,0,1,0,0,0,0,0,0,0,-0.037500000000000006,-0.037500000000000006,-0.037500000000000006,-0.037500000000000006,-0.037500000000000006,-0.037500000000000006,-0.037500000000000006,-0.037500000000000006,linear,0.025,TRUE,25,3,6,fixmodel,0.0248,-6.422350391456627e-4,0.007029230194364241,0,10000
7,250,0,250,250,500,500,750,750,2,0,1,0,0,0,0,0,0,0,-0.037500000000000006,-0.037500000000000006,-0.037500000000000006,-0.037500000000000006,-0.037500000000000006,-0.037500000000000006,-0.037500000000000006,-0.037500000000000006,linear,0.025,TRUE,25,3,6,poolmodel,0.0168,-0.011469636877904336,0.0061847131172798045,0,10000
7,250,0,250,250,500,500,750,750,2,0,1,0,0,0,0,0,0,0,-0.037500000000000006,-0.037500000000000006,-0.037500000000000006,-0.037500000000000006,-0.037500000000000006,-0.037500000000000006,-0.037500000000000006,-0.037500000000000006,linear,0.025,TRUE,25,3,6,sepmodel,0.0263,-8.730323792522686e-4,0.008052233865359108,0,10000
7,250,0,250,250,500,500,750,750,2,0,1,0,0,0,0,0,0,0,-0.037500000000000006,-0.037500000000000006,-0.037500000000000006,-0.037500000000000006,-0.037500000000000006,-0.037500000000000006,-0.037500000000000006,-0.037500000000000006,linear,0.025,TRUE,25,3,6,splines,0.0245,-7.497752786949047e-4,0.006987653160407126,0,10000
7,250,0,250,250,500,500,750,750,2,0,1,0,0,0,0,0,0,0,-0.037500000000000006,-0.037500000000000006,-0.037500000000000006,-0.037500000000000006,-0.037500000000000006,-0.037500000000000006,-0.037500000000000006,-0.037500000000000006,linear,0.025,TRUE,25,3,6,splines_cal,0.0262,-6.142070458208216e-4,0.007037277095107938,0,10000
7,250,0,250,250,500,500,750,750,2,0,1,0,0,0,0,0,0,0,-0.037500000000000006,-0.037500000000000006,-0.037500000000000006,-0.037500000000000006,-0.037500000000000006,-0.037500000000000006,-0.037500000000000006,-0.037500000000000006,linear,0.025,TRUE,25,3,7,fixmodel,0.0243,8.312032372702933e-5,0.007057197725670618,0,10000
7,250,0,250,250,500,500,750,750,2,0,1,0,0,0,0,0,0,0,-0.037500000000000006,-0.037500000000000006,-0.037500000000000006,-0.037500000000000006,-0.037500000000000006,-0.037500000000000006,-0.037500000000000006,-0.037500000000000006,linear,0.025,TRUE,25,3,7,poolmodel,0.0179,-0.010744281515031658,0.006184358929516815,0,10000
7,250,0,250,250,500,500,750,750,2,0,1,0,0,0,0,0,0,0,-0.037500000000000006,-0.037500000000000006,-0.037500000000000006,-0.037500000000000006,-0.037500000000000006,-0.037500000000000006,-0.037500000000000006,-0.037500000000000006,linear,0.025,TRUE,25,3,7,sepmodel,0.0258,-1.4767701637959527e-4,0.008029018778375169,0,10000
7,250,0,250,250,500,500,750,750,2,0,1,0,0,0,0,0,0,0,-0.037500000000000006,-0.037500000000000006,-0.037500000000000006,-0.037500000000000006,-0.037500000000000006,-0.037500000000000006,-0.037500000000000006,-0.037500000000000006,linear,0.025,TRUE,25,3,7,splines,0.0242,-2.5627469227806997e-5,0.00702762146151815,0,10000
7,250,0,250,250,500,500,750,750,2,0,1,0,0,0,0,0,0,0,-0.037500000000000006,-0.037500000000000006,-0.037500000000000006,-0.037500000000000006,-0.037500000000000006,-0.037500000000000006,-0.037500000000000006,-0.037500000000000006,linear,0.025,TRUE,25,3,7,splines_cal,0.0245,8.459461585994155e-5,0.007068908315333191,0,10000
7,250,0,250,250,500,500,750,750,2,0,1,0,0,0,0,0,0,0,0,0,0,0,0,0,0,0,linear,0.025,TRUE,25,3,2,fixmodel,0.0248,1.1826210444225282e-4,0.007358903567034817,0,10000
7,250,0,250,250,500,500,750,750,2,0,1,0,0,0,0,0,0,0,0,0,0,0,0,0,0,0,linear,0.025,TRUE,25,3,2,poolmodel,0.0252,1.90584008056184e-5,0.006513498344442674,0,10000
7,250,0,250,250,500,500,750,750,2,0,1,0,0,0,0,0,0,0,0,0,0,0,0,0,0,0,linear,0.025,TRUE,25,3,2,sepmodel,0.0225,1.3280328448693018e-4,0.007866106640267153,0,10000
7,250,0,250,250,500,500,750,750,2,0,1,0,0,0,0,0,0,0,0,0,0,0,0,0,0,0,linear,0.025,TRUE,25,3,2,splines,0.0247,-6.261388747983657e-5,0.007256748747438552,0,10000
7,250,0,250,250,500,500,750,750,2,0,1,0,0,0,0,0,0,0,0,0,0,0,0,0,0,0,linear,0.025,TRUE,25,3,2,splines_cal,0.0252,-1.7397178249578397e-5,0.007320138983765488,0,10000
7,250,0,250,250,500,500,750,750,2,0,1,0,0,0,0,0,0,0,0,0,0,0,0,0,0,0,linear,0.025,TRUE,25,3,3,fixmodel,0.0256,-0.0014421293705736494,0.007504742596272394,0,10000
7,250,0,250,250,500,500,750,750,2,0,1,0,0,0,0,0,0,0,0,0,0,0,0,0,0,0,linear,0.025,TRUE,25,3,3,poolmodel,0.025,-0.0015413330742102944,0.0067070754275108556,0,10000
7,250,0,250,250,500,500,750,750,2,0,1,0,0,0,0,0,0,0,0,0,0,0,0,0,0,0,linear,0.025,TRUE,25,3,3,sepmodel,0.0248,-0.0014275881905289937,0.008076103701285123,0,10000
7,250,0,250,250,500,500,750,750,2,0,1,0,0,0,0,0,0,0,0,0,0,0,0,0,0,0,linear,0.025,TRUE,25,3,3,splines,0.0249,-0.0016257232452333754,0.0074238114783087734,0,10000
7,250,0,250,250,500,500,750,750,2,0,1,0,0,0,0,0,0,0,0,0,0,0,0,0,0,0,linear,0.025,TRUE,25,3,3,splines_cal,0.0263,-0.00161878134714537,0.007483466820070426,0,10000
7,250,0,250,250,500,500,750,750,2,0,1,0,0,0,0,0,0,0,0,0,0,0,0,0,0,0,linear,0.025,TRUE,25,3,4,fixmodel,0.0275,-7.559239749788662e-4,0.007307560356528568,0,10000
7,250,0,250,250,500,500,750,750,2,0,1,0,0,0,0,0,0,0,0,0,0,0,0,0,0,0,linear,0.025,TRUE,25,3,4,poolmodel,0.0276,-8.386054794125686e-4,0.0063909100566112076,0,10000
7,250,0,250,250,500,500,750,750,2,0,1,0,0,0,0,0,0,0,0,0,0,0,0,0,0,0,linear,0.025,TRUE,25,3,4,sepmodel,0.0281,-6.634332846412527e-4,0.00809930443237568,0,10000
7,250,0,250,250,500,500,750,750,2,0,1,0,0,0,0,0,0,0,0,0,0,0,0,0,0,0,linear,0.025,TRUE,25,3,4,splines,0.0273,-8.583803582349266e-4,0.007260356077577283,0,10000
7,250,0,250,250,500,500,750,750,2,0,1,0,0,0,0,0,0,0,0,0,0,0,0,0,0,0,linear,0.025,TRUE,25,3,4,splines_cal,0.0278,-7.779144195211289e-4,0.007275455601610162,0,10000
7,250,0,250,250,500,500,750,750,2,0,1,0,0,0,0,0,0,0,0,0,0,0,0,0,0,0,linear,0.025,TRUE,25,3,5,fixmodel,0.0255,2.3247084536661325e-4,0.007123718068708425,0,10000
7,250,0,250,250,500,500,750,750,2,0,1,0,0,0,0,0,0,0,0,0,0,0,0,0,0,0,linear,0.025,TRUE,25,3,5,poolmodel,0.0261,1.4978934093292038e-4,0.006225338201044242,0,10000
7,250,0,250,250,500,500,750,750,2,0,1,0,0,0,0,0,0,0,0,0,0,0,0,0,0,0,linear,0.025,TRUE,25,3,5,sepmodel,0.025,3.2496153570424346e-4,0.00790383127845326,0,10000
7,250,0,250,250,500,500,750,750,2,0,1,0,0,0,0,0,0,0,0,0,0,0,0,0,0,0,linear,0.025,TRUE,25,3,5,splines,0.0252,1.2801188911714637e-4,0.0070886649094884895,0,10000
7,250,0,250,250,500,500,750,750,2,0,1,0,0,0,0,0,0,0,0,0,0,0,0,0,0,0,linear,0.025,TRUE,25,3,5,splines_cal,0.0256,2.0630011404332348e-4,0.007100993634548733,0,10000
7,250,0,250,250,500,500,750,750,2,0,1,0,0,0,0,0,0,0,0,0,0,0,0,0,0,0,linear,0.025,TRUE,25,3,6,fixmodel,0.0252,-0.0010258260041841165,0.006986514506057032,0,10000
7,250,0,250,250,500,500,750,750,2,0,1,0,0,0,0,0,0,0,0,0,0,0,0,0,0,0,linear,0.025,TRUE,25,3,6,poolmodel,0.0251,-0.0010789725761694248,0.0060643556219141664,0,10000
7,250,0,250,250,500,500,750,750,2,0,1,0,0,0,0,0,0,0,0,0,0,0,0,0,0,0,linear,0.025,TRUE,25,3,6,sepmodel,0.0253,-0.0011779694350689202,0.007934215279954072,0,10000
7,250,0,250,250,500,500,750,750,2,0,1,0,0,0,0,0,0,0,0,0,0,0,0,0,0,0,linear,0.025,TRUE,25,3,6,splines,0.0243,-0.001121000590216553,0.006942048921815306,0,10000
7,250,0,250,250,500,500,750,750,2,0,1,0,0,0,0,0,0,0,0,0,0,0,0,0,0,0,linear,0.025,TRUE,25,3,6,splines_cal,0.026,-0.0010852327184474797,0.007010032859350778,0,10000
7,250,0,250,250,500,500,750,750,2,0,1,0,0,0,0,0,0,0,0,0,0,0,0,0,0,0,linear,0.025,TRUE,25,3,7,fixmodel,0.0242,-3.866125529545201e-4,0.006931599677777536,0,10000
7,250,0,250,250,500,500,750,750,2,0,1,0,0,0,0,0,0,0,0,0,0,0,0,0,0,0,linear,0.025,TRUE,25,3,7,poolmodel,0.0232,-4.397591249398288e-4,0.006015006113708898,0,10000
7,250,0,250,250,500,500,750,750,2,0,1,0,0,0,0,0,0,0,0,0,0,0,0,0,0,0,linear,0.025,TRUE,25,3,7,sepmodel,0.0229,-5.387559838393041e-4,0.007875260702751486,0,10000
7,250,0,250,250,500,500,750,750,2,0,1,0,0,0,0,0,0,0,0,0,0,0,0,0,0,0,linear,0.025,TRUE,25,3,7,splines,0.0239,-4.821130447415384e-4,0.0068957158048909145,0,10000
7,250,0,250,250,500,500,750,750,2,0,1,0,0,0,0,0,0,0,0,0,0,0,0,0,0,0,linear,0.025,TRUE,25,3,7,splines_cal,0.0236,-4.283789930421134e-4,0.006946649738475787,0,10000
7,250,0,250,250,500,500,750,750,2,0,1,0,0,0,0,0,0,0,0.037500000000000006,0.037500000000000006,0.037500000000000006,0.037500000000000006,0.037500000000000006,0.037500000000000006,0.037500000000000006,0.037500000000000006,linear,0.025,TRUE,25,3,2,fixmodel,0.0241,-1.8502689099153973e-5,0.007362610639262608,0,10000
7,250,0,250,250,500,500,750,750,2,0,1,0,0,0,0,0,0,0,0.037500000000000006,0.037500000000000006,0.037500000000000006,0.037500000000000006,0.037500000000000006,0.037500000000000006,0.037500000000000006,0.037500000000000006,linear,0.025,TRUE,25,3,2,poolmodel,0.029,0.004734838371824096,0.006712710288644218,0,10000
7,250,0,250,250,500,500,750,750,2,0,1,0,0,0,0,0,0,0,0.037500000000000006,0.037500000000000006,0.037500000000000006,0.037500000000000006,0.037500000000000006,0.037500000000000006,0.037500000000000006,0.037500000000000006,linear,0.025,TRUE,25,3,2,sepmodel,0.0234,-4.306846042394618e-5,0.007882077428590864,0,10000
7,250,0,250,250,500,500,750,750,2,0,1,0,0,0,0,0,0,0,0.037500000000000006,0.037500000000000006,0.037500000000000006,0.037500000000000006,0.037500000000000006,0.037500000000000006,0.037500000000000006,0.037500000000000006,linear,0.025,TRUE,25,3,2,splines,0.0243,1.1234162790288332e-4,0.007257061052288932,0,10000
7,250,0,250,250,500,500,750,750,2,0,1,0,0,0,0,0,0,0,0.037500000000000006,0.037500000000000006,0.037500000000000006,0.037500000000000006,0.037500000000000006,0.037500000000000006,0.037500000000000006,0.037500000000000006,linear,0.025,TRUE,25,3,2,splines_cal,0.024,1.15956103856902e-4,0.007331839408081941,0,10000
7,250,0,250,250,500,500,750,750,2,0,1,0,0,0,0,0,0,0,0.037500000000000006,0.037500000000000006,0.037500000000000006,0.037500000000000006,0.037500000000000006,0.037500000000000006,0.037500000000000006,0.037500000000000006,linear,0.025,TRUE,25,3,3,fixmodel,0.0248,-1.624571430789655e-4,0.007348224667700726,0,10000
7,250,0,250,250,500,500,750,750,2,0,1,0,0,0,0,0,0,0,0.037500000000000006,0.037500000000000006,0.037500000000000006,0.037500000000000006,0.037500000000000006,0.037500000000000006,0.037500000000000006,0.037500000000000006,linear,0.025,TRUE,25,3,3,poolmodel,0.0291,0.004590883917844354,0.006677972016231443,0,10000
7,250,0,250,250,500,500,750,750,2,0,1,0,0,0,0,0,0,0,0.037500000000000006,0.037500000000000006,0.037500000000000006,0.037500000000000006,0.037500000000000006,0.037500000000000006,0.037500000000000006,0.037500000000000006,linear,0.025,TRUE,25,3,3,sepmodel,0.0245,-1.8702291440368505e-4,0.007904430955446897,0,10000
7,250,0,250,250,500,500,750,750,2,0,1,0,0,0,0,0,0,0,0.037500000000000006,0.037500000000000006,0.037500000000000006,0.037500000000000006,0.037500000000000006,0.037500000000000006,0.037500000000000006,0.037500000000000006,linear,0.025,TRUE,25,3,3,splines,0.0244,-3.0081908699034996e-5,0.007253688585895792,0,10000
7,250,0,250,250,500,500,750,750,2,0,1,0,0,0,0,0,0,0,0.037500000000000006,0.037500000000000006,0.037500000000000006,0.037500000000000006,0.037500000000000006,0.037500000000000006,0.037500000000000006,0.037500000000000006,linear,0.025,TRUE,25,3,3,splines_cal,0.0242,-6.973763267340947e-5,0.007344447811286698,0,10000
7,250,0,250,250,500,500,750,750,2,0,1,0,0,0,0,0,0,0,0.037500000000000006,0.037500000000000006,0.037500000000000006,0.037500000000000006,0.037500000000000006,0.037500000000000006,0.037500000000000006,0.037500000000000006,linear,0.025,TRUE,25,3,4,fixmodel,0.025,-4.8013529221346124e-4,0.007194198572927404,0,10000
7,250,0,250,250,500,500,750,750,2,0,1,0,0,0,0,0,0,0,0.037500000000000006,0.037500000000000006,0.037500000000000006,0.037500000000000006,0.037500000000000006,0.037500000000000006,0.037500000000000006,0.037500000000000006,linear,0.025,TRUE,25,3,4,poolmodel,0.0315,0.008088633393636819,0.006342880597575074,0,10000
7,250,0,250,250,500,500,750,750,2,0,1,0,0,0,0,0,0,0,0.037500000000000006,0.037500000000000006,0.037500000000000006,0.037500000000000006,0.037500000000000006,0.037500000000000006,0.037500000000000006,0.037500000000000006,linear,0.025,TRUE,25,3,4,sepmodel,0.025,-7.882015229814406e-4,0.00804080714884457,0,10000
7,250,0,250,250,500,500,750,750,2,0,1,0,0,0,0,0,0,0,0.037500000000000006,0.037500000000000006,0.037500000000000006,0.037500000000000006,0.037500000000000006,0.037500000000000006,0.037500000000000006,0.037500000000000006,linear,0.025,TRUE,25,3,4,splines,0.0258,-3.3222110169142373e-4,0.00714759523661468,0,10000
7,250,0,250,250,500,500,750,750,2,0,1,0,0,0,0,0,0,0,0.037500000000000006,0.037500000000000006,0.037500000000000006,0.037500000000000006,0.037500000000000006,0.037500000000000006,0.037500000000000006,0.037500000000000006,linear,0.025,TRUE,25,3,4,splines_cal,0.0262,-2.9778664849939863e-4,0.007173201968420822,0,10000
7,250,0,250,250,500,500,750,750,2,0,1,0,0,0,0,0,0,0,0.037500000000000006,0.037500000000000006,0.037500000000000006,0.037500000000000006,0.037500000000000006,0.037500000000000006,0.037500000000000006,0.037500000000000006,linear,0.025,TRUE,25,3,5,fixmodel,0.0247,-9.63086110988706e-4,0.007058149190945007,0,10000
7,250,0,250,250,500,500,750,750,2,0,1,0,0,0,0,0,0,0,0.037500000000000006,0.037500000000000006,0.037500000000000006,0.037500000000000006,0.037500000000000006,0.037500000000000006,0.037500000000000006,0.037500000000000006,linear,0.025,TRUE,25,3,5,poolmodel,0.0304,0.007605682574861575,0.006276769098551831,0,10000
7,250,0,250,250,500,500,750,750,2,0,1,0,0,0,0,0,0,0,0.037500000000000006,0.037500000000000006,0.037500000000000006,0.037500000000000006,0.037500000000000006,0.037500000000000006,0.037500000000000006,0.037500000000000006,linear,0.025,TRUE,25,3,5,sepmodel,0.0249,-0.0012711523417566846,0.007904621666251556,0,10000
7,250,0,250,250,500,500,750,750,2,0,1,0,0,0,0,0,0,0,0.037500000000000006,0.037500000000000006,0.037500000000000006,0.037500000000000006,0.037500000000000006,0.037500000000000006,0.037500000000000006,0.037500000000000006,linear,0.025,TRUE,25,3,5,splines,0.025,-8.148501814582624e-4,0.007021553959969951,0,10000
7,250,0,250,250,500,500,750,750,2,0,1,0,0,0,0,0,0,0,0.037500000000000006,0.037500000000000006,0.037500000000000006,0.037500000000000006,0.037500000000000006,0.037500000000000006,0.037500000000000006,0.037500000000000006,linear,0.025,TRUE,25,3,5,splines_cal,0.0251,-9.332978895791732e-4,0.007028384322945673,0,10000
7,250,0,250,250,500,500,750,750,2,0,1,0,0,0,0,0,0,0,0.037500000000000006,0.037500000000000006,0.037500000000000006,0.037500000000000006,0.037500000000000006,0.037500000000000006,0.037500000000000006,0.037500000000000006,linear,0.025,TRUE,25,3,6,fixmodel,0.0259,-0.0013669330172788664,0.007098059946550116,0,10000
7,250,0,250,250,500,500,750,750,2,0,1,0,0,0,0,0,0,0,0.037500000000000006,0.037500000000000006,0.037500000000000006,0.037500000000000006,0.037500000000000006,0.037500000000000006,0.037500000000000006,0.037500000000000006,linear,0.025,TRUE,25,3,6,poolmodel,0.0345,0.009555287793092693,0.006302817221664742,0,10000
7,250,0,250,250,500,500,750,750,2,0,1,0,0,0,0,0,0,0,0.037500000000000006,0.037500000000000006,0.037500000000000006,0.037500000000000006,0.037500000000000006,0.037500000000000006,0.037500000000000006,0.037500000000000006,linear,0.025,TRUE,25,3,6,sepmodel,0.0253,-0.001935974989070032,0.008168846478222427,0,10000
7,250,0,250,250,500,500,750,750,2,0,1,0,0,0,0,0,0,0,0.037500000000000006,0.037500000000000006,0.037500000000000006,0.037500000000000006,0.037500000000000006,0.037500000000000006,0.037500000000000006,0.037500000000000006,linear,0.025,TRUE,25,3,6,splines,0.0262,-0.0013411567871817094,0.007055061366203142,0,10000
7,250,0,250,250,500,500,750,750,2,0,1,0,0,0,0,0,0,0,0.037500000000000006,0.037500000000000006,0.037500000000000006,0.037500000000000006,0.037500000000000006,0.037500000000000006,0.037500000000000006,0.037500000000000006,linear,0.025,TRUE,25,3,6,splines_cal,0.0258,-0.0013825447373708559,0.007128618566035852,0,10000
7,250,0,250,250,500,500,750,750,2,0,1,0,0,0,0,0,0,0,0.037500000000000006,0.037500000000000006,0.037500000000000006,0.037500000000000006,0.037500000000000006,0.037500000000000006,0.037500000000000006,0.037500000000000006,linear,0.025,TRUE,25,3,7,fixmodel,0.0258,-3.787117508889546e-4,0.0069526670547834435,0,10000
7,250,0,250,250,500,500,750,750,2,0,1,0,0,0,0,0,0,0,0.037500000000000006,0.037500000000000006,0.037500000000000006,0.037500000000000006,0.037500000000000006,0.037500000000000006,0.037500000000000006,0.037500000000000006,linear,0.025,TRUE,25,3,7,poolmodel,0.0335,0.010543509059482608,0.006130654450617774,0,10000
7,250,0,250,250,500,500,750,750,2,0,1,0,0,0,0,0,0,0,0.037500000000000006,0.037500000000000006,0.037500000000000006,0.037500000000000006,0.037500000000000006,0.037500000000000006,0.037500000000000006,0.037500000000000006,linear,0.025,TRUE,25,3,7,sepmodel,0.0243,-9.477537226801088e-4,0.007922246798733337,0,10000
7,250,0,250,250,500,500,750,750,2,0,1,0,0,0,0,0,0,0,0.037500000000000006,0.037500000000000006,0.037500000000000006,0.037500000000000006,0.037500000000000006,0.037500000000000006,0.037500000000000006,0.037500000000000006,linear,0.025,TRUE,25,3,7,splines,0.0256,-3.5411544717337207e-4,0.00690673774477783,0,10000
7,250,0,250,250,500,500,750,750,2,0,1,0,0,0,0,0,0,0,0.037500000000000006,0.037500000000000006,0.037500000000000006,0.037500000000000006,0.037500000000000006,0.037500000000000006,0.037500000000000006,0.037500000000000006,linear,0.025,TRUE,25,3,7,splines_cal,0.0268,-3.4709994989997716e-4,0.006985863864159835,0,10000
7,250,0,250,250,500,500,750,750,2,0,1,0,0,0,0,0,0,0,0.07499999999999998,0.07499999999999998,0.07499999999999998,0.07499999999999998,0.07499999999999998,0.07499999999999998,0.07499999999999998,0.07499999999999998,linear,0.025,TRUE,25,3,2,fixmodel,0.027,3.8023209772440955e-4,0.0075297200554826395,0,10000
7,250,0,250,250,500,500,750,750,2,0,1,0,0,0,0,0,0,0,0.07499999999999998,0.07499999999999998,0.07499999999999998,0.07499999999999998,0.07499999999999998,0.07499999999999998,0.07499999999999998,0.07499999999999998,linear,0.025,TRUE,25,3,2,poolmodel,0.0341,0.009722878904925326,0.006883118251719644,0,10000
7,250,0,250,250,500,500,750,750,2,0,1,0,0,0,0,0,0,0,0.07499999999999998,0.07499999999999998,0.07499999999999998,0.07499999999999998,0.07499999999999998,0.07499999999999998,0.07499999999999998,0.07499999999999998,linear,0.025,TRUE,25,3,2,sepmodel,0.0251,4.4892815066753874e-4,0.008087048799028222,0,10000
7,250,0,250,250,500,500,750,750,2,0,1,0,0,0,0,0,0,0,0.07499999999999998,0.07499999999999998,0.07499999999999998,0.07499999999999998,0.07499999999999998,0.07499999999999998,0.07499999999999998,0.07499999999999998,linear,0.025,TRUE,25,3,2,splines,0.0269,5.646510905671384e-4,0.007476584657666086,0,10000
7,250,0,250,250,500,500,750,750,2,0,1,0,0,0,0,0,0,0,0.07499999999999998,0.07499999999999998,0.07499999999999998,0.07499999999999998,0.07499999999999998,0.07499999999999998,0.07499999999999998,0.07499999999999998,linear,0.025,TRUE,25,3,2,splines_cal,0.0267,4.071845475989979e-4,0.007527376977615298,0,10000
7,250,0,250,250,500,500,750,750,2,0,1,0,0,0,0,0,0,0,0.07499999999999998,0.07499999999999998,0.07499999999999998,0.07499999999999998,0.07499999999999998,0.07499999999999998,0.07499999999999998,0.07499999999999998,linear,0.025,TRUE,25,3,3,fixmodel,0.0239,3.625796853293241e-4,0.007447221888175843,0,10000
7,250,0,250,250,500,500,750,750,2,0,1,0,0,0,0,0,0,0,0.07499999999999998,0.07499999999999998,0.07499999999999998,0.07499999999999998,0.07499999999999998,0.07499999999999998,0.07499999999999998,0.07499999999999998,linear,0.025,TRUE,25,3,3,poolmodel,0.0321,0.009705226492530276,0.00677865270130203,0,10000
7,250,0,250,250,500,500,750,750,2,0,1,0,0,0,0,0,0,0,0.07499999999999998,0.07499999999999998,0.07499999999999998,0.07499999999999998,0.07499999999999998,0.07499999999999998,0.07499999999999998,0.07499999999999998,linear,0.025,TRUE,25,3,3,sepmodel,0.0237,4.312757382724984e-4,0.007951467113651056,0,10000
7,250,0,250,250,500,500,750,750,2,0,1,0,0,0,0,0,0,0,0.07499999999999998,0.07499999999999998,0.07499999999999998,0.07499999999999998,0.07499999999999998,0.07499999999999998,0.07499999999999998,0.07499999999999998,linear,0.025,TRUE,25,3,3,splines,0.0243,5.478226871469755e-4,0.007374505954160348,0,10000
7,250,0,250,250,500,500,750,750,2,0,1,0,0,0,0,0,0,0,0.07499999999999998,0.07499999999999998,0.07499999999999998,0.07499999999999998,0.07499999999999998,0.07499999999999998,0.07499999999999998,0.07499999999999998,linear,0.025,TRUE,25,3,3,splines_cal,0.0238,3.71690650138139e-4,0.007439059814546915,0,10000
7,250,0,250,250,500,500,750,750,2,0,1,0,0,0,0,0,0,0,0.07499999999999998,0.07499999999999998,0.07499999999999998,0.07499999999999998,0.07499999999999998,0.07499999999999998,0.07499999999999998,0.07499999999999998,linear,0.025,TRUE,25,3,4,fixmodel,0.0254,-0.001424344985738333,0.007225729748999131,0,10000
7,250,0,250,250,500,500,750,750,2,0,1,0,0,0,0,0,0,0,0.07499999999999998,0.07499999999999998,0.07499999999999998,0.07499999999999998,0.07499999999999998,0.07499999999999998,0.07499999999999998,0.07499999999999998,linear,0.025,TRUE,25,3,4,poolmodel,0.0395,0.015108819279666123,0.006554036942223953,0,10000
7,250,0,250,250,500,500,750,750,2,0,1,0,0,0,0,0,0,0,0.07499999999999998,0.07499999999999998,0.07499999999999998,0.07499999999999998,0.07499999999999998,0.07499999999999998,0.07499999999999998,0.07499999999999998,linear,0.025,TRUE,25,3,4,sepmodel,0.0243,-0.001399158330730858,0.008015015618087004,0,10000
7,250,0,250,250,500,500,750,750,2,0,1,0,0,0,0,0,0,0,0.07499999999999998,0.07499999999999998,0.07499999999999998,0.07499999999999998,0.07499999999999998,0.07499999999999998,0.07499999999999998,0.07499999999999998,linear,0.025,TRUE,25,3,4,splines,0.0253,-0.0013027261509806327,0.00719027089290126,0,10000
7,250,0,250,250,500,500,750,750,2,0,1,0,0,0,0,0,0,0,0.07499999999999998,0.07499999999999998,0.07499999999999998,0.07499999999999998,0.07499999999999998,0.07499999999999998,0.07499999999999998,0.07499999999999998,linear,0.025,TRUE,25,3,4,splines_cal,0.0256,-0.0014271278035057052,0.00720247073940655,0,10000
7,250,0,250,250,500,500,750,750,2,0,1,0,0,0,0,0,0,0,0.07499999999999998,0.07499999999999998,0.07499999999999998,0.07499999999999998,0.07499999999999998,0.07499999999999998,0.07499999999999998,0.07499999999999998,linear,0.025,TRUE,25,3,5,fixmodel,0.0233,-1.6844113970420447e-4,0.007077985567428874,0,10000
7,250,0,250,250,500,500,750,750,2,0,1,0,0,0,0,0,0,0,0.07499999999999998,0.07499999999999998,0.07499999999999998,0.07499999999999998,0.07499999999999998,0.07499999999999998,0.07499999999999998,0.07499999999999998,linear,0.025,TRUE,25,3,5,poolmodel,0.0372,0.016364723125700236,0.006547111114922296,0,10000
7,250,0,250,250,500,500,750,750,2,0,1,0,0,0,0,0,0,0,0.07499999999999998,0.07499999999999998,0.07499999999999998,0.07499999999999998,0.07499999999999998,0.07499999999999998,0.07499999999999998,0.07499999999999998,linear,0.025,TRUE,25,3,5,sepmodel,0.0248,-1.4325448469674652e-4,0.007874685671650363,0,10000
7,250,0,250,250,500,500,750,750,2,0,1,0,0,0,0,0,0,0,0.07499999999999998,0.07499999999999998,0.07499999999999998,0.07499999999999998,0.07499999999999998,0.07499999999999998,0.07499999999999998,0.07499999999999998,linear,0.025,TRUE,25,3,5,splines,0.0237,-4.9809137075641626e-5,0.007040340547036755,0,10000
7,250,0,250,250,500,500,750,750,2,0,1,0,0,0,0,0,0,0,0.07499999999999998,0.07499999999999998,0.07499999999999998,0.07499999999999998,0.07499999999999998,0.07499999999999998,0.07499999999999998,0.07499999999999998,linear,0.025,TRUE,25,3,5,splines_cal,0.0228,-1.3470498586621232e-4,0.007062086341135349,0,10000
7,250,0,250,250,500,500,750,750,2,0,1,0,0,0,0,0,0,0,0.07499999999999998,0.07499999999999998,0.07499999999999998,0.07499999999999998,0.07499999999999998,0.07499999999999998,0.07499999999999998,0.07499999999999998,linear,0.025,TRUE,25,3,6,fixmodel,0.0237,-0.0015205217780909553,0.006936199795876584,0,10000
7,250,0,250,250,500,500,750,750,2,0,1,0,0,0,0,0,0,0,0.07499999999999998,0.07499999999999998,0.07499999999999998,0.07499999999999998,0.07499999999999998,0.07499999999999998,0.07499999999999998,0.07499999999999998,linear,0.025,TRUE,25,3,6,poolmodel,0.0432,0.02000565173561381,0.006421496600170962,0,10000
7,250,0,250,250,500,500,750,750,2,0,1,0,0,0,0,0,0,0,0.07499999999999998,0.07499999999999998,0.07499999999999998,0.07499999999999998,0.07499999999999998,0.07499999999999998,0.07499999999999998,0.07499999999999998,linear,0.025,TRUE,25,3,6,sepmodel,0.0244,-0.0013619392445025171,0.007965450911248754,0,10000
7,250,0,250,250,500,500,750,750,2,0,1,0,0,0,0,0,0,0,0.07499999999999998,0.07499999999999998,0.07499999999999998,0.07499999999999998,0.07499999999999998,0.07499999999999998,0.07499999999999998,0.07499999999999998,linear,0.025,TRUE,25,3,6,splines,0.0238,-0.0014795065980756398,0.006896587757784189,0,10000
7,250,0,250,250,500,500,750,750,2,0,1,0,0,0,0,0,0,0,0.07499999999999998,0.07499999999999998,0.07499999999999998,0.07499999999999998,0.07499999999999998,0.07499999999999998,0.07499999999999998,0.07499999999999998,linear,0.025,TRUE,25,3,6,splines_cal,0.0237,-0.001496612291176468,0.006946703091612962,0,10000
7,250,0,250,250,500,500,750,750,2,0,1,0,0,0,0,0,0,0,0.07499999999999998,0.07499999999999998,0.07499999999999998,0.07499999999999998,0.07499999999999998,0.07499999999999998,0.07499999999999998,0.07499999999999998,linear,0.025,TRUE,25,3,7,fixmodel,0.0238,-5.795664697049899e-4,0.00699507343324212,0,10000
7,250,0,250,250,500,500,750,750,2,0,1,0,0,0,0,0,0,0,0.07499999999999998,0.07499999999999998,0.07499999999999998,0.07499999999999998,0.07499999999999998,0.07499999999999998,0.07499999999999998,0.07499999999999998,linear,0.025,TRUE,25,3,7,poolmodel,0.0448,0.02094660704399979,0.0064755662672698975,0,10000
7,250,0,250,250,500,500,750,750,2,0,1,0,0,0,0,0,0,0,0.07499999999999998,0.07499999999999998,0.07499999999999998,0.07499999999999998,0.07499999999999998,0.07499999999999998,0.07499999999999998,0.07499999999999998,linear,0.025,TRUE,25,3,7,sepmodel,0.0246,-4.2098393611652944e-4,0.007979255803877946,0,10000
7,250,0,250,250,500,500,750,750,2,0,1,0,0,0,0,0,0,0,0.07499999999999998,0.07499999999999998,0.07499999999999998,0.07499999999999998,0.07499999999999998,0.07499999999999998,0.07499999999999998,0.07499999999999998,linear,0.025,TRUE,25,3,7,splines,0.024,-5.418514842933737e-4,0.00694124078474576,0,10000
7,250,0,250,250,500,500,750,750,2,0,1,0,0,0,0,0,0,0,0.07499999999999998,0.07499999999999998,0.07499999999999998,0.07499999999999998,0.07499999999999998,0.07499999999999998,0.07499999999999998,0.07499999999999998,linear,0.025,TRUE,25,3,7,splines_cal,0.0239,-5.25342081240463e-4,0.007004623001840207,0,10000
7,250,0,250,250,500,500,750,750,2,0,1,0,0,0,0,0,0,0,0.11250000000000002,0.11250000000000002,0.11250000000000002,0.11250000000000002,0.11250000000000002,0.11250000000000002,0.11250000000000002,0.11250000000000002,linear,0.025,TRUE,25,3,2,fixmodel,0.0241,-8.81610898541149e-4,0.007613835950588663,0,10000
7,250,0,250,250,500,500,750,750,2,0,1,0,0,0,0,0,0,0,0.11250000000000002,0.11250000000000002,0.11250000000000002,0.11250000000000002,0.11250000000000002,0.11250000000000002,0.11250000000000002,0.11250000000000002,linear,0.025,TRUE,25,3,2,poolmodel,0.0338,0.012984749814454221,0.006926168499178785,0,10000
7,250,0,250,250,500,500,750,750,2,0,1,0,0,0,0,0,0,0,0.11250000000000002,0.11250000000000002,0.11250000000000002,0.11250000000000002,0.11250000000000002,0.11250000000000002,0.11250000000000002,0.11250000000000002,linear,0.025,TRUE,25,3,2,sepmodel,0.0225,-0.0011821449993929924,0.008159034111993396,0,10000
7,250,0,250,250,500,500,750,750,2,0,1,0,0,0,0,0,0,0,0.11250000000000002,0.11250000000000002,0.11250000000000002,0.11250000000000002,0.11250000000000002,0.11250000000000002,0.11250000000000002,0.11250000000000002,linear,0.025,TRUE,25,3,2,splines,0.0239,-8.722508633079647e-4,0.00750252999220964,0,10000
7,250,0,250,250,500,500,750,750,2,0,1,0,0,0,0,0,0,0,0.11250000000000002,0.11250000000000002,0.11250000000000002,0.11250000000000002,0.11250000000000002,0.11250000000000002,0.11250000000000002,0.11250000000000002,linear,0.025,TRUE,25,3,2,splines_cal,0.0244,-7.848783869609315e-4,0.007599511836183779,0,10000
7,250,0,250,250,500,500,750,750,2,0,1,0,0,0,0,0,0,0,0.11250000000000002,0.11250000000000002,0.11250000000000002,0.11250000000000002,0.11250000000000002,0.11250000000000002,0.11250000000000002,0.11250000000000002,linear,0.025,TRUE,25,3,3,fixmodel,0.0287,8.860707234910934e-4,0.00749349143073129,0,10000
7,250,0,250,250,500,500,750,750,2,0,1,0,0,0,0,0,0,0,0.11250000000000002,0.11250000000000002,0.11250000000000002,0.11250000000000002,0.11250000000000002,0.11250000000000002,0.11250000000000002,0.11250000000000002,linear,0.025,TRUE,25,3,3,poolmodel,0.0389,0.014752431436486574,0.006876194244309057,0,10000
7,250,0,250,250,500,500,750,750,2,0,1,0,0,0,0,0,0,0,0.11250000000000002,0.11250000000000002,0.11250000000000002,0.11250000000000002,0.11250000000000002,0.11250000000000002,0.11250000000000002,0.11250000000000002,linear,0.025,TRUE,25,3,3,sepmodel,0.0265,5.855366226393683e-4,0.008092224188481061,0,10000
7,250,0,250,250,500,500,750,750,2,0,1,0,0,0,0,0,0,0,0.11250000000000002,0.11250000000000002,0.11250000000000002,0.11250000000000002,0.11250000000000002,0.11250000000000002,0.11250000000000002,0.11250000000000002,linear,0.025,TRUE,25,3,3,splines,0.028,8.946249392849493e-4,0.007420993858290189,0,10000
7,250,0,250,250,500,500,750,750,2,0,1,0,0,0,0,0,0,0,0.11250000000000002,0.11250000000000002,0.11250000000000002,0.11250000000000002,0.11250000000000002,0.11250000000000002,0.11250000000000002,0.11250000000000002,linear,0.025,TRUE,25,3,3,splines_cal,0.0279,9.986364686097858e-4,0.007493122608643419,0,10000
7,250,0,250,250,500,500,750,750,2,0,1,0,0,0,0,0,0,0,0.11250000000000002,0.11250000000000002,0.11250000000000002,0.11250000000000002,0.11250000000000002,0.11250000000000002,0.11250000000000002,0.11250000000000002,linear,0.025,TRUE,25,3,4,fixmodel,0.025,2.2105308600440499e-4,0.007175544146336317,0,10000
7,250,0,250,250,500,500,750,750,2,0,1,0,0,0,0,0,0,0,0.11250000000000002,0.11250000000000002,0.11250000000000002,0.11250000000000002,0.11250000000000002,0.11250000000000002,0.11250000000000002,0.11250000000000002,linear,0.025,TRUE,25,3,4,poolmodel,0.0477,0.024979006788773926,0.00685150782011249,0,10000
7,250,0,250,250,500,500,750,750,2,0,1,0,0,0,0,0,0,0,0.11250000000000002,0.11250000000000002,0.11250000000000002,0.11250000000000002,0.11250000000000002,0.11250000000000002,0.11250000000000002,0.11250000000000002,linear,0.025,TRUE,25,3,4,sepmodel,0.0251,-1.0084217016383931e-4,0.008073369762613528,0,10000
7,250,0,250,250,500,500,750,750,2,0,1,0,0,0,0,0,0,0,0.11250000000000002,0.11250000000000002,0.11250000000000002,0.11250000000000002,0.11250000000000002,0.11250000000000002,0.11250000000000002,0.11250000000000002,linear,0.025,TRUE,25,3,4,splines,0.0246,2.627870313528376e-4,0.0071167175865309825,0,10000
7,250,0,250,250,500,500,750,750,2,0,1,0,0,0,0,0,0,0,0.11250000000000002,0.11250000000000002,0.11250000000000002,0.11250000000000002,0.11250000000000002,0.11250000000000002,0.11250000000000002,0.11250000000000002,linear,0.025,TRUE,25,3,4,splines_cal,0.0244,2.1051808831616095e-4,0.007148755624999685,0,10000
7,250,0,250,250,500,500,750,750,2,0,1,0,0,0,0,0,0,0,0.11250000000000002,0.11250000000000002,0.11250000000000002,0.11250000000000002,0.11250000000000002,0.11250000000000002,0.11250000000000002,0.11250000000000002,linear,0.025,TRUE,25,3,5,fixmodel,0.0244,-0.001388281184666571,0.007254530567848226,0,10000
7,250,0,250,250,500,500,750,750,2,0,1,0,0,0,0,0,0,0,0.11250000000000002,0.11250000000000002,0.11250000000000002,0.11250000000000002,0.11250000000000002,0.11250000000000002,0.11250000000000002,0.11250000000000002,linear,0.025,TRUE,25,3,5,poolmodel,0.0456,0.023369672518102954,0.006944195814553606,0,10000
7,250,0,250,250,500,500,750,750,2,0,1,0,0,0,0,0,0,0,0.11250000000000002,0.11250000000000002,0.11250000000000002,0.11250000000000002,0.11250000000000002,0.11250000000000002,0.11250000000000002,0.11250000000000002,linear,0.025,TRUE,25,3,5,sepmodel,0.0244,-0.0017101764408348175,0.008180110071003355,0,10000
7,250,0,250,250,500,500,750,750,2,0,1,0,0,0,0,0,0,0,0.11250000000000002,0.11250000000000002,0.11250000000000002,0.11250000000000002,0.11250000000000002,0.11250000000000002,0.11250000000000002,0.11250000000000002,linear,0.025,TRUE,25,3,5,splines,0.0253,-0.0013466179001070824,0.00721645263254668,0,10000
7,250,0,250,250,500,500,750,750,2,0,1,0,0,0,0,0,0,0,0.11250000000000002,0.11250000000000002,0.11250000000000002,0.11250000000000002,0.11250000000000002,0.11250000000000002,0.11250000000000002,0.11250000000000002,linear,0.025,TRUE,25,3,5,splines_cal,0.0243,-0.0013882710231812277,0.007221244150809979,0,10000
7,250,0,250,250,500,500,750,750,2,0,1,0,0,0,0,0,0,0,0.11250000000000002,0.11250000000000002,0.11250000000000002,0.11250000000000002,0.11250000000000002,0.11250000000000002,0.11250000000000002,0.11250000000000002,linear,0.025,TRUE,25,3,6,fixmodel,0.0259,-0.0013833852224070145,0.007024091801427484,0,10000
7,250,0,250,250,500,500,750,750,2,0,1,0,0,0,0,0,0,0,0.11250000000000002,0.11250000000000002,0.11250000000000002,0.11250000000000002,0.11250000000000002,0.11250000000000002,0.11250000000000002,0.11250000000000002,linear,0.025,TRUE,25,3,6,poolmodel,0.06,0.030770087883910325,0.007051926155952804,0,10000
7,250,0,250,250,500,500,750,750,2,0,1,0,0,0,0,0,0,0,0.11250000000000002,0.11250000000000002,0.11250000000000002,0.11250000000000002,0.11250000000000002,0.11250000000000002,0.11250000000000002,0.11250000000000002,linear,0.025,TRUE,25,3,6,sepmodel,0.0238,-0.001326048289386827,0.00800007422384084,0,10000
7,250,0,250,250,500,500,750,750,2,0,1,0,0,0,0,0,0,0,0.11250000000000002,0.11250000000000002,0.11250000000000002,0.11250000000000002,0.11250000000000002,0.11250000000000002,0.11250000000000002,0.11250000000000002,linear,0.025,TRUE,25,3,6,splines,0.0255,-0.001396795362637475,0.0069892720522531015,0,10000
7,250,0,250,250,500,500,750,750,2,0,1,0,0,0,0,0,0,0,0.11250000000000002,0.11250000000000002,0.11250000000000002,0.11250000000000002,0.11250000000000002,0.11250000000000002,0.11250000000000002,0.11250000000000002,linear,0.025,TRUE,25,3,6,splines_cal,0.0259,-0.001321069090995341,0.007054662067904179,0,10000
7,250,0,250,250,500,500,750,750,2,0,1,0,0,0,0,0,0,0,0.11250000000000002,0.11250000000000002,0.11250000000000002,0.11250000000000002,0.11250000000000002,0.11250000000000002,0.11250000000000002,0.11250000000000002,linear,0.025,TRUE,25,3,7,fixmodel,0.0254,-3.464558240960976e-4,0.007027351538532445,0,10000
7,250,0,250,250,500,500,750,750,2,0,1,0,0,0,0,0,0,0,0.11250000000000002,0.11250000000000002,0.11250000000000002,0.11250000000000002,0.11250000000000002,0.11250000000000002,0.11250000000000002,0.11250000000000002,linear,0.025,TRUE,25,3,7,poolmodel,0.061,0.03180701728222125,0.007108683419851513,0,10000
7,250,0,250,250,500,500,750,750,2,0,1,0,0,0,0,0,0,0,0.11250000000000002,0.11250000000000002,0.11250000000000002,0.11250000000000002,0.11250000000000002,0.11250000000000002,0.11250000000000002,0.11250000000000002,linear,0.025,TRUE,25,3,7,sepmodel,0.0249,-2.891188910758944e-4,0.008016392276103103,0,10000
7,250,0,250,250,500,500,750,750,2,0,1,0,0,0,0,0,0,0,0.11250000000000002,0.11250000000000002,0.11250000000000002,0.11250000000000002,0.11250000000000002,0.11250000000000002,0.11250000000000002,0.11250000000000002,linear,0.025,TRUE,25,3,7,splines,0.0254,-3.6281738035664324e-4,0.006995448102777137,0,10000
7,250,0,250,250,500,500,750,750,2,0,1,0,0,0,0,0,0,0,0.11250000000000002,0.11250000000000002,0.11250000000000002,0.11250000000000002,0.11250000000000002,0.11250000000000002,0.11250000000000002,0.11250000000000002,linear,0.025,TRUE,25,3,7,splines_cal,0.0255,-3.500658327639106e-4,0.007045405903887055,0,10000
7,250,0,250,250,500,500,750,750,2,0,1,0,0,0,0,0,0,0,0.15,0.15,0.15,0.15,0.15,0.15,0.15,0.15,linear,0.025,TRUE,25,3,2,fixmodel,0.0278,1.7393177050483647e-4,0.007624552735106801,0,10000
7,250,0,250,250,500,500,750,750,2,0,1,0,0,0,0,0,0,0,0.15,0.15,0.15,0.15,0.15,0.15,0.15,0.15,linear,0.025,TRUE,25,3,2,poolmodel,0.046,0.01873543301878364,0.007168900912022072,0,10000
7,250,0,250,250,500,500,750,750,2,0,1,0,0,0,0,0,0,0,0.15,0.15,0.15,0.15,0.15,0.15,0.15,0.15,linear,0.025,TRUE,25,3,2,sepmodel,0.0275,5.198634443166494e-4,0.008210952240558757,0,10000
7,250,0,250,250,500,500,750,750,2,0,1,0,0,0,0,0,0,0,0.15,0.15,0.15,0.15,0.15,0.15,0.15,0.15,linear,0.025,TRUE,25,3,2,splines,0.0272,1.5997327096981063e-4,0.007542354423039023,0,10000
7,250,0,250,250,500,500,750,750,2,0,1,0,0,0,0,0,0,0,0.15,0.15,0.15,0.15,0.15,0.15,0.15,0.15,linear,0.025,TRUE,25,3,2,splines_cal,0.0276,2.602192402406614e-4,0.007628919500896835,0,10000
7,250,0,250,250,500,500,750,750,2,0,1,0,0,0,0,0,0,0,0.15,0.15,0.15,0.15,0.15,0.15,0.15,0.15,linear,0.025,TRUE,25,3,3,fixmodel,0.0277,6.836429502814101e-4,0.007563278424972467,0,10000
7,250,0,250,250,500,500,750,750,2,0,1,0,0,0,0,0,0,0,0.15,0.15,0.15,0.15,0.15,0.15,0.15,0.15,linear,0.025,TRUE,25,3,3,poolmodel,0.0404,0.019245144198560337,0.007094359338634316,0,10000
7,250,0,250,250,500,500,750,750,2,0,1,0,0,0,0,0,0,0,0.15,0.15,0.15,0.15,0.15,0.15,0.15,0.15,linear,0.025,TRUE,25,3,3,sepmodel,0.0269,0.0010295746240933659,0.008132475324428314,0,10000
7,250,0,250,250,500,500,750,750,2,0,1,0,0,0,0,0,0,0,0.15,0.15,0.15,0.15,0.15,0.15,0.15,0.15,linear,0.025,TRUE,25,3,3,splines,0.0262,6.697538658378258e-4,0.007466908549020135,0,10000
7,250,0,250,250,500,500,750,750,2,0,1,0,0,0,0,0,0,0,0.15,0.15,0.15,0.15,0.15,0.15,0.15,0.15,linear,0.025,TRUE,25,3,3,splines_cal,0.0274,7.490804135035251e-4,0.007539949821139935,0,10000
7,250,0,250,250,500,500,750,750,2,0,1,0,0,0,0,0,0,0,0.15,0.15,0.15,0.15,0.15,0.15,0.15,0.15,linear,0.025,TRUE,25,3,4,fixmodel,0.0267,-1.344523897722811e-4,0.007293813356828102,0,10000
7,250,0,250,250,500,500,750,750,2,0,1,0,0,0,0,0,0,0,0.15,0.15,0.15,0.15,0.15,0.15,0.15,0.15,linear,0.025,TRUE,25,3,4,poolmodel,0.0589,0.0327932553096095,0.0073540073003861405,0,10000
7,250,0,250,250,500,500,750,750,2,0,1,0,0,0,0,0,0,0,0.15,0.15,0.15,0.15,0.15,0.15,0.15,0.15,linear,0.025,TRUE,25,3,4,sepmodel,0.0277,4.1159275247526175e-4,0.008182514243924754,0,10000
7,250,0,250,250,500,500,750,750,2,0,1,0,0,0,0,0,0,0,0.15,0.15,0.15,0.15,0.15,0.15,0.15,0.15,linear,0.025,TRUE,25,3,4,splines,0.0267,-1.232057290063389e-4,0.007226182689583429,0,10000
7,250,0,250,250,500,500,750,750,2,0,1,0,0,0,0,0,0,0,0.15,0.15,0.15,0.15,0.15,0.15,0.15,0.15,linear,0.025,TRUE,25,3,4,splines_cal,0.0268,-1.1795730439054671e-4,0.007230528456687917,0,10000
7,250,0,250,250,500,500,750,750,2,0,1,0,0,0,0,0,0,0,0.15,0.15,0.15,0.15,0.15,0.15,0.15,0.15,linear,0.025,TRUE,25,3,5,fixmodel,0.0239,5.473796340625175e-4,0.007233280053106945,0,10000
7,250,0,250,250,500,500,750,750,2,0,1,0,0,0,0,0,0,0,0.15,0.15,0.15,0.15,0.15,0.15,0.15,0.15,linear,0.025,TRUE,25,3,5,poolmodel,0.0614,0.03347508733344429,0.007437248203740747,0,10000
7,250,0,250,250,500,500,750,750,2,0,1,0,0,0,0,0,0,0,0.15,0.15,0.15,0.15,0.15,0.15,0.15,0.15,linear,0.025,TRUE,25,3,5,sepmodel,0.0253,0.0010934247763100433,0.008084694262694564,0,10000
7,250,0,250,250,500,500,750,750,2,0,1,0,0,0,0,0,0,0,0.15,0.15,0.15,0.15,0.15,0.15,0.15,0.15,linear,0.025,TRUE,25,3,5,splines,0.0241,5.579670823363508e-4,0.0071827862695199125,0,10000
7,250,0,250,250,500,500,750,750,2,0,1,0,0,0,0,0,0,0,0.15,0.15,0.15,0.15,0.15,0.15,0.15,0.15,linear,0.025,TRUE,25,3,5,splines_cal,0.0252,4.667693663972524e-4,0.007214233678612555,0,10000
7,250,0,250,250,500,500,750,750,2,0,1,0,0,0,0,0,0,0,0.15,0.15,0.15,0.15,0.15,0.15,0.15,0.15,linear,0.025,TRUE,25,3,6,fixmodel,0.0243,7.134253396114935e-4,0.00692281450209151,0,10000
7,250,0,250,250,500,500,750,750,2,0,1,0,0,0,0,0,0,0,0.15,0.15,0.15,0.15,0.15,0.15,0.15,0.15,linear,0.025,TRUE,25,3,6,poolmodel,0.0771,0.04334660214781989,0.007861008335410797,0,10000
7,250,0,250,250,500,500,750,750,2,0,1,0,0,0,0,0,0,0,0.15,0.15,0.15,0.15,0.15,0.15,0.15,0.15,linear,0.025,TRUE,25,3,6,sepmodel,0.0245,0.0013334726181138635,0.007955109856013184,0,10000
7,250,0,250,250,500,500,750,750,2,0,1,0,0,0,0,0,0,0,0.15,0.15,0.15,0.15,0.15,0.15,0.15,0.15,linear,0.025,TRUE,25,3,6,splines,0.0238,7.421251021974051e-4,0.00688599914761126,0,10000
7,250,0,250,250,500,500,750,750,2,0,1,0,0,0,0,0,0,0,0.15,0.15,0.15,0.15,0.15,0.15,0.15,0.15,linear,0.025,TRUE,25,3,6,splines_cal,0.0239,7.725517451171707e-4,0.006926975235697837,0,10000
7,250,0,250,250,500,500,750,750,2,0,1,0,0,0,0,0,0,0,0.15,0.15,0.15,0.15,0.15,0.15,0.15,0.15,linear,0.025,TRUE,25,3,7,fixmodel,0.0234,-3.2512160968322604e-4,0.006969209468608836,0,10000
7,250,0,250,250,500,500,750,750,2,0,1,0,0,0,0,0,0,0,0.15,0.15,0.15,0.15,0.15,0.15,0.15,0.15,linear,0.025,TRUE,25,3,7,poolmodel,0.0792,0.0423080551985252,0.007882932908156103,0,10000
7,250,0,250,250,500,500,750,750,2,0,1,0,0,0,0,0,0,0,0.15,0.15,0.15,0.15,0.15,0.15,0.15,0.15,linear,0.025,TRUE,25,3,7,sepmodel,0.0231,2.9492566881915774e-4,0.007902660288099475,0,10000
7,250,0,250,250,500,500,750,750,2,0,1,0,0,0,0,0,0,0,0.15,0.15,0.15,0.15,0.15,0.15,0.15,0.15,linear,0.025,TRUE,25,3,7,splines,0.0231,-2.9143305843644553e-4,0.006923409204534722,0,10000
7,250,0,250,250,500,500,750,750,2,0,1,0,0,0,0,0,0,0,0.15,0.15,0.15,0.15,0.15,0.15,0.15,0.15,linear,0.025,TRUE,25,3,7,splines_cal,0.0231,-2.9027463036202184e-4,0.006984820660684428,0,10000
7,250,0,250,250,500,500,750,750,2,0,1,0,0,0,0,0,0,0,-0.15,-0.15,-0.15,-0.15,-0.15,-0.15,-0.15,-0.15,stepwise_2,0.025,TRUE,25,3,2,fixmodel,0.0268,3.617196279943518e-4,0.007430597388026674,0,10000
7,250,0,250,250,500,500,750,750,2,0,1,0,0,0,0,0,0,0,-0.15,-0.15,-0.15,-0.15,-0.15,-0.15,-0.15,-0.15,stepwise_2,0.025,TRUE,25,3,2,poolmodel,0,-0.2323928113415595,0.06069733352473272,0,10000
7,250,0,250,250,500,500,750,750,2,0,1,0,0,0,0,0,0,0,-0.15,-0.15,-0.15,-0.15,-0.15,-0.15,-0.15,-0.15,stepwise_2,0.025,TRUE,25,3,2,sepmodel,0.0219,3.7848629232532723e-4,0.007941674295040805,0,10000
7,250,0,250,250,500,500,750,750,2,0,1,0,0,0,0,0,0,0,-0.15,-0.15,-0.15,-0.15,-0.15,-0.15,-0.15,-0.15,stepwise_2,0.025,TRUE,25,3,2,splines,0.0189,-0.012120092037989597,0.007489831671398588,0,10000
7,250,0,250,250,500,500,750,750,2,0,1,0,0,0,0,0,0,0,-0.15,-0.15,-0.15,-0.15,-0.15,-0.15,-0.15,-0.15,stepwise_2,0.025,TRUE,25,3,2,splines_cal,0.0241,-0.0016966033319455748,0.007432506380286845,0,10000
7,250,0,250,250,500,500,750,750,2,0,1,0,0,0,0,0,0,0,-0.15,-0.15,-0.15,-0.15,-0.15,-0.15,-0.15,-0.15,stepwise_2,0.025,TRUE,25,3,3,fixmodel,0.0256,5.152912794685637e-4,0.007488287857237228,0,10000
7,250,0,250,250,500,500,750,750,2,0,1,0,0,0,0,0,0,0,-0.15,-0.15,-0.15,-0.15,-0.15,-0.15,-0.15,-0.15,stepwise_2,0.025,TRUE,25,3,3,poolmodel,0,-0.2322392396900874,0.060694121433936425,0,10000
7,250,0,250,250,500,500,750,750,2,0,1,0,0,0,0,0,0,0,-0.15,-0.15,-0.15,-0.15,-0.15,-0.15,-0.15,-0.15,stepwise_2,0.025,TRUE,25,3,3,sepmodel,0.021,5.320579437974212e-4,0.007982961193123556,0,10000
7,250,0,250,250,500,500,750,750,2,0,1,0,0,0,0,0,0,0,-0.15,-0.15,-0.15,-0.15,-0.15,-0.15,-0.15,-0.15,stepwise_2,0.025,TRUE,25,3,3,splines,0.0185,-0.011968642260695559,0.007547758549842106,0,10000
7,250,0,250,250,500,500,750,750,2,0,1,0,0,0,0,0,0,0,-0.15,-0.15,-0.15,-0.15,-0.15,-0.15,-0.15,-0.15,stepwise_2,0.025,TRUE,25,3,3,splines_cal,0.0237,-0.0015584232931412222,0.0074969653392957785,0,10000
7,250,0,250,250,500,500,750,750,2,0,1,0,0,0,0,0,0,0,-0.15,-0.15,-0.15,-0.15,-0.15,-0.15,-0.15,-0.15,stepwise_2,0.025,TRUE,25,3,4,fixmodel,0.0246,-1.2616535679825082e-5,0.006934637564797924,0,10000
7,250,0,250,250,500,500,750,750,2,0,1,0,0,0,0,0,0,0,-0.15,-0.15,-0.15,-0.15,-0.15,-0.15,-0.15,-0.15,stepwise_2,0.025,TRUE,25,3,4,poolmodel,0,-0.3213680799901356,0.10934933516173177,0,10000
7,250,0,250,250,500,500,750,750,2,0,1,0,0,0,0,0,0,0,-0.15,-0.15,-0.15,-0.15,-0.15,-0.15,-0.15,-0.15,stepwise_2,0.025,TRUE,25,3,4,sepmodel,0.024,2.6955700322430247e-4,0.007745149731736367,0,10000
7,250,0,250,250,500,500,750,750,2,0,1,0,0,0,0,0,0,0,-0.15,-0.15,-0.15,-0.15,-0.15,-0.15,-0.15,-0.15,stepwise_2,0.025,TRUE,25,3,4,splines,0.0172,-0.012104795297872247,0.007053206996715918,0,10000
7,250,0,250,250,500,500,750,750,2,0,1,0,0,0,0,0,0,0,-0.15,-0.15,-0.15,-0.15,-0.15,-0.15,-0.15,-0.15,stepwise_2,0.025,TRUE,25,3,4,splines_cal,0.0235,-0.0018493846413234467,0.00691485253102499,0,10000
7,250,0,250,250,500,500,750,750,2,0,1,0,0,0,0,0,0,0,-0.15,-0.15,-0.15,-0.15,-0.15,-0.15,-0.15,-0.15,stepwise_2,0.025,TRUE,25,3,5,fixmodel,0.0274,9.094609465832269e-4,0.007223513045257291,0,10000
7,250,0,250,250,500,500,750,750,2,0,1,0,0,0,0,0,0,0,-0.15,-0.15,-0.15,-0.15,-0.15,-0.15,-0.15,-0.15,stepwise_2,0.025,TRUE,25,3,5,poolmodel,0,-0.3204460025078726,0.10906374385981657,0,10000
7,250,0,250,250,500,500,750,750,2,0,1,0,0,0,0,0,0,0,-0.15,-0.15,-0.15,-0.15,-0.15,-0.15,-0.15,-0.15,stepwise_2,0.025,TRUE,25,3,5,sepmodel,0.0256,0.0011916344854873437,0.008060707556951815,0,10000
7,250,0,250,250,500,500,750,750,2,0,1,0,0,0,0,0,0,0,-0.15,-0.15,-0.15,-0.15,-0.15,-0.15,-0.15,-0.15,stepwise_2,0.025,TRUE,25,3,5,splines,0.0199,-0.011181679962464374,0.007329382663575508,0,10000
7,250,0,250,250,500,500,750,750,2,0,1,0,0,0,0,0,0,0,-0.15,-0.15,-0.15,-0.15,-0.15,-0.15,-0.15,-0.15,stepwise_2,0.025,TRUE,25,3,5,splines_cal,0.0263,-8.676590946120546e-4,0.0072079535724646066,0,10000
7,250,0,250,250,500,500,750,750,2,0,1,0,0,0,0,0,0,0,-0.15,-0.15,-0.15,-0.15,-0.15,-0.15,-0.15,-0.15,stepwise_2,0.025,TRUE,25,3,6,fixmodel,0.0261,-4.4786233065288925e-5,0.007003967919690671,0,10000
7,250,0,250,250,500,500,750,750,2,0,1,0,0,0,0,0,0,0,-0.15,-0.15,-0.15,-0.15,-0.15,-0.15,-0.15,-0.15,stepwise_2,0.025,TRUE,25,3,6,poolmodel,0,-0.33930767780885995,0.12119749637476833,0,10000
7,250,0,250,250,500,500,750,750,2,0,1,0,0,0,0,0,0,0,-0.15,-0.15,-0.15,-0.15,-0.15,-0.15,-0.15,-0.15,stepwise_2,0.025,TRUE,25,3,6,sepmodel,0.0227,2.2358877570197622e-4,0.00792308590144808,0,10000
7,250,0,250,250,500,500,750,750,2,0,1,0,0,0,0,0,0,0,-0.15,-0.15,-0.15,-0.15,-0.15,-0.15,-0.15,-0.15,stepwise_2,0.025,TRUE,25,3,6,splines,0.0176,-0.013622863307887948,0.0071511105751255605,0,10000
7,250,0,250,250,500,500,750,750,2,0,1,0,0,0,0,0,0,0,-0.15,-0.15,-0.15,-0.15,-0.15,-0.15,-0.15,-0.15,stepwise_2,0.025,TRUE,25,3,6,splines_cal,0.0243,-0.0018311945718957766,0.007027939033058979,0,10000
7,250,0,250,250,500,500,750,750,2,0,1,0,0,0,0,0,0,0,-0.15,-0.15,-0.15,-0.15,-0.15,-0.15,-0.15,-0.15,stepwise_2,0.025,TRUE,25,3,7,fixmodel,0.0265,8.957404678821278e-4,0.007051058388592322,0,10000
7,250,0,250,250,500,500,750,750,2,0,1,0,0,0,0,0,0,0,-0.15,-0.15,-0.15,-0.15,-0.15,-0.15,-0.15,-0.15,stepwise_2,0.025,TRUE,25,3,7,poolmodel,0,-0.3383671511079128,0.12063248639761971,0,10000
7,250,0,250,250,500,500,750,750,2,0,1,0,0,0,0,0,0,0,-0.15,-0.15,-0.15,-0.15,-0.15,-0.15,-0.15,-0.15,stepwise_2,0.025,TRUE,25,3,7,sepmodel,0.0258,0.0011641154766490753,0.007966422085547336,0,10000
7,250,0,250,250,500,500,750,750,2,0,1,0,0,0,0,0,0,0,-0.15,-0.15,-0.15,-0.15,-0.15,-0.15,-0.15,-0.15,stepwise_2,0.025,TRUE,25,3,7,splines,0.0175,-0.012680927472677348,0.007186878462793444,0,10000
7,250,0,250,250,500,500,750,750,2,0,1,0,0,0,0,0,0,0,-0.15,-0.15,-0.15,-0.15,-0.15,-0.15,-0.15,-0.15,stepwise_2,0.025,TRUE,25,3,7,splines_cal,0.0263,-8.276624081343786e-4,0.007080473900445743,0,10000
7,250,0,250,250,500,500,750,750,2,0,1,0,0,0,0,0,0,0,-0.11249999999999999,-0.11249999999999999,-0.11249999999999999,-0.11249999999999999,-0.11249999999999999,-0.11249999999999999,-0.11249999999999999,-0.11249999999999999,stepwise_2,0.025,TRUE,25,3,2,fixmodel,0.0262,7.195269349218696e-4,0.00738523150945103,0,10000
7,250,0,250,250,500,500,750,750,2,0,1,0,0,0,0,0,0,0,-0.11249999999999999,-0.11249999999999999,-0.11249999999999999,-0.11249999999999999,-0.11249999999999999,-0.11249999999999999,-0.11249999999999999,-0.11249999999999999,stepwise_2,0.025,TRUE,25,3,2,poolmodel,0,-0.1741278541766376,0.03693788832405821,0,10000
7,250,0,250,250,500,500,750,750,2,0,1,0,0,0,0,0,0,0,-0.11249999999999999,-0.11249999999999999,-0.11249999999999999,-0.11249999999999999,-0.11249999999999999,-0.11249999999999999,-0.11249999999999999,-0.11249999999999999,stepwise_2,0.025,TRUE,25,3,2,sepmodel,0.0247,5.763508536269461e-4,0.007921120326355722,0,10000
7,250,0,250,250,500,500,750,750,2,0,1,0,0,0,0,0,0,0,-0.11249999999999999,-0.11249999999999999,-0.11249999999999999,-0.11249999999999999,-0.11249999999999999,-0.11249999999999999,-0.11249999999999999,-0.11249999999999999,stepwise_2,0.025,TRUE,25,3,2,splines,0.0198,-0.008861936661252531,0.007387057603136566,0,10000
7,250,0,250,250,500,500,750,750,2,0,1,0,0,0,0,0,0,0,-0.11249999999999999,-0.11249999999999999,-0.11249999999999999,-0.11249999999999999,-0.11249999999999999,-0.11249999999999999,-0.11249999999999999,-0.11249999999999999,stepwise_2,0.025,TRUE,25,3,2,splines_cal,0.0247,-7.731565162490424e-4,0.007393712837650184,0,10000
7,250,0,250,250,500,500,750,750,2,0,1,0,0,0,0,0,0,0,-0.11249999999999999,-0.11249999999999999,-0.11249999999999999,-0.11249999999999999,-0.11249999999999999,-0.11249999999999999,-0.11249999999999999,-0.11249999999999999,stepwise_2,0.025,TRUE,25,3,3,fixmodel,0.0226,-8.508841238669225e-4,0.007352570160937554,0,10000
7,250,0,250,250,500,500,750,750,2,0,1,0,0,0,0,0,0,0,-0.11249999999999999,-0.11249999999999999,-0.11249999999999999,-0.11249999999999999,-0.11249999999999999,-0.11249999999999999,-0.11249999999999999,-0.11249999999999999,stepwise_2,0.025,TRUE,25,3,3,poolmodel,0,-0.17569826523542792,0.03743307847324767,0,10000
7,250,0,250,250,500,500,750,750,2,0,1,0,0,0,0,0,0,0,-0.11249999999999999,-0.11249999999999999,-0.11249999999999999,-0.11249999999999999,-0.11249999999999999,-0.11249999999999999,-0.11249999999999999,-0.11249999999999999,stepwise_2,0.025,TRUE,25,3,3,sepmodel,0.0212,-9.94060205163412e-4,0.00786635514020565,0,10000
7,250,0,250,250,500,500,750,750,2,0,1,0,0,0,0,0,0,0,-0.11249999999999999,-0.11249999999999999,-0.11249999999999999,-0.11249999999999999,-0.11249999999999999,-0.11249999999999999,-0.11249999999999999,-0.11249999999999999,stepwise_2,0.025,TRUE,25,3,3,splines,0.0176,-0.010432154866922939,0.00739451308144454,0,10000
7,250,0,250,250,500,500,750,750,2,0,1,0,0,0,0,0,0,0,-0.11249999999999999,-0.11249999999999999,-0.11249999999999999,-0.11249999999999999,-0.11249999999999999,-0.11249999999999999,-0.11249999999999999,-0.11249999999999999,stepwise_2,0.025,TRUE,25,3,3,splines_cal,0.0212,-0.002364658182865874,0.007340269019330755,0,10000
7,250,0,250,250,500,500,750,750,2,0,1,0,0,0,0,0,0,0,-0.11249999999999999,-0.11249999999999999,-0.11249999999999999,-0.11249999999999999,-0.11249999999999999,-0.11249999999999999,-0.11249999999999999,-0.11249999999999999,stepwise_2,0.025,TRUE,25,3,4,fixmodel,0.0236,3.149265619536685e-4,0.007133262153800908,0,10000
7,250,0,250,250,500,500,750,750,2,0,1,0,0,0,0,0,0,0,-0.11249999999999999,-0.11249999999999999,-0.11249999999999999,-0.11249999999999999,-0.11249999999999999,-0.11249999999999999,-0.11249999999999999,-0.11249999999999999,stepwise_2,0.025,TRUE,25,3,4,poolmodel,0,-0.2413365044403722,0.06449115873075349,0,10000
7,250,0,250,250,500,500,750,750,2,0,1,0,0,0,0,0,0,0,-0.11249999999999999,-0.11249999999999999,-0.11249999999999999,-0.11249999999999999,-0.11249999999999999,-0.11249999999999999,-0.11249999999999999,-0.11249999999999999,stepwise_2,0.025,TRUE,25,3,4,sepmodel,0.0235,3.578235456070416e-4,0.007945109756515958,0,10000
7,250,0,250,250,500,500,750,750,2,0,1,0,0,0,0,0,0,0,-0.11249999999999999,-0.11249999999999999,-0.11249999999999999,-0.11249999999999999,-0.11249999999999999,-0.11249999999999999,-0.11249999999999999,-0.11249999999999999,stepwise_2,0.025,TRUE,25,3,4,splines,0.0187,-0.008894930094556587,0.0071766410001934755,0,10000
7,250,0,250,250,500,500,750,750,2,0,1,0,0,0,0,0,0,0,-0.11249999999999999,-0.11249999999999999,-0.11249999999999999,-0.11249999999999999,-0.11249999999999999,-0.11249999999999999,-0.11249999999999999,-0.11249999999999999,stepwise_2,0.025,TRUE,25,3,4,splines_cal,0.0235,-0.001184311937914261,0.007133165863825516,0,10000
7,250,0,250,250,500,500,750,750,2,0,1,0,0,0,0,0,0,0,-0.11249999999999999,-0.11249999999999999,-0.11249999999999999,-0.11249999999999999,-0.11249999999999999,-0.11249999999999999,-0.11249999999999999,-0.11249999999999999,stepwise_2,0.025,TRUE,25,3,5,fixmodel,0.0258,4.2606059708737414e-4,0.007266702804803145,0,10000
7,250,0,250,250,500,500,750,750,2,0,1,0,0,0,0,0,0,0,-0.11249999999999999,-0.11249999999999999,-0.11249999999999999,-0.11249999999999999,-0.11249999999999999,-0.11249999999999999,-0.11249999999999999,-0.11249999999999999,stepwise_2,0.025,TRUE,25,3,5,poolmodel,0,-0.24122537040523853,0.06445855070981055,0,10000
7,250,0,250,250,500,500,750,750,2,0,1,0,0,0,0,0,0,0,-0.11249999999999999,-0.11249999999999999,-0.11249999999999999,-0.11249999999999999,-0.11249999999999999,-0.11249999999999999,-0.11249999999999999,-0.11249999999999999,stepwise_2,0.025,TRUE,25,3,5,sepmodel,0.0244,4.689575807407091e-4,0.008149208838180776,0,10000
7,250,0,250,250,500,500,750,750,2,0,1,0,0,0,0,0,0,0,-0.11249999999999999,-0.11249999999999999,-0.11249999999999999,-0.11249999999999999,-0.11249999999999999,-0.11249999999999999,-0.11249999999999999,-0.11249999999999999,stepwise_2,0.025,TRUE,25,3,5,splines,0.0192,-0.008786240141382438,0.007273122047747137,0,10000
7,250,0,250,250,500,500,750,750,2,0,1,0,0,0,0,0,0,0,-0.11249999999999999,-0.11249999999999999,-0.11249999999999999,-0.11249999999999999,-0.11249999999999999,-0.11249999999999999,-0.11249999999999999,-0.11249999999999999,stepwise_2,0.025,TRUE,25,3,5,splines_cal,0.0254,-0.0010230234332534254,0.007259420244164654,0,10000
7,250,0,250,250,500,500,750,750,2,0,1,0,0,0,0,0,0,0,-0.11249999999999999,-0.11249999999999999,-0.11249999999999999,-0.11249999999999999,-0.11249999999999999,-0.11249999999999999,-0.11249999999999999,-0.11249999999999999,stepwise_2,0.025,TRUE,25,3,6,fixmodel,0.0277,4.913648128782776e-4,0.007175871374688559,0,10000
7,250,0,250,250,500,500,750,750,2,0,1,0,0,0,0,0,0,0,-0.11249999999999999,-0.11249999999999999,-0.11249999999999999,-0.11249999999999999,-0.11249999999999999,-0.11249999999999999,-0.11249999999999999,-0.11249999999999999,stepwise_2,0.025,TRUE,25,3,6,poolmodel,0,-0.2545944282156205,0.07097006331995309,0,10000
7,250,0,250,250,500,500,750,750,2,0,1,0,0,0,0,0,0,0,-0.11249999999999999,-0.11249999999999999,-0.11249999999999999,-0.11249999999999999,-0.11249999999999999,-0.11249999999999999,-0.11249999999999999,-0.11249999999999999,stepwise_2,0.025,TRUE,25,3,6,sepmodel,0.0283,3.300522266024926e-4,0.008283268629126983,0,10000
7,250,0,250,250,500,500,750,750,2,0,1,0,0,0,0,0,0,0,-0.11249999999999999,-0.11249999999999999,-0.11249999999999999,-0.11249999999999999,-0.11249999999999999,-0.11249999999999999,-0.11249999999999999,-0.11249999999999999,stepwise_2,0.025,TRUE,25,3,6,splines,0.0205,-0.009791047588886449,0.007238927963438457,0,10000
7,250,0,250,250,500,500,750,750,2,0,1,0,0,0,0,0,0,0,-0.11249999999999999,-0.11249999999999999,-0.11249999999999999,-0.11249999999999999,-0.11249999999999999,-0.11249999999999999,-0.11249999999999999,-0.11249999999999999,stepwise_2,0.025,TRUE,25,3,6,splines_cal,0.0273,-9.126149840213021e-4,0.007178873221046702,0,10000
7,250,0,250,250,500,500,750,750,2,0,1,0,0,0,0,0,0,0,-0.11249999999999999,-0.11249999999999999,-0.11249999999999999,-0.11249999999999999,-0.11249999999999999,-0.11249999999999999,-0.11249999999999999,-0.11249999999999999,stepwise_2,0.025,TRUE,25,3,7,fixmodel,0.0256,0.0011747512416997905,0.007197470992561703,0,10000
7,250,0,250,250,500,500,750,750,2,0,1,0,0,0,0,0,0,0,-0.11249999999999999,-0.11249999999999999,-0.11249999999999999,-0.11249999999999999,-0.11249999999999999,-0.11249999999999999,-0.11249999999999999,-0.11249999999999999,stepwise_2,0.025,TRUE,25,3,7,poolmodel,0,-0.2539110417867991,0.0706641170031655,0,10000
7,250,0,250,250,500,500,750,750,2,0,1,0,0,0,0,0,0,0,-0.11249999999999999,-0.11249999999999999,-0.11249999999999999,-0.11249999999999999,-0.11249999999999999,-0.11249999999999999,-0.11249999999999999,-0.11249999999999999,stepwise_2,0.025,TRUE,25,3,7,sepmodel,0.027,0.0010134386554239182,0.00825384082998151,0,10000
7,250,0,250,250,500,500,750,750,2,0,1,0,0,0,0,0,0,0,-0.11249999999999999,-0.11249999999999999,-0.11249999999999999,-0.11249999999999999,-0.11249999999999999,-0.11249999999999999,-0.11249999999999999,-0.11249999999999999,stepwise_2,0.025,TRUE,25,3,7,splines,0.0188,-0.009101408190382423,0.007258645681439881,0,10000
7,250,0,250,250,500,500,750,750,2,0,1,0,0,0,0,0,0,0,-0.11249999999999999,-0.11249999999999999,-0.11249999999999999,-0.11249999999999999,-0.11249999999999999,-0.11249999999999999,-0.11249999999999999,-0.11249999999999999,stepwise_2,0.025,TRUE,25,3,7,splines_cal,0.0247,-2.5258791796954844e-4,0.007220569278382126,0,10000
7,250,0,250,250,500,500,750,750,2,0,1,0,0,0,0,0,0,0,-0.075,-0.075,-0.075,-0.075,-0.075,-0.075,-0.075,-0.075,stepwise_2,0.025,TRUE,25,3,2,fixmodel,0.0233,-3.7136542672815793e-4,0.007464352161298733,0,10000
7,250,0,250,250,500,500,750,750,2,0,1,0,0,0,0,0,0,0,-0.075,-0.075,-0.075,-0.075,-0.075,-0.075,-0.075,-0.075,stepwise_2,0.025,TRUE,25,3,2,poolmodel,4e-4,-0.11671274616662228,0.020272460870848438,0,10000
7,250,0,250,250,500,500,750,750,2,0,1,0,0,0,0,0,0,0,-0.075,-0.075,-0.075,-0.075,-0.075,-0.075,-0.075,-0.075,stepwise_2,0.025,TRUE,25,3,2,sepmodel,0.0224,-5.611288967324396e-4,0.008041365136704275,0,10000
7,250,0,250,250,500,500,750,750,2,0,1,0,0,0,0,0,0,0,-0.075,-0.075,-0.075,-0.075,-0.075,-0.075,-0.075,-0.075,stepwise_2,0.025,TRUE,25,3,2,splines,0.0199,-0.006757817666311798,0.007418167168613236,0,10000
7,250,0,250,250,500,500,750,750,2,0,1,0,0,0,0,0,0,0,-0.075,-0.075,-0.075,-0.075,-0.075,-0.075,-0.075,-0.075,stepwise_2,0.025,TRUE,25,3,2,splines_cal,0.0235,-0.0013785435578904648,0.007434684320517277,0,10000
7,250,0,250,250,500,500,750,750,2,0,1,0,0,0,0,0,0,0,-0.075,-0.075,-0.075,-0.075,-0.075,-0.075,-0.075,-0.075,stepwise_2,0.025,TRUE,25,3,3,fixmodel,0.0243,7.136488833782236e-4,0.0073109778484574265,0,10000
7,250,0,250,250,500,500,750,750,2,0,1,0,0,0,0,0,0,0,-0.075,-0.075,-0.075,-0.075,-0.075,-0.075,-0.075,-0.075,stepwise_2,0.025,TRUE,25,3,3,poolmodel,4e-4,-0.11562773185651688,0.01994593367741903,0,10000
7,250,0,250,250,500,500,750,750,2,0,1,0,0,0,0,0,0,0,-0.075,-0.075,-0.075,-0.075,-0.075,-0.075,-0.075,-0.075,stepwise_2,0.025,TRUE,25,3,3,sepmodel,0.0233,5.238854133729659e-4,0.007839135271368652,0,10000
7,250,0,250,250,500,500,750,750,2,0,1,0,0,0,0,0,0,0,-0.075,-0.075,-0.075,-0.075,-0.075,-0.075,-0.075,-0.075,stepwise_2,0.025,TRUE,25,3,3,splines,0.0206,-0.0056707474380783655,0.007246941881203676,0,10000
7,250,0,250,250,500,500,750,750,2,0,1,0,0,0,0,0,0,0,-0.075,-0.075,-0.075,-0.075,-0.075,-0.075,-0.075,-0.075,stepwise_2,0.025,TRUE,25,3,3,splines_cal,0.0249,-3.282598325756269e-4,0.0072746837146840816,0,10000
7,250,0,250,250,500,500,750,750,2,0,1,0,0,0,0,0,0,0,-0.075,-0.075,-0.075,-0.075,-0.075,-0.075,-0.075,-0.075,stepwise_2,0.025,TRUE,25,3,4,fixmodel,0.0244,-9.364361129928534e-4,0.007083546604245587,0,10000
7,250,0,250,250,500,500,750,750,2,0,1,0,0,0,0,0,0,0,-0.075,-0.075,-0.075,-0.075,-0.075,-0.075,-0.075,-0.075,stepwise_2,0.025,TRUE,25,3,4,poolmodel,0,-0.16117438152723762,0.03215704402011723,0,10000
7,250,0,250,250,500,500,750,750,2,0,1,0,0,0,0,0,0,0,-0.075,-0.075,-0.075,-0.075,-0.075,-0.075,-0.075,-0.075,stepwise_2,0.025,TRUE,25,3,4,sepmodel,0.0247,-8.964612222354828e-4,0.007946773024766988,0,10000
7,250,0,250,250,500,500,750,750,2,0,1,0,0,0,0,0,0,0,-0.075,-0.075,-0.075,-0.075,-0.075,-0.075,-0.075,-0.075,stepwise_2,0.025,TRUE,25,3,4,splines,0.0211,-0.006865419011126163,0.0070798458148945784,0,10000
7,250,0,250,250,500,500,750,750,2,0,1,0,0,0,0,0,0,0,-0.075,-0.075,-0.075,-0.075,-0.075,-0.075,-0.075,-0.075,stepwise_2,0.025,TRUE,25,3,4,splines_cal,0.0243,-0.0019516287547735652,0.00706836304934861,0,10000
7,250,0,250,250,500,500,750,750,2,0,1,0,0,0,0,0,0,0,-0.075,-0.075,-0.075,-0.075,-0.075,-0.075,-0.075,-0.075,stepwise_2,0.025,TRUE,25,3,5,fixmodel,0.0223,-0.0014414727637896347,0.006967068796778285,0,10000
7,250,0,250,250,500,500,750,750,2,0,1,0,0,0,0,0,0,0,-0.075,-0.075,-0.075,-0.075,-0.075,-0.075,-0.075,-0.075,stepwise_2,0.025,TRUE,25,3,5,poolmodel,0,-0.1616794181780344,0.03225593741220688,0,10000
7,250,0,250,250,500,500,750,750,2,0,1,0,0,0,0,0,0,0,-0.075,-0.075,-0.075,-0.075,-0.075,-0.075,-0.075,-0.075,stepwise_2,0.025,TRUE,25,3,5,sepmodel,0.0231,-0.001401497873032302,0.007763898416189021,0,10000
7,250,0,250,250,500,500,750,750,2,0,1,0,0,0,0,0,0,0,-0.075,-0.075,-0.075,-0.075,-0.075,-0.075,-0.075,-0.075,stepwise_2,0.025,TRUE,25,3,5,splines,0.0184,-0.007372347910472616,0.006978845820673007,0,10000
7,250,0,250,250,500,500,750,750,2,0,1,0,0,0,0,0,0,0,-0.075,-0.075,-0.075,-0.075,-0.075,-0.075,-0.075,-0.075,stepwise_2,0.025,TRUE,25,3,5,splines_cal,0.0214,-0.0024630037849296916,0.0069656130478290175,0,10000
7,250,0,250,250,500,500,750,750,2,0,1,0,0,0,0,0,0,0,-0.075,-0.075,-0.075,-0.075,-0.075,-0.075,-0.075,-0.075,stepwise_2,0.025,TRUE,25,3,6,fixmodel,0.0255,3.174437700222538e-5,0.006916076265036221,0,10000
7,250,0,250,250,500,500,750,750,2,0,1,0,0,0,0,0,0,0,-0.075,-0.075,-0.075,-0.075,-0.075,-0.075,-0.075,-0.075,stepwise_2,0.025,TRUE,25,3,6,poolmodel,0,-0.1693310899937969,0.03473085211365687,0,10000
7,250,0,250,250,500,500,750,750,2,0,1,0,0,0,0,0,0,0,-0.075,-0.075,-0.075,-0.075,-0.075,-0.075,-0.075,-0.075,stepwise_2,0.025,TRUE,25,3,6,sepmodel,0.0231,1.090677863831381e-4,0.007838124343259794,0,10000
7,250,0,250,250,500,500,750,750,2,0,1,0,0,0,0,0,0,0,-0.075,-0.075,-0.075,-0.075,-0.075,-0.075,-0.075,-0.075,stepwise_2,0.025,TRUE,25,3,6,splines,0.0214,-0.006895312077753692,0.0069297084605009236,0,10000
7,250,0,250,250,500,500,750,750,2,0,1,0,0,0,0,0,0,0,-0.075,-0.075,-0.075,-0.075,-0.075,-0.075,-0.075,-0.075,stepwise_2,0.025,TRUE,25,3,6,splines_cal,0.0241,-8.520531771414243e-4,0.006934008866215539,0,10000
7,250,0,250,250,500,500,750,750,2,0,1,0,0,0,0,0,0,0,-0.075,-0.075,-0.075,-0.075,-0.075,-0.075,-0.075,-0.075,stepwise_2,0.025,TRUE,25,3,7,fixmodel,0.0261,-0.001098243328523431,0.007062992131342054,0,10000
7,250,0,250,250,500,500,750,750,2,0,1,0,0,0,0,0,0,0,-0.075,-0.075,-0.075,-0.075,-0.075,-0.075,-0.075,-0.075,stepwise_2,0.025,TRUE,25,3,7,poolmodel,0,-0.17046107769932267,0.035209100751850124,0,10000
7,250,0,250,250,500,500,750,750,2,0,1,0,0,0,0,0,0,0,-0.075,-0.075,-0.075,-0.075,-0.075,-0.075,-0.075,-0.075,stepwise_2,0.025,TRUE,25,3,7,sepmodel,0.0244,-0.0010209199191426196,0.00797420032188727,0,10000
7,250,0,250,250,500,500,750,750,2,0,1,0,0,0,0,0,0,0,-0.075,-0.075,-0.075,-0.075,-0.075,-0.075,-0.075,-0.075,stepwise_2,0.025,TRUE,25,3,7,splines,0.0218,-0.008028354179447535,0.007086284892435821,0,10000
7,250,0,250,250,500,500,750,750,2,0,1,0,0,0,0,0,0,0,-0.075,-0.075,-0.075,-0.075,-0.075,-0.075,-0.075,-0.075,stepwise_2,0.025,TRUE,25,3,7,splines_cal,0.0249,-0.0020583725958827005,0.007061066367474035,0,10000
7,250,0,250,250,500,500,750,750,2,0,1,0,0,0,0,0,0,0,-0.037500000000000006,-0.037500000000000006,-0.037500000000000006,-0.037500000000000006,-0.037500000000000006,-0.037500000000000006,-0.037500000000000006,-0.037500000000000006,stepwise_2,0.025,TRUE,25,3,2,fixmodel,0.0253,0.001749242266278801,0.00735856617028198,0,10000
7,250,0,250,250,500,500,750,750,2,0,1,0,0,0,0,0,0,0,-0.037500000000000006,-0.037500000000000006,-0.037500000000000006,-0.037500000000000006,-0.037500000000000006,-0.037500000000000006,-0.037500000000000006,-0.037500000000000006,stepwise_2,0.025,TRUE,25,3,2,poolmodel,0.0042,-0.056175236775762444,0.00977590064468123,0,10000
7,250,0,250,250,500,500,750,750,2,0,1,0,0,0,0,0,0,0,-0.037500000000000006,-0.037500000000000006,-0.037500000000000006,-0.037500000000000006,-0.037500000000000006,-0.037500000000000006,-0.037500000000000006,-0.037500000000000006,stepwise_2,0.025,TRUE,25,3,2,sepmodel,0.0241,0.0018816722748749494,0.007915810765027984,0,10000
7,250,0,250,250,500,500,750,750,2,0,1,0,0,0,0,0,0,0,-0.037500000000000006,-0.037500000000000006,-0.037500000000000006,-0.037500000000000006,-0.037500000000000006,-0.037500000000000006,-0.037500000000000006,-0.037500000000000006,stepwise_2,0.025,TRUE,25,3,2,splines,0.0241,-0.0013827318286716666,0.007281854073375743,0,10000
7,250,0,250,250,500,500,750,750,2,0,1,0,0,0,0,0,0,0,-0.037500000000000006,-0.037500000000000006,-0.037500000000000006,-0.037500000000000006,-0.037500000000000006,-0.037500000000000006,-0.037500000000000006,-0.037500000000000006,stepwise_2,0.025,TRUE,25,3,2,splines_cal,0.0254,0.0012272276097474244,0.007363102170126438,0,10000
7,250,0,250,250,500,500,750,750,2,0,1,0,0,0,0,0,0,0,-0.037500000000000006,-0.037500000000000006,-0.037500000000000006,-0.037500000000000006,-0.037500000000000006,-0.037500000000000006,-0.037500000000000006,-0.037500000000000006,stepwise_2,0.025,TRUE,25,3,3,fixmodel,0.0272,0.00165994525485208,0.007535137713815617,0,10000
7,250,0,250,250,500,500,750,750,2,0,1,0,0,0,0,0,0,0,-0.037500000000000006,-0.037500000000000006,-0.037500000000000006,-0.037500000000000006,-0.037500000000000006,-0.037500000000000006,-0.037500000000000006,-0.037500000000000006,stepwise_2,0.025,TRUE,25,3,3,poolmodel,0.004,-0.05626453378718966,0.009922664132739652,0,10000
7,250,0,250,250,500,500,750,750,2,0,1,0,0,0,0,0,0,0,-0.037500000000000006,-0.037500000000000006,-0.037500000000000006,-0.037500000000000006,-0.037500000000000006,-0.037500000000000006,-0.037500000000000006,-0.037500000000000006,stepwise_2,0.025,TRUE,25,3,3,sepmodel,0.0262,0.0017923752634477288,0.008048107386112871,0,10000
7,250,0,250,250,500,500,750,750,2,0,1,0,0,0,0,0,0,0,-0.037500000000000006,-0.037500000000000006,-0.037500000000000006,-0.037500000000000006,-0.037500000000000006,-0.037500000000000006,-0.037500000000000006,-0.037500000000000006,stepwise_2,0.025,TRUE,25,3,3,splines,0.0244,-0.0014698469300548124,0.00742967478802086,0,10000
7,250,0,250,250,500,500,750,750,2,0,1,0,0,0,0,0,0,0,-0.037500000000000006,-0.037500000000000006,-0.037500000000000006,-0.037500000000000006,-0.037500000000000006,-0.037500000000000006,-0.037500000000000006,-0.037500000000000006,stepwise_2,0.025,TRUE,25,3,3,splines_cal,0.0258,0.0010543310386604532,0.007519451579669954,0,10000
7,250,0,250,250,500,500,750,750,2,0,1,0,0,0,0,0,0,0,-0.037500000000000006,-0.037500000000000006,-0.037500000000000006,-0.037500000000000006,-0.037500000000000006,-0.037500000000000006,-0.037500000000000006,-0.037500000000000006,stepwise_2,0.025,TRUE,25,3,4,fixmodel,0.0234,4.98245966712927e-5,0.007144570479935754,0,10000
7,250,0,250,250,500,500,750,750,2,0,1,0,0,0,0,0,0,0,-0.037500000000000006,-0.037500000000000006,-0.037500000000000006,-0.037500000000000006,-0.037500000000000006,-0.037500000000000006,-0.037500000000000006,-0.037500000000000006,stepwise_2,0.025,TRUE,25,3,4,poolmodel,0.0018,-0.07999655715445358,0.012618139511650202,0,10000
7,250,0,250,250,500,500,750,750,2,0,1,0,0,0,0,0,0,0,-0.037500000000000006,-0.037500000000000006,-0.037500000000000006,-0.037500000000000006,-0.037500000000000006,-0.037500000000000006,-0.037500000000000006,-0.037500000000000006,stepwise_2,0.025,TRUE,25,3,4,sepmodel,0.0254,4.203692746156207e-4,0.00803066578828745,0,10000
7,250,0,250,250,500,500,750,750,2,0,1,0,0,0,0,0,0,0,-0.037500000000000006,-0.037500000000000006,-0.037500000000000006,-0.037500000000000006,-0.037500000000000006,-0.037500000000000006,-0.037500000000000006,-0.037500000000000006,stepwise_2,0.025,TRUE,25,3,4,splines,0.022,-0.0028707203651198894,0.007092722687500817,0,10000
7,250,0,250,250,500,500,750,750,2,0,1,0,0,0,0,0,0,0,-0.037500000000000006,-0.037500000000000006,-0.037500000000000006,-0.037500000000000006,-0.037500000000000006,-0.037500000000000006,-0.037500000000000006,-0.037500000000000006,stepwise_2,0.025,TRUE,25,3,4,splines_cal,0.0234,-5.371810485282709e-4,0.007121232275844879,0,10000
7,250,0,250,250,500,500,750,750,2,0,1,0,0,0,0,0,0,0,-0.037500000000000006,-0.037500000000000006,-0.037500000000000006,-0.037500000000000006,-0.037500000000000006,-0.037500000000000006,-0.037500000000000006,-0.037500000000000006,stepwise_2,0.025,TRUE,25,3,5,fixmodel,0.0285,4.6846965411356643e-4,0.007373755646416394,0,10000
7,250,0,250,250,500,500,750,750,2,0,1,0,0,0,0,0,0,0,-0.037500000000000006,-0.037500000000000006,-0.037500000000000006,-0.037500000000000006,-0.037500000000000006,-0.037500000000000006,-0.037500000000000006,-0.037500000000000006,stepwise_2,0.025,TRUE,25,3,5,poolmodel,0.0022,-0.07957791209701134,0.012798773985404716,0,10000
7,250,0,250,250,500,500,750,750,2,0,1,0,0,0,0,0,0,0,-0.037500000000000006,-0.037500000000000006,-0.037500000000000006,-0.037500000000000006,-0.037500000000000006,-0.037500000000000006,-0.037500000000000006,-0.037500000000000006,stepwise_2,0.025,TRUE,25,3,5,sepmodel,0.0277,8.390143320578587e-4,0.008163922740194602,0,10000
7,250,0,250,250,500,500,750,750,2,0,1,0,0,0,0,0,0,0,-0.037500000000000006,-0.037500000000000006,-0.037500000000000006,-0.037500000000000006,-0.037500000000000006,-0.037500000000000006,-0.037500000000000006,-0.037500000000000006,stepwise_2,0.025,TRUE,25,3,5,splines,0.0261,-0.00245101436037077,0.00732100549761684,0,10000
7,250,0,250,250,500,500,750,750,2,0,1,0,0,0,0,0,0,0,-0.037500000000000006,-0.037500000000000006,-0.037500000000000006,-0.037500000000000006,-0.037500000000000006,-0.037500000000000006,-0.037500000000000006,-0.037500000000000006,stepwise_2,0.025,TRUE,25,3,5,splines_cal,0.0268,-1.844451449712045e-4,0.00736570246985106,0,10000
7,250,0,250,250,500,500,750,750,2,0,1,0,0,0,0,0,0,0,-0.037500000000000006,-0.037500000000000006,-0.037500000000000006,-0.037500000000000006,-0.037500000000000006,-0.037500000000000006,-0.037500000000000006,-0.037500000000000006,stepwise_2,0.025,TRUE,25,3,6,fixmodel,0.0243,-4.367219072725919e-4,0.006893836608752117,0,10000
7,250,0,250,250,500,500,750,750,2,0,1,0,0,0,0,0,0,0,-0.037500000000000006,-0.037500000000000006,-0.037500000000000006,-0.037500000000000006,-0.037500000000000006,-0.037500000000000006,-0.037500000000000006,-0.037500000000000006,stepwise_2,0.025,TRUE,25,3,6,poolmodel,0.0012,-0.08492168768229848,0.01323265351247793,0,10000
7,250,0,250,250,500,500,750,750,2,0,1,0,0,0,0,0,0,0,-0.037500000000000006,-0.037500000000000006,-0.037500000000000006,-0.037500000000000006,-0.037500000000000006,-0.037500000000000006,-0.037500000000000006,-0.037500000000000006,stepwise_2,0.025,TRUE,25,3,6,sepmodel,0.0257,-1.647439920381648e-4,0.007924968351687448,0,10000
7,250,0,250,250,500,500,750,750,2,0,1,0,0,0,0,0,0,0,-0.037500000000000006,-0.037500000000000006,-0.037500000000000006,-0.037500000000000006,-0.037500000000000006,-0.037500000000000006,-0.037500000000000006,-0.037500000000000006,stepwise_2,0.025,TRUE,25,3,6,splines,0.0219,-0.003822713924075615,0.0068746153754882765,0,10000
7,250,0,250,250,500,500,750,750,2,0,1,0,0,0,0,0,0,0,-0.037500000000000006,-0.037500000000000006,-0.037500000000000006,-0.037500000000000006,-0.037500000000000006,-0.037500000000000006,-0.037500000000000006,-0.037500000000000006,stepwise_2,0.025,TRUE,25,3,6,splines_cal,0.0231,-9.024024986365632e-4,0.00690787958709669,0,10000
7,250,0,250,250,500,500,750,750,2,0,1,0,0,0,0,0,0,0,-0.037500000000000006,-0.037500000000000006,-0.037500000000000006,-0.037500000000000006,-0.037500000000000006,-0.037500000000000006,-0.037500000000000006,-0.037500000000000006,stepwise_2,0.025,TRUE,25,3,7,fixmodel,0.0283,0.0015403638405929977,0.00704005596610779,0,10000
7,250,0,250,250,500,500,750,750,2,0,1,0,0,0,0,0,0,0,-0.037500000000000006,-0.037500000000000006,-0.037500000000000006,-0.037500000000000006,-0.037500000000000006,-0.037500000000000006,-0.037500000000000006,-0.037500000000000006,stepwise_2,0.025,TRUE,25,3,7,poolmodel,0.0015,-0.08294460193443295,0.013035947815972027,0,10000
7,250,0,250,250,500,500,750,750,2,0,1,0,0,0,0,0,0,0,-0.037500000000000006,-0.037500000000000006,-0.037500000000000006,-0.037500000000000006,-0.037500000000000006,-0.037500000000000006,-0.037500000000000006,-0.037500000000000006,stepwise_2,0.025,TRUE,25,3,7,sepmodel,0.0274,0.0018123417558273762,0.00804553614590069,0,10000
7,250,0,250,250,500,500,750,750,2,0,1,0,0,0,0,0,0,0,-0.037500000000000006,-0.037500000000000006,-0.037500000000000006,-0.037500000000000006,-0.037500000000000006,-0.037500000000000006,-0.037500000000000006,-0.037500000000000006,stepwise_2,0.025,TRUE,25,3,7,splines,0.0245,-0.001850313865377624,0.007017094493071392,0,10000
